YU-l2025/UR5-MoveDataCollecting/upload/数据集/3.31test2.csv
global_index,timestamp_ms,tcp_x,tcp_y,tcp_z,tcp_rx,tcp_ry,tcp_rz,joint_q1,joint_q2,joint_q3,joint_q4,joint_q5,joint_q6
0,1774921923307,-0.093926209581776,-0.207488330940585,0.983601853040214,0.036324874926543,2.042054410762006,-2.029886718168315,0.138706922531128,-1.588429752980367,0.264015674591064,-1.428421322499410,0.032012112438679,-0.185805145894186
1,1774921923319,-0.093949709683138,-0.207491559006665,0.983597254450893,0.036302370161941,2.042035085009422,-2.029882640140076,0.138706922531128,-1.588417832051412,0.264051914215088,-1.428445164357321,0.032036080956459,-0.185828987752096
2,1774921923329,-0.093946942660144,-0.207491286207090,0.983595613455419,0.036421766665547,2.042040822054514,-2.029850640638093,0.138706922531128,-1.588429752980367,0.264051914215088,-1.428397480641500,0.031988143920898,-0.185793224965231
3,1774921923340,-0.093940367065977,-0.207494681658846,0.983598888915116,0.036362020318296,2.042009315137089,-2.029823505176676,0.138742506504059,-1.588405434285299,0.264015674591064,-1.428421322499410,0.032012112438679,-0.185756985341207
4,1774921923351,-0.093935997359060,-0.207489945659973,0.983598468351755,0.036369279497240,2.042149394773618,-2.029932338605356,0.138706922531128,-1.588429752980367,0.264028072357178,-1.428457562123434,0.031916238367558,-0.185828987752096
5,1774921923362,-0.093949840922151,-0.207494693701105,0.983594556178949,0.036420501173239,2.042049732103542,-2.029841415216132,0.138730883598328,-1.588417832051412,0.264039993286133,-1.428385559712545,0.031964175403118,-0.185805145894186
6,1774921923372,-0.093912313268552,-0.207492358982466,0.983602698418878,0.036273740426684,2.042094231318912,-2.029894682046510,0.138754487037659,-1.588429752980367,0.264003753662109,-1.428445164357321,0.031964175403118,-0.185817066823141
7,1774921923383,-0.093926819683157,-0.207488510346216,0.983601529111390,0.036323238135672,2.042098012911724,-2.029913910023121,0.138706922531128,-1.588429752980367,0.264015674591064,-1.428445164357321,0.031976159662008,-0.185817066823141
8,1774921923393,-0.093954514712101,-0.207496718567710,0.983594592017002,0.036361488286387,2.042036946585249,-2.029843398817184,0.138742506504059,-1.588405434285299,0.264039993286133,-1.428409401570455,0.031988143920898,-0.185817066823141
9,1774921923403,-0.093933263031655,-0.207487878411629,0.983600672180922,0.036349181678700,2.042068458425301,-2.029895391734743,0.138694941997528,-1.588429752980367,0.264028072357178,-1.428445164357321,0.032000128179789,-0.185793224965231
10,1774921923414,-0.093936766986473,-0.207489893234385,0.983598326564005,0.036421049066609,2.042055759854005,-2.029859195388140,0.138706922531128,-1.588429752980367,0.264028072357178,-1.428397480641500,0.031976159662008,-0.185781304036276
11,1774921923425,-0.093927276777235,-0.207491496206574,0.983602063342600,0.036249844725920,2.042095869374245,-2.029917628564516,0.138730883598328,-1.588417832051412,0.264015674591064,-1.428493324910299,0.031988143920898,-0.185817066823141
12,1774921923436,-0.093917598371822,-0.207487156919877,0.983602532405291,0.036348588306546,2.042058608128533,-2.029881954510315,0.138706922531128,-1.588441673909323,0.264015674591064,-1.428409401570455,0.032000128179789,-0.185793224965231
13,1774921923447,-0.093934471854064,-0.207488073219040,0.983601594556200,0.036372398111414,2.042072859038442,-2.029890896861705,0.138694941997528,-1.588417832051412,0.264003753662109,-1.428433243428366,0.031988143920898,-0.185781304036276
14,1774921923457,-0.093928852475584,-0.207491583957857,0.983603123601066,0.036241083528555,2.042041865024278,-2.029888474487707,0.138730883598328,-1.588405434285299,0.263991832733154,-1.428433243428366,0.032036080956459,-0.185828987752096
15,1774921923468,-0.093915592466410,-0.207485401620980,0.983603676522560,0.036336734235182,2.042073309273917,-2.029903195922323,0.138694941997528,-1.588441673909323,0.264003753662109,-1.428397480641500,0.032000128179789,-0.185817066823141
16,1774921923479,-0.093943575706286,-0.207490755195027,0.983598395475855,0.036362000562482,2.042038084195419,-2.029866465983479,0.138706922531128,-1.588417832051412,0.264028072357178,-1.428409401570455,0.032012112438679,-0.185805145894186
17,1774921923490,-0.093917980895571,-0.207493059954224,0.983599782972597,0.036300299777396,2.042039700867326,-2.029853882667890,0.138754487037659,-1.588441673909323,0.264039993286133,-1.428421322499410,0.032000128179789,-0.185805145894186
18,1774921923500,-0.093950407618254,-0.207490271476646,0.983597276252576,0.036385818652411,2.042052346021666,-2.029875406091370,0.138694941997528,-1.588417832051412,0.264039993286133,-1.428433243428366,0.032000128179789,-0.185793224965231
19,1774921923511,-0.093972585839415,-0.207488888289253,0.983594969582272,0.036424452980152,2.042036789899043,-2.029878547018981,0.138658985495567,-1.588405434285299,0.264051914215088,-1.428433243428366,0.032024096697569,-0.185793224965231
20,1774921923521,-0.093935903362147,-0.207492692805694,0.983595922178676,0.036372835243835,2.042041989020125,-2.029850155684318,0.138730883598328,-1.588441673909323,0.264063835144043,-1.428409401570455,0.031988143920898,-0.185805145894186
21,1774921923532,-0.093917307224192,-0.207487180277043,0.983602582650403,0.036371584295134,2.042077811621676,-2.029885683865574,0.138706922531128,-1.588441673909323,0.264015674591064,-1.428433243428366,0.031976159662008,-0.185769383107321
22,1774921923543,-0.093939637105132,-0.207494583867402,0.983597650448742,0.036337372068307,2.042019637511379,-2.029837889581964,0.138742506504059,-1.588417832051412,0.264039993286133,-1.428433243428366,0.032012112438679,-0.185781304036276
23,1774921923554,-0.093936496625232,-0.207494150696129,0.983598848298944,0.036276562478377,2.042045882775657,-2.029871957861096,0.138742506504059,-1.588417832051412,0.264039993286133,-1.428469006215231,0.032012112438679,-0.185805145894186
24,1774921923565,-0.093958466650821,-0.207492965446912,0.983595840321173,0.036396520745568,2.042081026908136,-2.029881090643172,0.138706922531128,-1.588405434285299,0.264039993286133,-1.428469006215231,0.031964175403118,-0.185781304036276
25,1774921923576,-0.093956600640652,-0.207492604584307,0.983594534509247,0.036446521966946,2.042016102513565,-2.029827570901117,0.138706922531128,-1.588417832051412,0.264051914215088,-1.428397480641500,0.032000128179789,-0.185769383107321
26,1774921923587,-0.093940840487282,-0.207487484948076,0.983598700771338,0.036397820760486,2.042070910198749,-2.029892305828423,0.138682946562767,-1.588429752980367,0.264028072357178,-1.428397480641500,0.031988143920898,-0.185817066823141
27,1774921923597,-0.093947381281717,-0.207487024461468,0.983597631918741,0.036444636234004,2.042104374700854,-2.029904974727129,0.138670966029167,-1.588429752980367,0.264039993286133,-1.428445164357321,0.031952191144228,-0.185781304036276
28,1774921923607,-0.093924232801653,-0.207491026277957,0.983600680266094,0.036324202174858,2.042048677147215,-2.029868567373563,0.138730883598328,-1.588429752980367,0.264015674591064,-1.428397480641500,0.032000128179789,-0.185817066823141
29,1774921923617,-0.093906318933401,-0.207489897792839,0.983604079259231,0.036264324612302,2.042037086972888,-2.029869614835214,0.138742506504059,-1.588441673909323,0.264015674591064,-1.428433243428366,0.032024096697569,-0.185793224965231
30,1774921923628,-0.093921675569984,-0.207492129615574,0.983600705387519,0.036323748738686,2.042053782537448,-2.029863546509862,0.138742506504059,-1.588429752980367,0.264015674591064,-1.428409401570455,0.031988143920898,-0.185805145894186
31,1774921923639,-0.093920045495907,-0.207490448765875,0.983602277416076,0.036287436400319,2.042065172550022,-2.029888098392962,0.138730883598328,-1.588429752980367,0.264015674591064,-1.428445164357321,0.032000128179789,-0.185805145894186
32,1774921923650,-0.093954339487895,-0.207490694770497,0.983598006856334,0.036352143283502,2.042009351691028,-2.029859795443853,0.138694941997528,-1.588405434285299,0.264028072357178,-1.428409401570455,0.032048065215349,-0.185805145894186
33,1774921923661,-0.093915829541435,-0.207491316119620,0.983600952319959,0.036336200198803,2.042048868279555,-2.029855803622329,0.138742506504059,-1.588441673909323,0.264028072357178,-1.428421322499410,0.031988143920898,-0.185781304036276
34,1774921923672,-0.093920628752001,-0.207491985226330,0.983601104692210,0.036323621664325,2.042054122451992,-2.029863133117292,0.138742506504059,-1.588429752980367,0.264015674591064,-1.428421322499410,0.031988143920898,-0.185793224965231
35,1774921923682,-0.093951681910633,-0.207496324208161,0.983597086635556,0.036360612677485,2.042038150548748,-2.029842447419144,0.138742506504059,-1.588393513356344,0.264015674591064,-1.428433243428366,0.031988143920898,-0.185781304036276
36,1774921923693,-0.093952038827563,-0.207490525258207,0.983598140522649,0.036373266436470,2.042071668803339,-2.029891829164167,0.138694941997528,-1.588405434285299,0.264015674591064,-1.428421322499410,0.031988143920898,-0.185817066823141
37,1774921923703,-0.093924115903720,-0.207488042232177,0.983602651568216,0.036324620593332,2.042055091099026,-2.029885890754229,0.138706922531128,-1.588429752980367,0.264015674591064,-1.428445164357321,0.032012112438679,-0.185781304036276
38,1774921923715,-0.093918284999506,-0.207496038174079,0.983597770337597,0.036349299780408,2.041998245706366,-2.029799118149820,0.138778448104858,-1.588441673909323,0.264039993286133,-1.428361241017477,0.032000128179789,-0.185793224965231
39,1774921923725,-0.093932741722468,-0.207489366276961,0.983601245530740,0.036346944877110,2.042102224072495,-2.029909127441704,0.138706922531128,-1.588417832051412,0.264003753662109,-1.428445164357321,0.031964175403118,-0.185805145894186
40,1774921923736,-0.093936513084444,-0.207488350722529,0.983597396097272,0.036458873118001,2.042034765475398,-2.029843802719882,0.138694941997528,-1.588441673909323,0.264039993286133,-1.428361241017477,0.031988143920898,-0.185781304036276
41,1774921923746,-0.093952129119986,-0.207494869575501,0.983596513339079,0.036326225661433,2.042019381550780,-2.029849685962568,0.138730883598328,-1.588405434285299,0.264039993286133,-1.428433243428366,0.032024096697569,-0.185805145894186
42,1774921923757,-0.093933459696247,-0.207496625829738,0.983597571714104,0.036325788749412,2.041989629988942,-2.029808969148173,0.138766467571259,-1.588417832051412,0.264028072357178,-1.428373638783590,0.032024096697569,-0.185805145894186
43,1774921923768,-0.093924203703941,-0.207486575540303,0.983602997211552,0.036349277887644,2.042053975873162,-2.029886774527973,0.138694941997528,-1.588429752980367,0.264003753662109,-1.428409401570455,0.032012112438679,-0.185793224965231
44,1774921923779,-0.093912700386863,-0.207490878117625,0.983605018911923,0.036238993293416,2.042090527790163,-2.029910687421274,0.138742506504059,-1.588417832051412,0.263980388641357,-1.428445164357321,0.031988143920898,-0.185828987752096
45,1774921923789,-0.093911434324890,-0.207489274528363,0.983602956802813,0.036286978110972,2.042079460364412,-2.029897458336966,0.138730883598328,-1.588441673909323,0.264015674591064,-1.428433243428366,0.031988143920898,-0.185817066823141
46,1774921923799,-0.093946671641404,-0.207489809082663,0.983598071524236,0.036372683149524,2.042086322002518,-2.029900754053410,0.138694941997528,-1.588417832051412,0.264028072357178,-1.428433243428366,0.031976159662008,-0.185817066823141
47,1774921923809,-0.093955850773311,-0.207491030304440,0.983597308636151,0.036410473715749,2.042042034821922,-2.029861016725423,0.138694941997528,-1.588405434285299,0.264028072357178,-1.428433243428366,0.032000128179789,-0.185769383107321
48,1774921923820,-0.093947929502958,-0.207495799488659,0.983596535108520,0.036349147068955,2.042042646857678,-2.029849654923549,0.138742506504059,-1.588405434285299,0.264028072357178,-1.428421322499410,0.031988143920898,-0.185805145894186
49,1774921923830,-0.093917502309751,-0.207493089176583,0.983599874330966,0.036322218517002,2.042073767119682,-2.029866804844333,0.138754487037659,-1.588441673909323,0.264039993286133,-1.428457562123434,0.031964175403118,-0.185781304036276
50,1774921923840,-0.093927502974140,-0.207487072995268,0.983602277416076,0.036300221104660,2.042089169489825,-2.029923512440697,0.138694941997528,-1.588429752980367,0.264015674591064,-1.428445164357321,0.032000128179789,-0.185828987752096
51,1774921923850,-0.093961191538430,-0.207496158818789,0.983595031577450,0.036338227536218,2.042027617941996,-2.029853205794582,0.138730883598328,-1.588393513356344,0.264028072357178,-1.428397480641500,0.032012112438679,-0.185840908681051
52,1774921923861,-0.093926327349259,-0.207492898157907,0.983598809285421,0.036418717628726,2.042070309212560,-2.029844824048940,0.138742506504059,-1.588429752980367,0.264015674591064,-1.428397480641500,0.031940206885338,-0.185769383107321
53,1774921923871,-0.093932086425384,-0.207492120649311,0.983598276301760,0.036361330375523,2.042032331814133,-2.029848334703127,0.138730883598328,-1.588429752980367,0.264028072357178,-1.428373638783590,0.032000128179789,-0.185817066823141
54,1774921923881,-0.093910808792942,-0.207490616025163,0.983600861627201,0.036312033097241,2.042058963953920,-2.029869926203133,0.138742506504059,-1.588453594838278,0.264039993286133,-1.428421322499410,0.031988143920898,-0.185805145894186
55,1774921923892,-0.093913867688484,-0.207485044224340,0.983606461524837,0.036265677016852,2.042047366675048,-2.029906966270151,0.138694941997528,-1.588429752980367,0.263991832733154,-1.428433243428366,0.032048065215349,-0.185805145894186
56,1774921923903,-0.093932843979862,-0.207492200504524,0.983600000808311,0.036312574731621,2.042039434227107,-2.029866269477713,0.138730883598328,-1.588417832051412,0.264015674591064,-1.428409401570455,0.032012112438679,-0.185817066823141
57,1774921923913,-0.093922427473725,-0.207484916782530,0.983602557523316,0.036372653818558,2.042082531471094,-2.029905083398817,0.138682946562767,-1.588441673909323,0.264015674591064,-1.428421322499410,0.031988143920898,-0.185793224965231
58,1774921923924,-0.093933626545073,-0.207489460182302,0.983599524550073,0.036360239862722,2.042082007301836,-2.029893264023920,0.138706922531128,-1.588429752980367,0.264028072357178,-1.428433243428366,0.031976159662008,-0.185805145894186
59,1774921923935,-0.093926826507145,-0.207487102736086,0.983598994200588,0.036383605064181,2.042110562514334,-2.029911562971117,0.138694941997528,-1.588453594838278,0.264051914215088,-1.428445164357321,0.031952191144228,-0.185805145894186
60,1774921923946,-0.093944229407111,-0.207486427589358,0.983600400103806,0.036374056876089,2.042062955748766,-2.029901349964358,0.138670966029167,-1.588417832051412,0.264015674591064,-1.428421322499410,0.032012112438679,-0.185805145894186
61,1774921923957,-0.093946559090605,-0.207491204752007,0.983594353305025,0.036422360069235,2.042026204558280,-2.029841692884561,0.138706922531128,-1.588441673909323,0.264075756072998,-1.428397480641500,0.032000128179789,-0.185793224965231
62,1774921923968,-0.093977384335688,-0.207494144725931,0.983591546665345,0.036543072623506,2.042040846331604,-2.029823712838946,0.138694941997528,-1.588393513356344,0.264028072357178,-1.428349320088522,0.031952191144228,-0.185781304036276
63,1774921923978,-0.093951242436324,-0.207494863571630,0.983596160900750,0.036384808467359,2.042051360186213,-2.029851756049580,0.138730883598328,-1.588405434285299,0.264028072357178,-1.428421322499410,0.031976159662008,-0.185793224965231
64,1774921923988,-0.093963285133380,-0.207496447566753,0.983594232845879,0.036410993908399,2.041996666223929,-2.029811661273720,0.138730883598328,-1.588393513356344,0.264028072357178,-1.428373638783590,0.032012112438679,-0.185793224965231
65,1774921923999,-0.093884900548278,-0.207488466623867,0.983607496062560,0.036238154833403,2.042081368015928,-2.029896421589048,0.138754487037659,-1.588453594838278,0.263991832733154,-1.428433243428366,0.031988143920898,-0.185805145894186
66,1774921924010,-0.093901500519723,-0.207484907984820,0.983605528442798,0.036299992202576,2.042079425154594,-2.029909415236571,0.138706922531128,-1.588453594838278,0.264003753662109,-1.428409401570455,0.032000128179789,-0.185817066823141
67,1774921924021,-0.093948166925362,-0.207488421281129,0.983597135464884,0.036375161618192,2.042037787519571,-2.029878783341568,0.138682946562767,-1.588429752980367,0.264051914215088,-1.428409401570455,0.032024096697569,-0.185817066823141
68,1774921924031,-0.093918095616356,-0.207490236200367,0.983600977448813,0.036323391880545,2.042078102655829,-2.029885738661633,0.138730883598328,-1.588441673909323,0.264028072357178,-1.428433243428366,0.031976159662008,-0.185805145894186
69,1774921924042,-0.093932197131623,-0.207495044022891,0.983600457601783,0.036288073894110,2.042045069411143,-2.029860533813328,0.138754487037659,-1.588405434285299,0.264003753662109,-1.428433243428366,0.032000128179789,-0.185805145894186
70,1774921924053,-0.093966535401150,-0.207493993620677,0.983593422442635,0.036410751751420,2.042031044067401,-2.029848469815145,0.138706922531128,-1.588405434285299,0.264051914215088,-1.428409401570455,0.032000128179789,-0.185805145894186
71,1774921924063,-0.093904989482966,-0.207488276809202,0.983606396340902,0.036264670950472,2.042046359564453,-2.029883338221578,0.138730883598328,-1.588429752980367,0.263980388641357,-1.428409401570455,0.032024096697569,-0.185805145894186
72,1774921924074,-0.093972602977765,-0.207494837885687,0.983593113520867,0.036422959918333,2.042025653074592,-2.029841822413015,0.138706922531128,-1.588393513356344,0.264039993286133,-1.428397480641500,0.032000128179789,-0.185805145894186
73,1774921924085,-0.093919631046104,-0.207486004629192,0.983601260919799,0.036348728063526,2.042082751845112,-2.029904750500458,0.138694941997528,-1.588453594838278,0.264039993286133,-1.428433243428366,0.031988143920898,-0.185805145894186
74,1774921924096,-0.093933480980993,-0.207489471844305,0.983599549689688,0.036371737954476,2.042091608995182,-2.029895128722259,0.138706922531128,-1.588429752980367,0.264028072357178,-1.428445164357321,0.031964175403118,-0.185793224965231
75,1774921924107,-0.093946882694780,-0.207495655100791,0.983596934439413,0.036336934386358,2.042048031966819,-2.029856303340280,0.138742506504059,-1.588405434285299,0.264028072357178,-1.428433243428366,0.031988143920898,-0.185805145894186
76,1774921924117,-0.093935336629360,-0.207489667444392,0.983597465857371,0.036385258859604,2.042056619266522,-2.029871019302963,0.138706922531128,-1.588441673909323,0.264051914215088,-1.428409401570455,0.031988143920898,-0.185805145894186
77,1774921924128,-0.093925196368129,-0.207492658193271,0.983599923853568,0.036335609508972,2.042063534663105,-2.029864710091561,0.138742506504059,-1.588429752980367,0.264028072357178,-1.428445164357321,0.031976159662008,-0.185781304036276
78,1774921924139,-0.093949506376384,-0.207490115440250,0.983597650448742,0.036362108147329,2.042048129451233,-2.029880190153606,0.138694941997528,-1.588417832051412,0.264039993286133,-1.428433243428366,0.032012112438679,-0.185805145894186
79,1774921924149,-0.093917923172310,-0.207491604897398,0.983600153696972,0.036324368683272,2.042053233611933,-2.029863692184073,0.138742506504059,-1.588441673909323,0.264028072357178,-1.428397480641500,0.031988143920898,-0.185817066823141
80,1774921924160,-0.093948249407529,-0.207494330859594,0.983599407041566,0.036288965636861,2.042036061813507,-2.029869504989629,0.138730883598328,-1.588393513356344,0.264015674591064,-1.428469006215231,0.032024096697569,-0.185793224965231
81,1774921924171,-0.093936921220150,-0.207488386010076,0.983597840064570,0.036373867286528,2.042057037521131,-2.029882900555936,0.138694941997528,-1.588441673909323,0.264051914215088,-1.428409401570455,0.032000128179789,-0.185817066823141
82,1774921924182,-0.093963272431424,-0.207491982282322,0.983594166922937,0.036363288435348,2.042018908263839,-2.029862275692877,0.138694941997528,-1.588417832051412,0.264075756072998,-1.428445164357321,0.032036080956459,-0.185805145894186
83,1774921924193,-0.093938894267198,-0.207487096659666,0.983601547734166,0.036326275158195,2.042045182248989,-2.029896345098899,0.138682946562767,-1.588417832051412,0.264015674591064,-1.428433243428366,0.032036080956459,-0.185805145894186
84,1774921924203,-0.093915090267274,-0.207491210523350,0.983602648155643,0.036323493085652,2.042054437592032,-2.029862740776151,0.138742506504059,-1.588429752980367,0.264003753662109,-1.428421322499410,0.031988143920898,-0.185781304036276
85,1774921924214,-0.093928099852647,-0.207487176282251,0.983601450241569,0.036396953358795,2.042061728706786,-2.029878033807804,0.138694941997528,-1.588429752980367,0.264003753662109,-1.428385559712545,0.031988143920898,-0.185793224965231
86,1774921924224,-0.093925211838519,-0.207491137110716,0.983602342882409,0.036312191699673,2.042040429939685,-2.029865049417309,0.138730883598328,-1.588417832051412,0.264003753662109,-1.428433243428366,0.032012112438679,-0.185781304036276
87,1774921924235,-0.093889797963567,-0.207486250559484,0.983607496062560,0.036286596685849,2.042080411200335,-2.029896280356801,0.138730883598328,-1.588453594838278,0.263991832733154,-1.428433243428366,0.031988143920898,-0.185781304036276
88,1774921924245,-0.093932361776532,-0.207487722373382,0.983601046344396,0.036337556647195,2.042059196504974,-2.029893113688545,0.138694941997528,-1.588429752980367,0.264028072357178,-1.428445164357321,0.032012112438679,-0.185793224965231
89,1774921924255,-0.093926006207665,-0.207486887603978,0.983602248863549,0.036396699228629,2.042062408540791,-2.029877207015474,0.138694941997528,-1.588429752980367,0.264003753662109,-1.428409401570455,0.031988143920898,-0.185769383107321
90,1774921924266,-0.093909516213334,-0.207486052644648,0.983604446411691,0.036372295931941,2.042062775059226,-2.029877212865395,0.138706922531128,-1.588441673909323,0.263991832733154,-1.428385559712545,0.031988143920898,-0.185781304036276
91,1774921924277,-0.093972248714873,-0.207500792619170,0.983588463323085,0.036432309772840,2.042053280481862,-2.029825401151785,0.138754487037659,-1.588405434285299,0.264075756072998,-1.428409401570455,0.031940206885338,-0.185817066823141
92,1774921924288,-0.093940519413918,-0.207490417820417,0.983598878220718,0.036408343679833,2.042061354366322,-2.029866111602677,0.138706922531128,-1.588417832051412,0.264015674591064,-1.428409401570455,0.031976159662008,-0.185781304036276
93,1774921924299,-0.093945544402317,-0.207488138162444,0.983600429031860,0.036409769014140,2.042066168596319,-2.029884853735678,0.138682946562767,-1.588405434285299,0.263991832733154,-1.428397480641500,0.031988143920898,-0.185793224965231
94,1774921924309,-0.093907039068155,-0.207485682495732,0.983603985110999,0.036324292520681,2.042069019416401,-2.029895684461150,0.138706922531128,-1.588453594838278,0.264015674591064,-1.428409401570455,0.032000128179789,-0.185805145894186
95,1774921924319,-0.093931790784498,-0.207487646839409,0.983599827401000,0.036349159605722,2.042054396761919,-2.029886295882617,0.138694941997528,-1.588441673909323,0.264051914215088,-1.428457562123434,0.032012112438679,-0.185781304036276
96,1774921924329,-0.093909670433726,-0.207484545727445,0.983603960003736,0.036325113575299,2.042064052525358,-2.029900917134388,0.138694941997528,-1.588453594838278,0.264015674591064,-1.428397480641500,0.032012112438679,-0.185817066823141
97,1774921924340,-0.093939583582448,-0.207487473466420,0.983597591617754,0.036382802729966,2.042149223947146,-2.029943974918091,0.138682946562767,-1.588441673909323,0.264051914215088,-1.428469006215231,0.031928222626448,-0.185828987752096
98,1774921924350,-0.093945869904647,-0.207486689143372,0.983598330016389,0.036410474688700,2.042061602012646,-2.029889629105007,0.138670966029167,-1.588429752980367,0.264039993286133,-1.428421322499410,0.032000128179789,-0.185793224965231
99,1774921924361,-0.093944435655081,-0.207493913580474,0.983598165654902,0.036335721699571,2.042072410936763,-2.029879464265949,0.138730883598328,-1.588405434285299,0.264015674591064,-1.428433243428366,0.031976159662008,-0.185817066823141
100,1774921924371,-0.093938206008530,-0.207488623469508,0.983598725905292,0.036384898701666,2.042080917186922,-2.029894125820902,0.138694941997528,-1.588429752980367,0.264028072357178,-1.428409401570455,0.031976159662008,-0.185817066823141
101,1774921924381,-0.093944941488956,-0.207491102262796,0.983597722490637,0.036359315460922,2.042110642078517,-2.029911922377007,0.138706922531128,-1.588417832051412,0.264028072357178,-1.428445164357321,0.031952191144228,-0.185828987752096
102,1774921924391,-0.093946236036007,-0.207494069505832,0.983596053138779,0.036386087797469,2.042007637805574,-2.029825243866411,0.138730883598328,-1.588417832051412,0.264039993286133,-1.428385559712545,0.032012112438679,-0.185793224965231
103,1774921924402,-0.093945321118644,-0.207495346860547,0.983596081647004,0.036326003433907,2.042009719673262,-2.029836418205605,0.138742506504059,-1.588417832051412,0.264051914215088,-1.428421322499410,0.032024096697569,-0.185805145894186
104,1774921924412,-0.093926902768904,-0.207485484664405,0.983600066465107,0.036338068037981,2.042068213321500,-2.029908106747043,0.138682946562767,-1.588453594838278,0.264051914215088,-1.428421322499410,0.032012112438679,-0.185828987752096
105,1774921924423,-0.093922929407487,-0.207492154848385,0.983600971081876,0.036290414279760,2.041996851865749,-2.029838158567062,0.138742506504059,-1.588429752980367,0.264028072357178,-1.428409401570455,0.032048065215349,-0.185793224965231
106,1774921924433,-0.093928125733248,-0.207491641093212,0.983598289636105,0.036323521918887,2.042077812419203,-2.029886109800884,0.138730883598328,-1.588441673909323,0.264051914215088,-1.428445164357321,0.031976159662008,-0.185817066823141
107,1774921924444,-0.093917139710227,-0.207485686039206,0.983605031165440,0.036322598640728,2.042108879093826,-2.029927136580668,0.138694941997528,-1.588429752980367,0.263991832733154,-1.428457562123434,0.031976159662008,-0.185793224965231
108,1774921924455,-0.093916941874695,-0.207485686548019,0.983601656765679,0.036371976829522,2.042101251014013,-2.029909327284888,0.138694941997528,-1.588453594838278,0.264028072357178,-1.428421322499410,0.031964175403118,-0.185805145894186
109,1774921924465,-0.093907291935879,-0.207493045888538,0.983600906095443,0.036250858282266,2.042051440792100,-2.029866995328840,0.138766467571259,-1.588453594838278,0.264051914215088,-1.428457562123434,0.032000128179789,-0.185805145894186
110,1774921924476,-0.093965089466022,-0.207492444358724,0.983592691894170,0.036420490213235,2.042093810185843,-2.029892361814236,0.138694941997528,-1.588417832051412,0.264063835144043,-1.428433243428366,0.031952191144228,-0.185828987752096
111,1774921924486,-0.093939993941485,-0.207488785490822,0.983598704212555,0.036398367388999,2.042032973704217,-2.029859024793393,0.138694941997528,-1.588429752980367,0.264039993286133,-1.428421322499410,0.032012112438679,-0.185769383107321
112,1774921924497,-0.093941258643378,-0.207490523383647,0.983597182282364,0.036408965066495,2.042060830324884,-2.029866236067853,0.138706922531128,-1.588429752980367,0.264039993286133,-1.428409401570455,0.031976159662008,-0.185793224965231
113,1774921924508,-0.093929204481150,-0.207488775693618,0.983600680266094,0.036397181950078,2.042037765712457,-2.029854514362922,0.138706922531128,-1.588429752980367,0.264015674591064,-1.428397480641500,0.032000128179789,-0.185769383107321
114,1774921924519,-0.093952189958122,-0.207492084036754,0.983594119984625,0.036396548827988,2.042079893685800,-2.029883007852920,0.138706922531128,-1.588429752980367,0.264063835144043,-1.428421322499410,0.031964175403118,-0.185828987752096
115,1774921924530,-0.093942050281268,-0.207490640121594,0.983598886115701,0.036347535736063,2.042087627386937,-2.029900158188260,0.138706922531128,-1.588417832051412,0.264028072357178,-1.428457562123434,0.031976159662008,-0.185805145894186
116,1774921924541,-0.093906369380038,-0.207489996866545,0.983605405284721,0.036249979496722,2.042086258020444,-2.029903744205977,0.138742506504059,-1.588429752980367,0.263991832733154,-1.428457562123434,0.031988143920898,-0.185805145894186
117,1774921924551,-0.093951739925561,-0.207492042931046,0.983593691953290,0.036456895428968,2.042067929095148,-2.029858298440092,0.138706922531128,-1.588429752980367,0.264051914215088,-1.428373638783590,0.031952191144228,-0.185817066823141
118,1774921924562,-0.093979570353074,-0.207498817278026,0.983590969644723,0.036445378122847,2.042024711668110,-2.029818718468585,0.138730883598328,-1.588382069264547,0.264039993286133,-1.428397480641500,0.031976159662008,-0.185793224965231
119,1774921924572,-0.093949698549571,-0.207491639154631,0.983598115399458,0.036385706435935,2.042042295280266,-2.029861682789207,0.138706922531128,-1.588405434285299,0.264015674591064,-1.428409401570455,0.032000128179789,-0.185793224965231
120,1774921924583,-0.093924070821047,-0.207490975794146,0.983599358553272,0.036349455717338,2.042023755150410,-2.029845228886570,0.138730883598328,-1.588441673909323,0.264039993286133,-1.428397480641500,0.032012112438679,-0.185793224965231
121,1774921924594,-0.093934164288743,-0.207488034438198,0.983600298017313,0.036348720983197,2.042082765829723,-2.029904731334277,0.138694941997528,-1.588429752980367,0.264028072357178,-1.428445164357321,0.031988143920898,-0.185805145894186
122,1774921924605,-0.093941493933611,-0.207488956904896,0.983599576396919,0.036362331648583,2.042033306340263,-2.029871987163660,0.138694941997528,-1.588417832051412,0.264015674591064,-1.428385559712545,0.032024096697569,-0.185817066823141
123,1774921924616,-0.093969422162808,-0.207493010041468,0.983591069099819,0.036482013071818,2.042052574120832,-2.029849780064715,0.138694941997528,-1.588417832051412,0.264063835144043,-1.428373638783590,0.031964175403118,-0.185817066823141
124,1774921924626,-0.093946020085013,-0.207488249155816,0.983599269434721,0.036324206917625,2.042117210396933,-2.029941927349165,0.138682946562767,-1.588417832051412,0.264028072357178,-1.428469006215231,0.031976159662008,-0.185840908681051
125,1774921924637,-0.093947587222439,-0.207494266632011,0.983596106750370,0.036361537085266,2.042018773514498,-2.029838105681763,0.138730883598328,-1.588417832051412,0.264051914215088,-1.428433243428366,0.032012112438679,-0.185781304036276
126,1774921924647,-0.093941796427190,-0.207489097551944,0.983597955820087,0.036397446452860,2.042061588608910,-2.029877703880681,0.138694941997528,-1.588429752980367,0.264039993286133,-1.428421322499410,0.031988143920898,-0.185793224965231
127,1774921924657,-0.093953614764475,-0.207490739357167,0.983598975922516,0.036409644498049,2.042056161854247,-2.029871079470660,0.138694941997528,-1.588393513356344,0.263991832733154,-1.428397480641500,0.031988143920898,-0.185793224965231
128,1774921924669,-0.093959240957185,-0.207490059261977,0.983596934439413,0.036410262107577,2.042066028493787,-2.029884523808841,0.138682946562767,-1.588405434285299,0.264028072357178,-1.428433243428366,0.031988143920898,-0.185793224965231
129,1774921924679,-0.093928614782826,-0.207491617214803,0.983601613884750,0.036287406112570,2.042051100286478,-2.029879004191399,0.138730883598328,-1.588417832051412,0.264015674591064,-1.428457562123434,0.032012112438679,-0.185793224965231
130,1774921924690,-0.093946974511411,-0.207488288664291,0.983597559876847,0.036398617643565,2.042042684494110,-2.029873171552691,0.138682946562767,-1.588429752980367,0.264051914215088,-1.428433243428366,0.032012112438679,-0.185781304036276
131,1774921924700,-0.093956359777023,-0.207492600666761,0.983596135765030,0.036410033969350,2.042045982154253,-2.029857024199911,0.138706922531128,-1.588405434285299,0.264028072357178,-1.428409401570455,0.031988143920898,-0.185793224965231
132,1774921924710,-0.093937961276233,-0.207489938007353,0.983599975706711,0.036337800192298,2.042034056887528,-2.029871537991446,0.138706922531128,-1.588417832051412,0.264015674591064,-1.428397480641500,0.032024096697569,-0.185817066823141
133,1774921924721,-0.093936364753662,-0.207492729061001,0.983599219189477,0.036312349520140,2.042054232086222,-2.029874494114310,0.138730883598328,-1.588417832051412,0.264028072357178,-1.428445164357321,0.032000128179789,-0.185805145894186
134,1774921924732,-0.093945997905991,-0.207495561180231,0.983598655419610,0.036311553413461,2.042073293646230,-2.029879228509223,0.138742506504059,-1.588393513356344,0.264003753662109,-1.428445164357321,0.031976159662008,-0.185817066823141
135,1774921924742,-0.093914545632429,-0.207485257280243,0.983604075803757,0.036336607116552,2.042073649316191,-2.029902782366463,0.138694941997528,-1.588441673909323,0.264003753662109,-1.428409401570455,0.032000128179789,-0.185805145894186
136,1774921924753,-0.093960257783931,-0.207493113569026,0.983596662180276,0.036397916228761,2.042036929137391,-2.029855014398640,0.138706922531128,-1.588393513356344,0.264015674591064,-1.428409401570455,0.032000128179789,-0.185793224965231
137,1774921924763,-0.093941001965170,-0.207493347624361,0.983598049744740,0.036300853474424,2.042044654545726,-2.029872608725594,0.138730883598328,-1.588417832051412,0.264039993286133,-1.428445164357321,0.032012112438679,-0.185817066823141
138,1774921924774,-0.093927416529003,-0.207488613612137,0.983600701849436,0.036371627275680,2.042090754859130,-2.029896676872566,0.138706922531128,-1.588429752980367,0.264003753662109,-1.428385559712545,0.031964175403118,-0.185828987752096
139,1774921924784,-0.093968664213704,-0.207498667588446,0.983592368391174,0.036374160433657,2.042017297937482,-2.029827369872971,0.138742506504059,-1.588393513356344,0.264051914215088,-1.428421322499410,0.032000128179789,-0.185805145894186
140,1774921924794,-0.093966918987995,-0.207494075077870,0.983594682465618,0.036398072786536,2.042050707223495,-2.029864479271053,0.138706922531128,-1.588393513356344,0.264028072357178,-1.428409401570455,0.031988143920898,-0.185817066823141
141,1774921924805,-0.093948506155397,-0.207491506487579,0.983598539840441,0.036360820397586,2.042067373675592,-2.029884318791418,0.138706922531128,-1.588405434285299,0.264015674591064,-1.428433243428366,0.031988143920898,-0.185805145894186
142,1774921924816,-0.093934616354495,-0.207493883772655,0.983597559876847,0.036289034041131,2.042039822809732,-2.029866136211902,0.138742506504059,-1.588429752980367,0.264051914215088,-1.428433243428366,0.032012112438679,-0.185828987752096
143,1774921924826,-0.093943744483806,-0.207489397902479,0.983597182282364,0.036433369614881,2.042060419208596,-2.029866271376434,0.138694941997528,-1.588429752980367,0.264039993286133,-1.428409401570455,0.031976159662008,-0.185781304036276
144,1774921924837,-0.093947503645230,-0.207488358420365,0.983598794784450,0.036350269556369,2.042062836339537,-2.029901440555619,0.138682946562767,-1.588417832051412,0.264028072357178,-1.428421322499410,0.032012112438679,-0.185828987752096
145,1774921924847,-0.093929237167472,-0.207491664127439,0.983599424082229,0.036350039419742,2.042009102258978,-2.029836303864710,0.138730883598328,-1.588429752980367,0.264028072357178,-1.428385559712545,0.032024096697569,-0.185793224965231
146,1774921924858,-0.093942448729427,-0.207496480139873,0.983597707943550,0.036300778310963,2.042039519608959,-2.029853576657676,0.138754487037659,-1.588405434285299,0.264028072357178,-1.428445164357321,0.032000128179789,-0.185805145894186
147,1774921924869,-0.093921383502548,-0.207490569750350,0.983601827942013,0.036288740040389,2.042035537727064,-2.029870659758151,0.138730883598328,-1.588429752980367,0.264015674591064,-1.428409401570455,0.032024096697569,-0.185817066823141
148,1774921924879,-0.093938263772141,-0.207490078658482,0.983598355137880,0.036360829158317,2.042067384684635,-2.029884316868404,0.138706922531128,-1.588429752980367,0.264039993286133,-1.428433243428366,0.031988143920898,-0.185805145894186
149,1774921924890,-0.093875104522353,-0.207484081788327,0.983609210158780,0.036215806720492,2.042053804302256,-2.029900873240348,0.138730883598328,-1.588477436696188,0.264015674591064,-1.428445164357321,0.032036080956459,-0.185793224965231
150,1774921924901,-0.093936461281339,-0.207489766574540,0.983599103508553,0.036361750511020,2.042038769914588,-2.029865637630745,0.138706922531128,-1.588429752980367,0.264039993286133,-1.428433243428366,0.032012112438679,-0.185781304036276
151,1774921924911,-0.093947547163104,-0.207489895162712,0.983599284804289,0.036385350584405,2.042066598443125,-2.029884788549171,0.138694941997528,-1.588405434285299,0.264003753662109,-1.428409401570455,0.031988143920898,-0.185805145894186
152,1774921924922,-0.093941412871106,-0.207489016103659,0.983596695728861,0.036398039874950,2.042046971220370,-2.029868755984496,0.138694941997528,-1.588441673909323,0.264063835144043,-1.428421322499410,0.032000128179789,-0.185793224965231
153,1774921924933,-0.093940247768509,-0.207490328058498,0.983599634442184,0.036324285733128,2.042069103328658,-2.029895602242257,0.138706922531128,-1.588417832051412,0.264028072357178,-1.428457562123434,0.032000128179789,-0.185805145894186
154,1774921924943,-0.093933492790624,-0.207487962394699,0.983599931874231,0.036384408622831,2.042081106836074,-2.029894413648335,0.138694941997528,-1.588429752980367,0.264015674591064,-1.428397480641500,0.031976159662008,-0.185817066823141
155,1774921924954,-0.093932756981151,-0.207486306939291,0.983601844848210,0.036301293252674,2.042084699187908,-2.029927638637899,0.138682946562767,-1.588429752980367,0.264028072357178,-1.428469006215231,0.032012112438679,-0.185817066823141
156,1774921924964,-0.093942924339751,-0.207493578081979,0.983598863813448,0.036349904939093,2.042009456308883,-2.029835870881895,0.138730883598328,-1.588405434285299,0.264015674591064,-1.428409401570455,0.032024096697569,-0.185781304036276
157,1774921924975,-0.093934681999720,-0.207488109017920,0.983598663810748,0.036360939632266,2.042077410581443,-2.029898061134638,0.138694941997528,-1.588441673909323,0.264051914215088,-1.428445164357321,0.031988143920898,-0.185805145894186
158,1774921924986,-0.093941258643378,-0.207490523383647,0.983597182282364,0.036396879499013,2.042065875980008,-2.029873297770069,0.138706922531128,-1.588429752980367,0.264039993286133,-1.428409401570455,0.031976159662008,-0.185805145894186
159,1774921924997,-0.093890976799140,-0.207487816064487,0.983606726173012,0.036238850280730,2.042076766583909,-2.029901218877051,0.138742506504059,-1.588453594838278,0.264003753662109,-1.428445164357321,0.032000128179789,-0.185805145894186
160,1774921925007,-0.093936623277308,-0.207489817056420,0.983600425212767,0.036360668374117,2.042053601519987,-2.029874852553144,0.138706922531128,-1.588417832051412,0.264015674591064,-1.428433243428366,0.032000128179789,-0.185781304036276
161,1774921925018,-0.093978020265027,-0.207495577871365,0.983590778340896,0.036447340117306,2.042002027840214,-2.029817451165504,0.138706922531128,-1.588405434285299,0.264087677001953,-1.428457562123434,0.032012112438679,-0.185745064412252
162,1774921925028,-0.093910970769498,-0.207490666486493,0.983602183360009,0.036335122216216,2.042063704914234,-2.029865018031224,0.138742506504059,-1.588441673909323,0.264015674591064,-1.428421322499410,0.031976159662008,-0.185781304036276
163,1774921925038,-0.093913220430455,-0.207489524494743,0.983600861627201,0.036348155563095,2.042053370372306,-2.029862687911603,0.138730883598328,-1.588453594838278,0.264039993286133,-1.428421322499410,0.031988143920898,-0.185781304036276
164,1774921925049,-0.093955493818287,-0.207496829433687,0.983596254692827,0.036349478039122,2.042028698896067,-2.029839881660773,0.138742506504059,-1.588393513356344,0.264028072357178,-1.428445164357321,0.032000128179789,-0.185781304036276
165,1774921925059,-0.093908583190886,-0.207488905903654,0.983602030929558,0.036323394666513,2.042078083274492,-2.029885758770014,0.138730883598328,-1.588453594838278,0.264028072357178,-1.428421322499410,0.031976159662008,-0.185805145894186
166,1774921925069,-0.093905382159274,-0.207485358668554,0.983604708351196,0.036277459457492,2.042045937721345,-2.029896325979388,0.138706922531128,-1.588453594838278,0.264015674591064,-1.428397480641500,0.032036080956459,-0.185828987752096
167,1774921925080,-0.093924712796690,-0.207488145540462,0.983601824437432,0.036324666815348,2.042068013285919,-2.029896905960995,0.138706922531128,-1.588429752980367,0.264003753662109,-1.428385559712545,0.032000128179789,-0.185840908681051
168,1774921925091,-0.093923169591171,-0.207490819714286,0.983599732760199,0.036337831082239,2.042014493010012,-2.029842951055518,0.138730883598328,-1.588441673909323,0.264039993286133,-1.428397480641500,0.032024096697569,-0.185793224965231
169,1774921925102,-0.093928005627888,-0.207493021076038,0.983600865581206,0.036262446965888,2.042080262266893,-2.029897860589008,0.138742506504059,-1.588417832051412,0.264015674591064,-1.428457562123434,0.031988143920898,-0.185828987752096
170,1774921925112,-0.093913554819556,-0.207486655694091,0.983602030929558,0.036335946740523,2.042092399292993,-2.029907014136452,0.138706922531128,-1.588453594838278,0.264028072357178,-1.428421322499410,0.031976159662008,-0.185817066823141
171,1774921925124,-0.093936802384725,-0.207494277374953,0.983598071524236,0.036372117673572,2.042047738564063,-2.029844331192571,0.138742506504059,-1.588417832051412,0.264028072357178,-1.428433243428366,0.031976159662008,-0.185769383107321
172,1774921925134,-0.093929531078582,-0.207493136172048,0.983600375003905,0.036313170411255,2.042015585251960,-2.029842982400603,0.138742506504059,-1.588417832051412,0.264015674591064,-1.428409401570455,0.032024096697569,-0.185793224965231
173,1774921925145,-0.093903333525842,-0.207489536027493,0.983606047292396,0.036263756453754,2.042065771604646,-2.029887657769084,0.138742506504059,-1.588429752980367,0.263980388641357,-1.428421322499410,0.032000128179789,-0.185805145894186
174,1774921925156,-0.093946882694780,-0.207495655100791,0.983596934439413,0.036349019990227,2.042042986767310,-2.029849241532296,0.138742506504059,-1.588405434285299,0.264028072357178,-1.428433243428366,0.031988143920898,-0.185793224965231
175,1774921925166,-0.093930497899665,-0.207487517703359,0.983601104692210,0.036372529469059,2.042072524514955,-2.029891309316972,0.138694941997528,-1.588429752980367,0.264015674591064,-1.428421322499410,0.031988143920898,-0.185793224965231
176,1774921925177,-0.093941957241190,-0.207494970612750,0.983595267764211,0.036348668770939,2.042042897058026,-2.029849898729220,0.138742506504059,-1.588429752980367,0.264063835144043,-1.428433243428366,0.031988143920898,-0.185805145894186
177,1774921925187,-0.093962676905761,-0.207491952975085,0.983593764305157,0.036423046984884,2.042021590901725,-2.029846493605422,0.138694941997528,-1.588417832051412,0.264063835144043,-1.428409401570455,0.032012112438679,-0.185793224965231
178,1774921925197,-0.093957278332135,-0.207492817421981,0.983592148137446,0.036469109309979,2.042062568369717,-2.029851628626663,0.138706922531128,-1.588429752980367,0.264063835144043,-1.428373638783590,0.031952191144228,-0.185817066823141
179,1774921925209,-0.093924535342442,-0.207491166871331,0.983599059742969,0.036347231112921,2.042082004451914,-2.029881347098188,0.138730883598328,-1.588441673909323,0.264039993286133,-1.428433243428366,0.031964175403118,-0.185805145894186
180,1774921925220,-0.093942915577879,-0.207490847035071,0.983596459033529,0.036419542040001,2.042099047529353,-2.029886778778403,0.138706922531128,-1.588429752980367,0.264039993286133,-1.428421322499410,0.031940206885338,-0.185805145894186
181,1774921925230,-0.093958903360395,-0.207492930427441,0.983595764924215,0.036398283470087,2.042037084914590,-2.029854312082534,0.138706922531128,-1.588405434285299,0.264039993286133,-1.428433243428366,0.032000128179789,-0.185781304036276
182,1774921925240,-0.093927509692768,-0.207494452616708,0.983600076167483,0.036298626237800,2.042069198693216,-2.029872004201120,0.138754487037659,-1.588417832051412,0.264015674591064,-1.428445164357321,0.031976159662008,-0.185805145894186
183,1774921925251,-0.093921753345996,-0.207492084388631,0.983602742140111,0.036275942204306,2.042046363020495,-2.029871874076695,0.138742506504059,-1.588417832051412,0.264003753662109,-1.428445164357321,0.032012112438679,-0.185793224965231
184,1774921925261,-0.093940749607241,-0.207488953213192,0.983598355137880,0.036385233784472,2.042066974143951,-2.029884352176798,0.138694941997528,-1.588429752980367,0.264039993286133,-1.428433243428366,0.031988143920898,-0.185793224965231
185,1774921925272,-0.093914529269804,-0.207485195098326,0.983602729051309,0.036326191679782,2.042049215223554,-2.029891703536446,0.138694941997528,-1.588453594838278,0.264028072357178,-1.428397480641500,0.032024096697569,-0.185817066823141
186,1774921925283,-0.093937596246575,-0.207492965609488,0.983597251905104,0.036359287884445,2.042062911232443,-2.029865170622692,0.138730883598328,-1.588429752980367,0.264051914215088,-1.428457562123434,0.031976159662008,-0.185781304036276
187,1774921925293,-0.093922166019733,-0.207487829737410,0.983601351612557,0.036336404795094,2.042078111193475,-2.029897654529748,0.138706922531128,-1.588441673909323,0.264028072357178,-1.428433243428366,0.031988143920898,-0.185805145894186
188,1774921925304,-0.093948797313991,-0.207491483108036,0.983598489606521,0.036386167007660,2.042027987845331,-2.029852343229661,0.138706922531128,-1.588405434285299,0.264015674591064,-1.428409401570455,0.032012112438679,-0.185781304036276
189,1774921925314,-0.093944508728871,-0.207487913726346,0.983599967538085,0.036338390201445,2.042054254638318,-2.029898335238887,0.138682946562767,-1.588417832051412,0.264028072357178,-1.428445164357321,0.032024096697569,-0.185805145894186
190,1774921925325,-0.093972560217884,-0.207499268475530,0.983590821113431,0.036433919671897,2.042020006493660,-2.029811565386119,0.138742506504059,-1.588393513356344,0.264051914215088,-1.428397480641500,0.031976159662008,-0.185793224965231
191,1774921925336,-0.093909810982072,-0.207493421968553,0.983601351612557,0.036275178508531,2.042055072682094,-2.029862381388833,0.138766467571259,-1.588441673909323,0.264028072357178,-1.428433243428366,0.031988143920898,-0.185805145894186
192,1774921925347,-0.093923079069758,-0.207486476426523,0.983601359609242,0.036384872052754,2.042066779722429,-2.029885094558744,0.138694941997528,-1.588441673909323,0.264015674591064,-1.428385559712545,0.031988143920898,-0.185805145894186
193,1774921925357,-0.093935084061236,-0.207494060896891,0.983598104672903,0.036383506416763,2.042056510722297,-2.029847723173766,0.138742506504059,-1.588417832051412,0.264015674591064,-1.428397480641500,0.031964175403118,-0.185793224965231
194,1774921925368,-0.093946087839659,-0.207488282656883,0.983597207427079,0.036457202279075,2.042074660988325,-2.029875241599972,0.138682946562767,-1.588429752980367,0.264039993286133,-1.428421322499410,0.031964175403118,-0.185769383107321
195,1774921925379,-0.093916695275098,-0.207487088748157,0.983600832981281,0.036396756538241,2.042066152226761,-2.029872945796320,0.138706922531128,-1.588453594838278,0.264028072357178,-1.428385559712545,0.031976159662008,-0.185793224965231
196,1774921925389,-0.093934246493742,-0.207492368979284,0.983596645509665,0.036350173966186,2.042008816931994,-2.029836674677453,0.138730883598328,-1.588441673909323,0.264063835144043,-1.428397480641500,0.032024096697569,-0.185805145894186
197,1774921925399,-0.093937596246575,-0.207492965609488,0.983597251905104,0.036323030617483,2.042078047202512,-2.029886355627470,0.138730883598328,-1.588429752980367,0.264051914215088,-1.428457562123434,0.031976159662008,-0.185817066823141
198,1774921925410,-0.093950023105168,-0.207496088262432,0.983595736408943,0.036373572258640,2.042031876529214,-2.029836357998830,0.138742506504059,-1.588405434285299,0.264028072357178,-1.428397480641500,0.031988143920898,-0.185805145894186
199,1774921925421,-0.093917356340661,-0.207490130612638,0.983602673282729,0.036322770485082,2.042078626688163,-2.029885614191915,0.138730883598328,-1.588429752980367,0.264003753662109,-1.428433243428366,0.031976159662008,-0.185793224965231
200,1774921925431,-0.093900848254267,-0.207489156650370,0.983603560720839,0.036300505000507,2.042035219368791,-2.029859030794679,0.138742506504059,-1.588453594838278,0.264015674591064,-1.428385559712545,0.032012112438679,-0.185805145894186
201,1774921925442,-0.093941636276970,-0.207488959135412,0.983598707542977,0.036326649911794,2.042034996196210,-2.029882281539307,0.138694941997528,-1.588429752980367,0.264051914215088,-1.428445164357321,0.032036080956459,-0.185805145894186
202,1774921925452,-0.093911897890385,-0.207486331935815,0.983602754149578,0.036313284856800,2.042059227547928,-2.029893532306193,0.138706922531128,-1.588453594838278,0.264028072357178,-1.428409401570455,0.032012112438679,-0.185817066823141
203,1774921925462,-0.093946797091165,-0.207491297880371,0.983595638592771,0.036445349946277,2.042045378120599,-2.029845442977145,0.138706922531128,-1.588429752980367,0.264051914215088,-1.428409401570455,0.031976159662008,-0.185769383107321
204,1774921925473,-0.093942843242424,-0.207489241890049,0.983597556489698,0.036409659062744,2.042056203037141,-2.029871055554143,0.138694941997528,-1.588429752980367,0.264039993286133,-1.428409401570455,0.031988143920898,-0.185793224965231
205,1774921925483,-0.093912335582929,-0.207489430576297,0.983602582650403,0.036334860597538,2.042073586801534,-2.029878551611982,0.138730883598328,-1.588441673909323,0.264015674591064,-1.428433243428366,0.031976159662008,-0.185781304036276
206,1774921925494,-0.093961534811565,-0.207491793037644,0.983595739810019,0.036411189913507,2.042027071958196,-2.029852483370990,0.138694941997528,-1.588405434285299,0.264039993286133,-1.428421322499410,0.032012112438679,-0.185781304036276
207,1774921925505,-0.093928061164238,-0.207491593618136,0.983601195264105,0.036335568441625,2.042058613859134,-2.029870019262890,0.138730883598328,-1.588417832051412,0.264003753662109,-1.428421322499410,0.031988143920898,-0.185793224965231
208,1774921925515,-0.093923040405446,-0.207490893581609,0.983601104692210,0.036347658405461,2.042053573996073,-2.029862956573272,0.138730883598328,-1.588429752980367,0.264015674591064,-1.428421322499410,0.031988143920898,-0.185781304036276
209,1774921925526,-0.093931039620351,-0.207491976274266,0.983598675646446,0.036361203241164,2.042032671842874,-2.029847921155225,0.138730883598328,-1.588429752980367,0.264028072357178,-1.428385559712545,0.032000128179789,-0.185805145894186
210,1774921925537,-0.093937612328610,-0.207488506237422,0.983600396642126,0.036421121600604,2.042051656735498,-2.029863890228262,0.138694941997528,-1.588417832051412,0.264003753662109,-1.428397480641500,0.031988143920898,-0.185769383107321
211,1774921925547,-0.093921848010020,-0.207490760873413,0.983601529111390,0.036334857811740,2.042073606182851,-2.029878531503764,0.138730883598328,-1.588429752980367,0.264015674591064,-1.428445164357321,0.031976159662008,-0.185781304036276
212,1774921925557,-0.093950745362777,-0.207491783505243,0.983597716067369,0.036410004407705,2.042031864227746,-2.029847972646119,0.138706922531128,-1.588405434285299,0.264015674591064,-1.428397480641500,0.032000128179789,-0.185781304036276
213,1774921925567,-0.093921741115634,-0.207486355426317,0.983601809196566,0.036383569798925,2.042096414335216,-2.029902533501849,0.138694941997528,-1.588441673909323,0.264015674591064,-1.428421322499410,0.031964175403118,-0.185793224965231
214,1774921925577,-0.093931056039210,-0.207492038417140,0.983600022446127,0.036371618682020,2.042057105529841,-2.029859000307994,0.138730883598328,-1.588417832051412,0.264003753662109,-1.428397480641500,0.031976159662008,-0.185793224965231
215,1774921925588,-0.093934034578534,-0.207489495472575,0.983599968253510,0.036360315825447,2.042068757965969,-2.029882646749245,0.138706922531128,-1.588429752980367,0.264039993286133,-1.428481403981344,0.031988143920898,-0.185756985341207
216,1774921925598,-0.093939359634959,-0.207493173872777,0.983598046391983,0.036348399842238,2.042052723909502,-2.029863475423487,0.138730883598328,-1.588417832051412,0.264028072357178,-1.428421322499410,0.031988143920898,-0.185805145894186
217,1774921925610,-0.093925844233695,-0.207486837139101,0.983600927200167,0.036373610022572,2.042057668039451,-2.029882115551132,0.138694941997528,-1.588441673909323,0.264028072357178,-1.428409401570455,0.032000128179789,-0.185793224965231
218,1774921925620,-0.093941135160183,-0.207494843254643,0.983596448994844,0.036409469833060,2.042016595816428,-2.029815872463743,0.138742506504059,-1.588417832051412,0.264028072357178,-1.428373638783590,0.031988143920898,-0.185781304036276
219,1774921925631,-0.093909630010656,-0.207489050280749,0.983601631626063,0.036311435819491,2.042082788730971,-2.029893233624959,0.138730883598328,-1.588453594838278,0.264028072357178,-1.428409401570455,0.031976159662008,-0.185828987752096
220,1774921925642,-0.093929646129794,-0.207493282726888,0.983598795543805,0.036347208208636,2.042058729584998,-2.029857893257101,0.138742506504059,-1.588429752980367,0.264039993286133,-1.428457562123434,0.031976159662008,-0.185769383107321
221,1774921925653,-0.093909775581101,-0.207489038611125,0.983601606495508,0.036397106616202,2.042032622431035,-2.029834592597914,0.138730883598328,-1.588453594838278,0.264028072357178,-1.428397480641500,0.031988143920898,-0.185745064412252
222,1774921925663,-0.093911897890385,-0.207486331935815,0.983602754149578,0.036325370581374,2.042054182353402,-2.029886470570549,0.138706922531128,-1.588453594838278,0.264028072357178,-1.428409401570455,0.032012112438679,-0.185805145894186
223,1774921925674,-0.093946025845758,-0.207494202445601,0.983594544504880,0.036383281684172,2.042080565287870,-2.029870265413886,0.138730883598328,-1.588429752980367,0.264063835144043,-1.428445164357321,0.031952191144228,-0.185805145894186
224,1774921925685,-0.093941227375270,-0.207499343733184,0.983596186045532,0.036323227324294,2.042052651172325,-2.029839567704540,0.138778448104858,-1.588405434285299,0.264028072357178,-1.428433243428366,0.031964175403118,-0.185805145894186
225,1774921925695,-0.093951893257832,-0.207490536933110,0.983598165654902,0.036384764428269,2.042081270744759,-2.029893693447733,0.138694941997528,-1.588405434285299,0.264015674591064,-1.428433243428366,0.031976159662008,-0.185805145894186
226,1774921925706,-0.093960939248855,-0.207491763677526,0.983595337040258,0.036398436080957,2.042060028319197,-2.029879071573640,0.138694941997528,-1.588405434285299,0.264028072357178,-1.428385559712545,0.031988143920898,-0.185840908681051
227,1774921925716,-0.093928403713549,-0.207488616116629,0.983600201563904,0.036288958771876,2.042055635038110,-2.029898105958661,0.138706922531128,-1.588441673909323,0.264051914215088,-1.428457562123434,0.032024096697569,-0.185817066823141
228,1774921925726,-0.093907216233627,-0.207482674144436,0.983605906058919,0.036325901724616,2.042046145364737,-2.029895163366538,0.138682946562767,-1.588453594838278,0.264015674591064,-1.428433243428366,0.032036080956459,-0.185769383107321
229,1774921925736,-0.093930857129870,-0.207494766723438,0.983599543176375,0.036265546511032,2.042011587633505,-2.029847443244916,0.138754487037659,-1.588417832051412,0.264028072357178,-1.428421322499410,0.032036080956459,-0.185817066823141
230,1774921925747,-0.093954461038201,-0.207489363379300,0.983595242639321,0.036410498466447,2.042051291048480,-2.029876255339134,0.138682946562767,-1.588429752980367,0.264063835144043,-1.428421322499410,0.032000128179789,-0.185805145894186
231,1774921925757,-0.093921831595356,-0.207490698731336,0.983600182266895,0.036300270844467,2.042059263185181,-2.029881575022177,0.138730883598328,-1.588441673909323,0.264039993286133,-1.428433243428366,0.032000128179789,-0.185817066823141
232,1774921925768,-0.093925911958541,-0.207492732292921,0.983601664101399,0.036250106792257,2.042085987031941,-2.029904095392346,0.138742506504059,-1.588417832051412,0.264015674591064,-1.428481403981344,0.031988143920898,-0.185817066823141
233,1774921925778,-0.093974525262995,-0.207490684532450,0.983594657337260,0.036459803362101,2.042039877262140,-2.029862730264834,0.138670966029167,-1.588393513356344,0.264028072357178,-1.428397480641500,0.032000128179789,-0.185793224965231
234,1774921925788,-0.093926761898523,-0.207487055282045,0.983601899828893,0.036395651283599,2.042091363195122,-2.029895472912603,0.138694941997528,-1.588429752980367,0.264003753662109,-1.428421322499410,0.031964175403118,-0.185781304036276
235,1774921925799,-0.093947776191101,-0.207491408721977,0.983597301374066,0.036384997636495,2.042057313077110,-2.029870173345901,0.138706922531128,-1.588417832051412,0.264039993286133,-1.428445164357321,0.031988143920898,-0.185781304036276
236,1774921925810,-0.093951137583729,-0.207490369233475,0.983598514718950,0.036373727106092,2.042057361150801,-2.029882489867495,0.138694941997528,-1.588405434285299,0.264015674591064,-1.428421322499410,0.032000128179789,-0.185805145894186
237,1774921925820,-0.093911820072340,-0.207486377159426,0.983600717094137,0.036373177323420,2.042061601241524,-2.029878142294987,0.138706922531128,-1.588465515767233,0.264039993286133,-1.428373638783590,0.031988143920898,-0.185817066823141
238,1774921925831,-0.093940155938545,-0.207488835970727,0.983600025918974,0.036361028739528,2.042062941932844,-2.029889424868068,0.138694941997528,-1.588417832051412,0.264015674591064,-1.428421322499410,0.032000128179789,-0.185805145894186
239,1774921925842,-0.093940648561272,-0.207490343980705,0.983597506248977,0.036374344700970,2.042032363930745,-2.029860230598876,0.138706922531128,-1.588429752980367,0.264039993286133,-1.428385559712545,0.032012112438679,-0.185817066823141
240,1774921925853,-0.093953310085285,-0.207490611321036,0.983594793068639,0.036411552188482,2.042011969149222,-2.029844650207546,0.138694941997528,-1.588429752980367,0.264063835144043,-1.428385559712545,0.032024096697569,-0.185805145894186
241,1774921925863,-0.093942633167828,-0.207493601476679,0.983598914025845,0.036336643512996,2.042043796152834,-2.029860785073606,0.138730883598328,-1.588405434285299,0.264015674591064,-1.428433243428366,0.032000128179789,-0.185793224965231
242,1774921925873,-0.093914121679484,-0.207489680541413,0.983600487452560,0.036335609008293,2.042072722973395,-2.029879089319080,0.138730883598328,-1.588453594838278,0.264039993286133,-1.428421322499410,0.031976159662008,-0.185805145894186
243,1774921925884,-0.093919718784595,-0.207493324620646,0.983601940130753,0.036323509867708,2.042044072105872,-2.029849409613023,0.138754487037659,-1.588417832051412,0.263991832733154,-1.428397480641500,0.031988143920898,-0.185793224965231
244,1774921925895,-0.093928549812837,-0.207487217336646,0.983601878147476,0.036336605840660,2.042073693475289,-2.029902741206870,0.138694941997528,-1.588429752980367,0.264015674591064,-1.428433243428366,0.032000128179789,-0.185805145894186
245,1774921925905,-0.093946222342289,-0.207495502950253,0.983595707429178,0.036361798739115,2.042008891790489,-2.029824571969266,0.138742506504059,-1.588417832051412,0.264051914215088,-1.428421322499410,0.032012112438679,-0.185781304036276
246,1774921925916,-0.093969089148062,-0.207497297437321,0.983594460120470,0.036373277553405,2.042027704088569,-2.029840778833447,0.138730883598328,-1.588382069264547,0.264028072357178,-1.428433243428366,0.032000128179789,-0.185793224965231
247,1774921925926,-0.093926388756803,-0.207492790914591,0.983599499419520,0.036312153093538,2.042058638025005,-2.029870320431395,0.138742506504059,-1.588429752980367,0.264028072357178,-1.428421322499410,0.031988143920898,-0.185817066823141
248,1774921925936,-0.093938206008530,-0.207488623469508,0.983598725905292,0.036372812959101,2.042085962833211,-2.029901187408691,0.138694941997528,-1.588429752980367,0.264028072357178,-1.428409401570455,0.031976159662008,-0.185828987752096
249,1774921925947,-0.093951826530830,-0.207490502075199,0.983595267764211,0.036409662080373,2.042056252592026,-2.029871013451805,0.138694941997528,-1.588429752980367,0.264063835144043,-1.428433243428366,0.031988143920898,-0.185793224965231
250,1774921925958,-0.093948236134763,-0.207490027996044,0.983596037946654,0.036421285616395,2.042065489785886,-2.029873312027395,0.138694941997528,-1.588429752980367,0.264051914215088,-1.428421322499410,0.031976159662008,-0.185793224965231
251,1774921925968,-0.093928693547693,-0.207487293516276,0.983599779500536,0.036384901487300,2.042080897805627,-2.029894145929457,0.138694941997528,-1.588441673909323,0.264028072357178,-1.428397480641500,0.031976159662008,-0.185817066823141
252,1774921925978,-0.093937982256223,-0.207494416247556,0.983599737718235,0.036263421113396,2.042079851633989,-2.029897307818540,0.138742506504059,-1.588405434285299,0.264015674591064,-1.428469006215231,0.031988143920898,-0.185828987752096
253,1774921925989,-0.093919856712508,-0.207491755258265,0.983600106966990,0.036314255762443,2.042000734218525,-2.029833787685686,0.138742506504059,-1.588441673909323,0.264039993286133,-1.428397480641500,0.032036080956459,-0.185793224965231
254,1774921926000,-0.093919673331227,-0.207490362470188,0.983603886311449,0.036263719966933,2.042060925167538,-2.029892903861977,0.138730883598328,-1.588417832051412,0.263991832733154,-1.428433243428366,0.032012112438679,-0.185817066823141
255,1774921926011,-0.093933301603354,-0.207496643680513,0.983599687494515,0.036288303611110,2.042021107091831,-2.029837013597449,0.138766467571259,-1.588405434285299,0.264015674591064,-1.428445164357321,0.032012112438679,-0.185781304036276
256,1774921926021,-0.093890480462642,-0.207490633975006,0.983604235312551,0.036215886018542,2.042038041560168,-2.029868861712902,0.138766467571259,-1.588465515767233,0.264039993286133,-1.428445164357321,0.032024096697569,-0.185805145894186
257,1774921926031,-0.093930894044412,-0.207491987955084,0.983598700771338,0.036360615309369,2.042047319316879,-2.029856847145092,0.138730883598328,-1.588429752980367,0.264028072357178,-1.428397480641500,0.031988143920898,-0.185805145894186
258,1774921926042,-0.093980045014891,-0.207494533130521,0.983591670219205,0.036457228374699,2.042078471624825,-2.029870891172338,0.138694941997528,-1.588393513356344,0.264051914215088,-1.428445164357321,0.031952191144228,-0.185793224965231
259,1774921926052,-0.093890941180705,-0.207483433555866,0.983606980954740,0.036311953749053,2.042074700603971,-2.029901960165915,0.138706922531128,-1.588465515767233,0.264003753662109,-1.428409401570455,0.032000128179789,-0.185793224965231
260,1774921926062,-0.093923166755260,-0.207485022334906,0.983600861627201,0.036337017756481,2.042097144014208,-2.029926392686842,0.138682946562767,-1.588453594838278,0.264039993286133,-1.428421322499410,0.031988143920898,-0.185840908681051
261,1774921926073,-0.093945093092709,-0.207488023182204,0.983601231046957,0.036374053343167,2.042053735515650,-2.029886098013714,0.138682946562767,-1.588405434285299,0.264003753662109,-1.428445164357321,0.032012112438679,-0.185769383107321
262,1774921926083,-0.093890415645966,-0.207481801751481,0.983606806825128,0.036289891951799,2.042051366074065,-2.029901933418535,0.138694941997528,-1.588477436696188,0.264028072357178,-1.428421322499410,0.032036080956459,-0.185793224965231
263,1774921926094,-0.093948789774314,-0.207490051599470,0.983596456569811,0.036397294348874,2.042047886103318,-2.029868174704490,0.138694941997528,-1.588429752980367,0.264063835144043,-1.428457562123434,0.032000128179789,-0.185769383107321
264,1774921926105,-0.093915243412693,-0.207483982646766,0.983603253897276,0.036347545658744,2.042122387834525,-2.029935964774093,0.138682946562767,-1.588453594838278,0.264028072357178,-1.428469006215231,0.031964175403118,-0.185793224965231
265,1774921926116,-0.093928271303694,-0.207491629423587,0.983598264505553,0.036336195691291,2.042058119877471,-2.029870121894593,0.138730883598328,-1.588441673909323,0.264051914215088,-1.428433243428366,0.031988143920898,-0.185805145894186
266,1774921926126,-0.093919660149863,-0.207490455176601,0.983598943908896,0.036335737540939,2.042072407961368,-2.029879481509021,0.138730883598328,-1.588453594838278,0.264051914215088,-1.428421322499410,0.031976159662008,-0.185817066823141
267,1774921926137,-0.093941057186974,-0.207488991996100,0.983599651734006,0.036384739412662,2.042067158399341,-2.029884640943849,0.138694941997528,-1.588417832051412,0.264015674591064,-1.428421322499410,0.031988143920898,-0.185793224965231
268,1774921926148,-0.093900599261878,-0.207484751935113,0.983605902594936,0.036324624653670,2.042055027558738,-2.029885952021504,0.138706922531128,-1.588453594838278,0.264003753662109,-1.428409401570455,0.032012112438679,-0.185781304036276
269,1774921926158,-0.093905846653737,-0.207485549825861,0.983604409494224,0.036335663370294,2.042078961300062,-2.029897135663927,0.138706922531128,-1.588453594838278,0.264015674591064,-1.428433243428366,0.031988143920898,-0.185781304036276
270,1774921926169,-0.093914138104904,-0.207489742637130,0.983601834345177,0.036346024764932,2.042097155964675,-2.029890169499940,0.138730883598328,-1.588441673909323,0.264015674591064,-1.428433243428366,0.031952191144228,-0.185793224965231
271,1774921926179,-0.093953364913318,-0.207492155930684,0.983597308636151,0.036349812675219,2.042057581907049,-2.029882166738377,0.138706922531128,-1.588405434285299,0.264028072357178,-1.428433243428366,0.032000128179789,-0.185817066823141
272,1774921926190,-0.093937404248536,-0.207485503733919,0.983598984346209,0.036398519028262,2.042066288327491,-2.029897124458712,0.138670966029167,-1.588441673909323,0.264039993286133,-1.428397480641500,0.032000128179789,-0.185817066823141
273,1774921926201,-0.093956283618999,-0.207488174868104,0.983596902056274,0.036397925836416,2.042080974917457,-2.029906009822642,0.138670966029167,-1.588417832051412,0.264039993286133,-1.428433243428366,0.031988143920898,-0.185817066823141
274,1774921926211,-0.093924631815665,-0.207488204701686,0.983598943908896,0.036408718110502,2.042061495919697,-2.029865428755532,0.138706922531128,-1.588453594838278,0.264051914215088,-1.428421322499410,0.031976159662008,-0.185769383107321
275,1774921926221,-0.093934646454699,-0.207492512630506,0.983599252416718,0.036372080919886,2.042042822910974,-2.029849639666313,0.138730883598328,-1.588417832051412,0.264015674591064,-1.428409401570455,0.031988143920898,-0.185781304036276
276,1774921926232,-0.093905880437056,-0.207490020682660,0.983602081214453,0.036359094521038,2.042082496978186,-2.029868198223414,0.138742506504059,-1.588453594838278,0.264028072357178,-1.428445164357321,0.031952191144228,-0.185756985341207
277,1774921926243,-0.093943598920757,-0.207489409566352,0.983597207427079,0.036396525276723,2.042090204097499,-2.029896382246323,0.138694941997528,-1.588429752980367,0.264039993286133,-1.428421322499410,0.031964175403118,-0.185817066823141
278,1774921926254,-0.093917520857852,-0.207494440408500,0.983601046344396,0.036251926655447,2.042036567596535,-2.029857804737750,0.138766467571259,-1.588429752980367,0.264028072357178,-1.428445164357321,0.032012112438679,-0.185805145894186
279,1774921926265,-0.093916377289552,-0.207490019742086,0.983601010556192,0.036346866497915,2.042081829642079,-2.029882069068790,0.138730883598328,-1.588441673909323,0.264015674591064,-1.428397480641500,0.031964175403118,-0.185817066823141
280,1774921926276,-0.093931781634089,-0.207493577280303,0.983597980952340,0.036335865059830,2.042062879856914,-2.029865515515282,0.138742506504059,-1.588429752980367,0.264039993286133,-1.428433243428366,0.031976159662008,-0.185805145894186
281,1774921926287,-0.093940580814439,-0.207490310431133,0.983599568265581,0.036338035820517,2.042034547806227,-2.029870422455565,0.138706922531128,-1.588417832051412,0.264028072357178,-1.428433243428366,0.032024096697569,-0.185793224965231
282,1774921926298,-0.093959136798853,-0.207491451621356,0.983596085520774,0.036399357402516,2.042031412408549,-2.029860393718254,0.138694941997528,-1.588405434285299,0.264028072357178,-1.428385559712545,0.032012112438679,-0.185817066823141
283,1774921926309,-0.093943851263256,-0.207493804127865,0.983596902056274,0.036348401350447,2.042052748687023,-2.029863454372518,0.138730883598328,-1.588417832051412,0.264039993286133,-1.428433243428366,0.031988143920898,-0.185805145894186
284,1774921926320,-0.093918675056220,-0.207484392289531,0.983602005800703,0.036409530727817,2.042066845455088,-2.029884044183036,0.138682946562767,-1.588453594838278,0.264028072357178,-1.428409401570455,0.031988143920898,-0.185769383107321
285,1774921926330,-0.093926209581776,-0.207488330940585,0.983601853040214,0.036324874926543,2.042054410762006,-2.029886718168315,0.138706922531128,-1.588429752980367,0.264015674591064,-1.428421322499410,0.032012112438679,-0.185805145894186
286,1774921926341,-0.093930975043427,-0.207492097526683,0.983597141948528,0.036395241730150,2.042075815063515,-2.029862832017503,0.138730883598328,-1.588441673909323,0.264051914215088,-1.428433243428366,0.031952191144228,-0.185781304036276
287,1774921926351,-0.093959469991653,-0.207495956350224,0.983594221145613,0.036397945265335,2.042017409570839,-2.029826386344929,0.138730883598328,-1.588405434285299,0.264051914215088,-1.428433243428366,0.032000128179789,-0.185769383107321
288,1774921926362,-0.093959892447957,-0.207491619341413,0.983595736408943,0.036434565414070,2.042045231116787,-2.029857472903579,0.138694941997528,-1.588405434285299,0.264028072357178,-1.428397480641500,0.031988143920898,-0.185793224965231
289,1774921926372,-0.093941854169166,-0.207490552769743,0.983597584987575,0.036398031342219,2.042037763834667,-2.029853488416697,0.138706922531128,-1.588429752980367,0.264051914215088,-1.428445164357321,0.032000128179789,-0.185756985341207
290,1774921926382,-0.093935502277028,-0.207488155395317,0.983599848494193,0.036362109423807,2.042048085292894,-2.029880231313424,0.138694941997528,-1.588429752980367,0.264028072357178,-1.428409401570455,0.032012112438679,-0.185805145894186
291,1774921926393,-0.093939993941485,-0.207488785490822,0.983598704212555,0.036374196476576,2.042043064653101,-2.029873148467543,0.138694941997528,-1.588429752980367,0.264039993286133,-1.428421322499410,0.032012112438679,-0.185793224965231
292,1774921926404,-0.093906915824881,-0.207490001134539,0.983603252118102,0.036300627886555,2.042034873812710,-2.029859445440130,0.138742506504059,-1.588441673909323,0.264003753662109,-1.428373638783590,0.032012112438679,-0.185817066823141
293,1774921926414,-0.093934193306036,-0.207492485506003,0.983597980952340,0.036347816210845,2.042067376620066,-2.029872400671807,0.138730883598328,-1.588429752980367,0.264039993286133,-1.428433243428366,0.031976159662008,-0.185805145894186
294,1774921926425,-0.093922427473725,-0.207484916782530,0.983602557523316,0.036372653818558,2.042082531471094,-2.029905083398817,0.138682946562767,-1.588441673909323,0.264015674591064,-1.428421322499410,0.031988143920898,-0.185793224965231
295,1774921926436,-0.093973585125834,-0.207495103477596,0.983591180381810,0.036445040390162,2.042073502989107,-2.029864206219490,0.138706922531128,-1.588405434285299,0.264063835144043,-1.428433243428366,0.031952191144228,-0.185805145894186
296,1774921926446,-0.093918882134532,-0.207493216033227,0.983599408787193,0.036311924374098,2.042048963098743,-2.029856160653814,0.138754487037659,-1.588441673909323,0.264039993286133,-1.428421322499410,0.031988143920898,-0.185805145894186
297,1774921926456,-0.093951368419098,-0.207497692017730,0.983593364946173,0.036374033813472,2.041993171245565,-2.029804570537406,0.138754487037659,-1.588417832051412,0.264063835144043,-1.428397480641500,0.032012112438679,-0.185793224965231
298,1774921926466,-0.093940580814439,-0.207490310431133,0.983599568265581,0.036338035820517,2.042034547806227,-2.029870422455565,0.138706922531128,-1.588417832051412,0.264028072357178,-1.428433243428366,0.032024096697569,-0.185793224965231
299,1774921926477,-0.093923941654650,-0.207491049628313,0.983600730518005,0.036323026033354,2.042077971878169,-2.029886419623129,0.138730883598328,-1.588429752980367,0.264015674591064,-1.428421322499410,0.031976159662008,-0.185817066823141
300,1774921926487,-0.093939993941485,-0.207488785490822,0.983598704212555,0.036386281961916,2.042038019197715,-2.029866086644572,0.138694941997528,-1.588429752980367,0.264039993286133,-1.428421322499410,0.032012112438679,-0.185781304036276
301,1774921926497,-0.093938395110538,-0.207484105050199,0.983601029360222,0.036435435181111,2.042032400456319,-2.029871708164235,0.138658985495567,-1.588429752980367,0.264015674591064,-1.428385559712545,0.032024096697569,-0.185769383107321
302,1774921926508,-0.093923101781823,-0.207490786142298,0.983601794670937,0.036241093797359,2.042041900811201,-2.029888451513597,0.138730883598328,-1.588429752980367,0.264028072357178,-1.428445164357321,0.032036080956459,-0.185828987752096
303,1774921926518,-0.093908332434617,-0.207484424768802,0.983604409494224,0.036347982347459,2.042083596560501,-2.029904232573058,0.138694941997528,-1.588453594838278,0.264015674591064,-1.428433243428366,0.031988143920898,-0.185781304036276
304,1774921926529,-0.093939505211196,-0.207493162192000,0.983598021268792,0.036348987809478,2.042038076494578,-2.029854549359567,0.138730883598328,-1.588417832051412,0.264028072357178,-1.428409401570455,0.032000128179789,-0.185805145894186
305,1774921926539,-0.093928478704085,-0.207485698743953,0.983600902089437,0.036362360785104,2.042057752129862,-2.029894419062981,0.138682946562767,-1.588441673909323,0.264028072357178,-1.428397480641500,0.032012112438679,-0.185817066823141
306,1774921926549,-0.093926006207665,-0.207486887603978,0.983602248863549,0.036372527959706,2.042072499737118,-2.029891330367941,0.138694941997528,-1.588429752980367,0.264003753662109,-1.428409401570455,0.031988143920898,-0.185793224965231
307,1774921926559,-0.093934974199014,-0.207493895258678,0.983600407392784,0.036337825386512,2.042005275323178,-2.029828592614097,0.138742506504059,-1.588405434285299,0.264003753662109,-1.428409401570455,0.032024096697569,-0.185769383107321
308,1774921926570,-0.093959389895531,-0.207497430330979,0.983594707603037,0.036397152531228,2.042036452539029,-2.029831140271352,0.138742506504059,-1.588393513356344,0.264028072357178,-1.428421322499410,0.031976159662008,-0.185781304036276
309,1774921926580,-0.093964874698900,-0.207490849223747,0.983593814549273,0.036422120704187,2.042060572507189,-2.029878512600912,0.138682946562767,-1.588417832051412,0.264063835144043,-1.428433243428366,0.031988143920898,-0.185805145894186
310,1774921926590,-0.093930408282000,-0.207489072281393,0.983598685568057,0.036395580129485,2.042095490984052,-2.029890757090263,0.138706922531128,-1.588441673909323,0.264039993286133,-1.428433243428366,0.031952191144228,-0.185793224965231
311,1774921926601,-0.093914007924818,-0.207486682801604,0.983603302348492,0.036348126052848,2.042072890744402,-2.029891315167927,0.138706922531128,-1.588441673909323,0.264003753662109,-1.428397480641500,0.031988143920898,-0.185805145894186
312,1774921926612,-0.093937266000725,-0.207492885119345,0.983598845014970,0.036360231305942,2.042048358438725,-2.029855586861288,0.138730883598328,-1.588417832051412,0.264028072357178,-1.428445164357321,0.031988143920898,-0.185769383107321
313,1774921926622,-0.093918085150923,-0.207491655359093,0.983601475373756,0.036323286209848,2.042068065154494,-2.029872907146124,0.138742506504059,-1.588429752980367,0.264003753662109,-1.428397480641500,0.031976159662008,-0.185817066823141
314,1774921926632,-0.093888658824036,-0.207486001334161,0.983606585227958,0.036239896322470,2.042057020022471,-2.029897311825971,0.138730883598328,-1.588465515767233,0.264015674591064,-1.428421322499410,0.032024096697569,-0.185817066823141
315,1774921926642,-0.093936337890200,-0.207494086247981,0.983598370372487,0.036338085819154,2.042004625147931,-2.029829398289695,0.138742506504059,-1.588417832051412,0.264028072357178,-1.428397480641500,0.032024096697569,-0.185793224965231
316,1774921926653,-0.093945453518497,-0.207489606484506,0.983600083427277,0.036360925068285,2.042077369398137,-2.029898085051790,0.138694941997528,-1.588405434285299,0.264003753662109,-1.428433243428366,0.031988143920898,-0.185805145894186
317,1774921926663,-0.093917167518655,-0.207491437139649,0.983600502780841,0.036337503308572,2.042019233813008,-2.029838364547704,0.138742506504059,-1.588441673909323,0.264028072357178,-1.428385559712545,0.032012112438679,-0.185793224965231
318,1774921926674,-0.093938141526029,-0.207492971219789,0.983600058307485,0.036324556367164,2.042048816535672,-2.029867867924370,0.138730883598328,-1.588405434285299,0.264003753662109,-1.428421322499410,0.032000128179789,-0.185805145894186
319,1774921926684,-0.093925421992055,-0.207491172918208,0.983599412159627,0.036324904661036,2.042034890646395,-2.029858090517825,0.138730883598328,-1.588441673909323,0.264051914215088,-1.428445164357321,0.032012112438679,-0.185781304036276
320,1774921926694,-0.093937677902346,-0.207494363496535,0.983599284804289,0.036348528407116,2.042043151626275,-2.029849550412861,0.138742506504059,-1.588405434285299,0.264003753662109,-1.428409401570455,0.031988143920898,-0.185793224965231
321,1774921926705,-0.093937501583416,-0.207494289311576,0.983598464999215,0.036264115345757,2.042050802850876,-2.029879699279513,0.138742506504059,-1.588417832051412,0.264039993286133,-1.428457562123434,0.032012112438679,-0.185828987752096
322,1774921926716,-0.093935391594986,-0.207485155896296,0.983602663400648,0.036386727092475,2.042043212879466,-2.029885404645653,0.138670966029167,-1.588417832051412,0.263991832733154,-1.428385559712545,0.032024096697569,-0.185793224965231
323,1774921926726,-0.093912961096985,-0.207486538448943,0.983603701640586,0.036323827358959,2.042083321415708,-2.029905025006979,0.138706922531128,-1.588441673909323,0.264003753662109,-1.428409401570455,0.031988143920898,-0.185817066823141
324,1774921926736,-0.093948381703899,-0.207490016321058,0.983596012811003,0.036433958542552,2.042045796469054,-2.029857324364258,0.138694941997528,-1.588429752980367,0.264051914215088,-1.428409401570455,0.031988143920898,-0.185781304036276
325,1774921926746,-0.093922865704831,-0.207486454581650,0.983603446702039,0.036323803518612,2.042093701430913,-2.029918336524557,0.138694941997528,-1.588429752980367,0.264003753662109,-1.428445164357321,0.031988143920898,-0.185805145894186
326,1774921926757,-0.093926892900075,-0.207486893529332,0.983602601387676,0.036326029538670,2.042035476709073,-2.029882197430145,0.138694941997528,-1.588429752980367,0.264015674591064,-1.428421322499410,0.032036080956459,-0.185793224965231
327,1774921926767,-0.093948739553855,-0.207490027814789,0.983598860349008,0.036422321766945,2.042036473994227,-2.029855090866719,0.138694941997528,-1.588405434285299,0.264003753662109,-1.428385559712545,0.032000128179789,-0.185781304036276
328,1774921926778,-0.093914176707778,-0.207485325799039,0.983602089132716,0.036407410547666,2.042100271402250,-2.029898182905440,0.138694941997528,-1.588453594838278,0.264015674591064,-1.428397480641500,0.031952191144228,-0.185793224965231
329,1774921926789,-0.093961904691656,-0.207490433657226,0.983597901230489,0.036409026615109,2.042067132794055,-2.029884230660632,0.138682946562767,-1.588393513356344,0.264015674591064,-1.428457562123434,0.031988143920898,-0.185769383107321
330,1774921926799,-0.093921572314078,-0.207487712482598,0.983603022318815,0.036324285440978,2.042069033401110,-2.029895665295348,0.138706922531128,-1.588429752980367,0.264003753662109,-1.428421322499410,0.032000128179789,-0.185805145894186
331,1774921926810,-0.093947459332464,-0.207491362135618,0.983598939145636,0.036384864596899,2.042057622605226,-2.029869781983233,0.138706922531128,-1.588405434285299,0.264015674591064,-1.428445164357321,0.031988143920898,-0.185769383107321
332,1774921926821,-0.093950030464556,-0.207497570984664,0.983593814549273,0.036384816169587,2.042017760789921,-2.029814947231566,0.138754487037659,-1.588417832051412,0.264063835144043,-1.428433243428366,0.031988143920898,-0.185769383107321
333,1774921926832,-0.093926388756803,-0.207492790914591,0.983599499419520,0.036360495643603,2.042038457313172,-2.029842073266188,0.138742506504059,-1.588429752980367,0.264028072357178,-1.428421322499410,0.031988143920898,-0.185769383107321
334,1774921926842,-0.093920191079726,-0.207490437074205,0.983602252310514,0.036288024585871,2.042050525332311,-2.029879172082025,0.138730883598328,-1.588429752980367,0.264015674591064,-1.428433243428366,0.032012112438679,-0.185805145894186
335,1774921926852,-0.093935356694531,-0.207488167092351,0.983599873604923,0.036349435915873,2.042067778342353,-2.029896218844222,0.138694941997528,-1.588429752980367,0.264028072357178,-1.428421322499410,0.032000128179789,-0.185817066823141
336,1774921926862,-0.093972949289815,-0.207490470466817,0.983593821800422,0.036435511334031,2.042050339206607,-2.029876418303193,0.138670966029167,-1.588405434285299,0.264051914215088,-1.428421322499410,0.032000128179789,-0.185805145894186
337,1774921926873,-0.093929253560443,-0.207491726314497,0.983600770837990,0.036385108898747,2.042023243757165,-2.029832976554632,0.138730883598328,-1.588417832051412,0.264003753662109,-1.428397480641500,0.032000128179789,-0.185756985341207
338,1774921926884,-0.093962493740825,-0.207493404524419,0.983594994685707,0.036350403648890,2.042042983799626,-2.029873198868374,0.138706922531128,-1.588405434285299,0.264051914215088,-1.428445164357321,0.032012112438679,-0.185817066823141
339,1774921926895,-0.093961395544716,-0.207499186357030,0.983593563157027,0.036360664265012,2.042041933273607,-2.029838145756788,0.138754487037659,-1.588393513356344,0.264039993286133,-1.428433243428366,0.031976159662008,-0.185805145894186
340,1774921926905,-0.093973672981825,-0.207493636189015,0.983591526066544,0.036518038826467,2.042052203035119,-2.029836841612427,0.138694941997528,-1.588405434285299,0.264051914215088,-1.428397480641500,0.031952191144228,-0.185769383107321
341,1774921926915,-0.093966927667804,-0.207492579162499,0.983594221145613,0.036398645526000,2.042046449902674,-2.029868863527351,0.138694941997528,-1.588405434285299,0.264051914215088,-1.428433243428366,0.032000128179789,-0.185805145894186
342,1774921926926,-0.093904799811759,-0.207485405471238,0.983604808748526,0.036287192566369,2.042099482416752,-2.029924968496489,0.138706922531128,-1.588453594838278,0.264015674591064,-1.428445164357321,0.031988143920898,-0.185817066823141
343,1774921926937,-0.093943744483806,-0.207489397902479,0.983597182282364,0.036397112918133,2.042075556493435,-2.029887456398037,0.138694941997528,-1.588429752980367,0.264039993286133,-1.428409401570455,0.031976159662008,-0.185817066823141
344,1774921926948,-0.093948142679579,-0.207489924516427,0.983599687494515,0.036325590839511,2.042063915407009,-2.029900569976350,0.138694941997528,-1.588405434285299,0.264015674591064,-1.428445164357321,0.032012112438679,-0.185817066823141
345,1774921926958,-0.093932725292306,-0.207489304157226,0.983599898724715,0.036360700580325,2.042067699823071,-2.029883924522329,0.138706922531128,-1.588429752980367,0.264028072357178,-1.428433243428366,0.031988143920898,-0.185793224965231
346,1774921926969,-0.093913366007285,-0.207489512814054,0.983600836507409,0.036336657845066,2.042043768399679,-2.029860823367402,0.138730883598328,-1.588453594838278,0.264039993286133,-1.428409401570455,0.032000128179789,-0.185793224965231
347,1774921926979,-0.093928164443875,-0.207487223757751,0.983598544580207,0.036421164169139,2.042065790812158,-2.029872939003333,0.138694941997528,-1.588453594838278,0.264051914215088,-1.428409401570455,0.031976159662008,-0.185781304036276
348,1774921926990,-0.093955934929201,-0.207491125945756,0.983596593412677,0.036445112949427,2.042069330387692,-2.029868963907934,0.138694941997528,-1.588405434285299,0.264015674591064,-1.428397480641500,0.031964175403118,-0.185793224965231
349,1774921927000,-0.093944434417555,-0.207495340844053,0.983595729164667,0.036372500258197,2.042046743981997,-2.029845549846644,0.138742506504059,-1.588417832051412,0.264039993286133,-1.428409401570455,0.031976159662008,-0.185805145894186
350,1774921927011,-0.093966200765276,-0.207496863656827,0.983592252823263,0.036374618300332,2.042012197206341,-2.029832390621169,0.138730883598328,-1.588405434285299,0.264063835144043,-1.428409401570455,0.032012112438679,-0.185817066823141
351,1774921927021,-0.093965737043653,-0.207498256264391,0.983591479189193,0.036410674827349,2.042001487407952,-2.029807009996596,0.138742506504059,-1.588405434285299,0.264063835144043,-1.428397480641500,0.032000128179789,-0.185793224965231
352,1774921927032,-0.093935147714783,-0.207492525057901,0.983596271280943,0.036385969203948,2.042007988750751,-2.029824828282869,0.138730883598328,-1.588441673909323,0.264063835144043,-1.428397480641500,0.032012112438679,-0.185781304036276
353,1774921927042,-0.093923312331530,-0.207485010647235,0.983600836507409,0.036385948578219,2.042062314131655,-2.029889220459246,0.138682946562767,-1.588453594838278,0.264039993286133,-1.428409401570455,0.032000128179789,-0.185793224965231
354,1774921927052,-0.093954411731052,-0.207492300281914,0.983596909316155,0.036337854119494,2.042062287212358,-2.029889642011451,0.138706922531128,-1.588405434285299,0.264028072357178,-1.428421322499410,0.032000128179789,-0.185840908681051
355,1774921927062,-0.093936461281339,-0.207489766574540,0.983599103508553,0.036325493692718,2.042053905729697,-2.029886823010739,0.138706922531128,-1.588429752980367,0.264039993286133,-1.428433243428366,0.032012112438679,-0.185817066823141
356,1774921927072,-0.093888192648465,-0.207481586957404,0.983608977045789,0.036263207130731,2.042106262502470,-2.029942296987540,0.138694941997528,-1.588465515767233,0.264003753662109,-1.428469006215231,0.032000128179789,-0.185793224965231
357,1774921927082,-0.093938351577963,-0.207488611794570,0.983598700771338,0.036385486419439,2.042066269541121,-2.029885200025288,0.138694941997528,-1.588429752980367,0.264028072357178,-1.428397480641500,0.031988143920898,-0.185817066823141
358,1774921927093,-0.093923212847379,-0.207487974090033,0.983600952319959,0.036336531864688,2.042077771276011,-2.029898067929205,0.138706922531128,-1.588441673909323,0.264028072357178,-1.428421322499410,0.031988143920898,-0.185817066823141
359,1774921927103,-0.093949717420330,-0.207495961558091,0.983596513339079,0.036326360301409,2.042009839922457,-2.029835738562796,0.138742506504059,-1.588405434285299,0.264039993286133,-1.428433243428366,0.032024096697569,-0.185793224965231
360,1774921927113,-0.093916260391345,-0.207487035923690,0.983602981928199,0.036298941866134,2.042108424052305,-2.029927639846556,0.138706922531128,-1.588441673909323,0.264015674591064,-1.428445164357321,0.031976159662008,-0.185828987752096
361,1774921927124,-0.093955683762903,-0.207495521085872,0.983593465477453,0.036408037775350,2.042055846253193,-2.029847195638243,0.138730883598328,-1.588417832051412,0.264063835144043,-1.428445164357321,0.031964175403118,-0.185781304036276
362,1774921927134,-0.093974018252287,-0.207499476425916,0.983592167819745,0.036372618932512,2.042046462344512,-2.029845902758372,0.138742506504059,-1.588382069264547,0.264039993286133,-1.428433243428366,0.031976159662008,-0.185817066823141
363,1774921927145,-0.093897440080310,-0.207482968032814,0.983605928281349,0.036346194377606,2.042113426374863,-2.029921958619938,0.138694941997528,-1.588465515767233,0.264015674591064,-1.428457562123434,0.031964175403118,-0.185769383107321
364,1774921927155,-0.093951600019811,-0.207490404118244,0.983596851818955,0.036386533523262,2.042037358259564,-2.029866893948162,0.138694941997528,-1.588417832051412,0.264039993286133,-1.428409401570455,0.032012112438679,-0.185805145894186
365,1774921927166,-0.093945029947042,-0.207495370251951,0.983596131862798,0.036324827135101,2.042039014552185,-2.029854270256224,0.138742506504059,-1.588417832051412,0.264051914215088,-1.428445164357321,0.032000128179789,-0.185805145894186
366,1774921927176,-0.093965073852375,-0.207498193352165,0.983593138650925,0.036409954152975,2.042016444718231,-2.029815544450176,0.138742506504059,-1.588393513356344,0.264039993286133,-1.428409401570455,0.031988143920898,-0.185781304036276
367,1774921927186,-0.093913702188875,-0.207486556101620,0.983604079259231,0.036300912727509,2.042050854955575,-2.029890694336734,0.138706922531128,-1.588441673909323,0.264015674591064,-1.428433243428366,0.032024096697569,-0.185793224965231
368,1774921927196,-0.093927899176965,-0.207491543145224,0.983599873604923,0.036312479432165,2.042053872667116,-2.029874927773230,0.138730883598328,-1.588429752980367,0.264028072357178,-1.428421322499410,0.032000128179789,-0.185817066823141
369,1774921927207,-0.093905934388845,-0.207484083347948,0.983604755011027,0.036372406466264,2.042072800894214,-2.029890957186399,0.138694941997528,-1.588453594838278,0.264003753662109,-1.428397480641500,0.031988143920898,-0.185781304036276
370,1774921927217,-0.093937557160473,-0.207492861746862,0.983598794784450,0.036373975682100,2.042013817099077,-2.029830389640157,0.138730883598328,-1.588417832051412,0.264028072357178,-1.428421322499410,0.032012112438679,-0.185756985341207
371,1774921927227,-0.093950341200727,-0.207494707526831,0.983596535108520,0.036373183673507,2.042042098103023,-2.029849478377949,0.138730883598328,-1.588405434285299,0.264028072357178,-1.428421322499410,0.031988143920898,-0.185793224965231
372,1774921927238,-0.093916253013850,-0.207489830360216,0.983603815064070,0.036239860631884,2.042042986682507,-2.029888177196302,0.138730883598328,-1.588429752980367,0.264015674591064,-1.428457562123434,0.032036080956459,-0.185805145894186
373,1774921927249,-0.093948385942260,-0.207494513982413,0.983594511457528,0.036444952277409,2.042053029309664,-2.029837211626302,0.138730883598328,-1.588417832051412,0.264028072357178,-1.428349320088522,0.031952191144228,-0.185817066823141
374,1774921927260,-0.093939456166317,-0.207490211325514,0.983597930696896,0.036409886046844,2.042032215271504,-2.029847557176454,0.138706922531128,-1.588429752980367,0.264039993286133,-1.428409401570455,0.032000128179789,-0.185769383107321
375,1774921927270,-0.093953548063066,-0.207490704490815,0.983596078256308,0.036410370987390,2.042041234765293,-2.029862523168296,0.138694941997528,-1.588417832051412,0.264039993286133,-1.428397480641500,0.032000128179789,-0.185805145894186
376,1774921927280,-0.093945378179413,-0.207491067276527,0.983597647061593,0.036385250270486,2.042056608473567,-2.029871021188009,0.138706922531128,-1.588417832051412,0.264028072357178,-1.428409401570455,0.031988143920898,-0.185805145894186
377,1774921927291,-0.093927437777823,-0.207491506888966,0.983596576466044,0.036421306687237,2.042021447983700,-2.029822341654833,0.138730883598328,-1.588453594838278,0.264063835144043,-1.428385559712545,0.031988143920898,-0.185769383107321
378,1774921927301,-0.093938467488443,-0.207485710188381,0.983599931874231,0.036457404595676,2.042070198682258,-2.029880369833907,0.138670966029167,-1.588429752980367,0.264015674591064,-1.428397480641500,0.031976159662008,-0.185769383107321
379,1774921927311,-0.093932843979862,-0.207492200504524,0.983600000808311,0.036312574731621,2.042039434227107,-2.029866269477713,0.138730883598328,-1.588417832051412,0.264015674591064,-1.428409401570455,0.032012112438679,-0.185817066823141
380,1774921927322,-0.093942116495822,-0.207493525535590,0.983595588327129,0.036421887204584,2.042006814564132,-2.029813396407831,0.138730883598328,-1.588429752980367,0.264051914215088,-1.428385559712545,0.032000128179789,-0.185769383107321
381,1774921927333,-0.093950118388640,-0.207496103867120,0.983594160269357,0.036385302180802,2.042026736117953,-2.029829954243088,0.138742506504059,-1.588417832051412,0.264051914215088,-1.428397480641500,0.031988143920898,-0.185805145894186
382,1774921927343,-0.093933745216297,-0.207492356573354,0.983599626612582,0.036360456126402,2.042033560934468,-2.029847361779734,0.138730883598328,-1.588417832051412,0.264015674591064,-1.428409401570455,0.032000128179789,-0.185781304036276
383,1774921927354,-0.093932828442753,-0.207493721668243,0.983597581623651,0.036396903382331,2.042037111563260,-2.029830337355531,0.138742506504059,-1.588429752980367,0.264039993286133,-1.428421322499410,0.031976159662008,-0.185756985341207
384,1774921927364,-0.093954215883147,-0.207492339242588,0.983595383470058,0.036384665570207,2.042071305541814,-2.029879905041301,0.138706922531128,-1.588417832051412,0.264051914215088,-1.428445164357321,0.031976159662008,-0.185805145894186
385,1774921927375,-0.093904094581093,-0.207485336773372,0.983606483835814,0.036310155353202,2.042104563971280,-2.029919646675090,0.138706922531128,-1.588441673909323,0.263991832733154,-1.428457562123434,0.031976159662008,-0.185781304036276
386,1774921927386,-0.093926138518995,-0.207486968576819,0.983597280913483,0.036457218559656,2.042064286867021,-2.029861918526913,0.138694941997528,-1.588465515767233,0.264063835144043,-1.428385559712545,0.031964175403118,-0.185781304036276
387,1774921927396,-0.093939618169812,-0.207490261796538,0.983599252416718,0.036396718666441,2.042052092483258,-2.029863833868800,0.138706922531128,-1.588417832051412,0.264015674591064,-1.428409401570455,0.031988143920898,-0.185781304036276
388,1774921927407,-0.093932552820090,-0.207492223877003,0.983600051038697,0.036335569950247,2.042058638636868,-2.029869998212119,0.138730883598328,-1.588417832051412,0.264015674591064,-1.428433243428366,0.031988143920898,-0.185793224965231
389,1774921927417,-0.093937159193001,-0.207488479131360,0.983599125233981,0.036384771680424,2.042081256976061,-2.029893712575940,0.138694941997528,-1.588429752980367,0.264028072357178,-1.428421322499410,0.031976159662008,-0.185805145894186
390,1774921927428,-0.093891717833513,-0.207487833699784,0.983607103653264,0.036203850380828,2.042049345494227,-2.029893947798635,0.138742506504059,-1.588453594838278,0.264015674591064,-1.428469006215231,0.032036080956459,-0.185793224965231
391,1774921927438,-0.093932380358831,-0.207493592730883,0.983599227293594,0.036348632271295,2.042028724370844,-2.029840889986764,0.138742506504059,-1.588417832051412,0.264015674591064,-1.428397480641500,0.032000128179789,-0.185793224965231
392,1774921927449,-0.093900291742928,-0.207484713156961,0.983604606044830,0.036264689804707,2.042080068890826,-2.029920971645728,0.138706922531128,-1.588465515767233,0.264028072357178,-1.428421322499410,0.032012112438679,-0.185840908681051
393,1774921927459,-0.093915141129539,-0.207485286607419,0.983604478493438,0.036325189946375,2.042050785429008,-2.029890315783551,0.138694941997528,-1.588441673909323,0.264015674591064,-1.428445164357321,0.032024096697569,-0.185769383107321
394,1774921927469,-0.093921122340847,-0.207487671420979,0.983602594358838,0.036396718432099,2.042052023546354,-2.029863896077704,0.138706922531128,-1.588429752980367,0.263991832733154,-1.428373638783590,0.031988143920898,-0.185781304036276
395,1774921927480,-0.093933875246701,-0.207493866055522,0.983597182282364,0.036348204810008,2.042057155023709,-2.029859280263593,0.138742506504059,-1.588429752980367,0.264039993286133,-1.428409401570455,0.031976159662008,-0.185817066823141
396,1774921927490,-0.093928012081763,-0.207488643025837,0.983601104692210,0.036336038994568,2.042077980300048,-2.029898335642675,0.138706922531128,-1.588429752980367,0.264015674591064,-1.428421322499410,0.031988143920898,-0.185817066823141
397,1774921927501,-0.093955705197209,-0.207491041990411,0.983597333757709,0.036385715100480,2.042066773482939,-2.029884066275160,0.138694941997528,-1.588405434285299,0.264028072357178,-1.428445164357321,0.031988143920898,-0.185793224965231
398,1774921927512,-0.093938060445184,-0.207488635133346,0.983598751048307,0.036372225194616,2.042100610440729,-2.029910113251274,0.138694941997528,-1.588429752980367,0.264028072357178,-1.428421322499410,0.031964175403118,-0.185828987752096
399,1774921927523,-0.093942249582937,-0.207489124648893,0.983599227293594,0.036385454189957,2.042052170862432,-2.029876128516243,0.138694941997528,-1.588417832051412,0.264015674591064,-1.428397480641500,0.032000128179789,-0.185805145894186
400,1774921927533,-0.093939456166317,-0.207490211325514,0.983597930696896,0.036385715196776,2.042042306289079,-2.029861680866412,0.138706922531128,-1.588429752980367,0.264039993286133,-1.428409401570455,0.032000128179789,-0.185793224965231
401,1774921927543,-0.093938351577963,-0.207488611794570,0.983598700771338,0.036385486419439,2.042066269541121,-2.029885200025288,0.138694941997528,-1.588429752980367,0.264028072357178,-1.428397480641500,0.031988143920898,-0.185817066823141
402,1774921927554,-0.093931504159335,-0.207492167306096,0.983598376862497,0.036395235927341,2.042075784889217,-2.029862854010771,0.138730883598328,-1.588429752980367,0.264028072357178,-1.428421322499410,0.031952191144228,-0.185781304036276
403,1774921927565,-0.093926151784086,-0.207486875918052,0.983602223743824,0.036348944323420,2.042067943214175,-2.029896527713202,0.138694941997528,-1.588429752980367,0.264003753662109,-1.428397480641500,0.032000128179789,-0.185817066823141
404,1774921927575,-0.093926047607480,-0.207488280449727,0.983600531342998,0.036289700237061,2.042054714273058,-2.029898688826902,0.138706922531128,-1.588441673909323,0.264039993286133,-1.428421322499410,0.032024096697569,-0.185840908681051
405,1774921927586,-0.093938716927671,-0.207490105760980,0.983599626612582,0.036373008189346,2.042047876029803,-2.029868617883229,0.138706922531128,-1.588417832051412,0.264015674591064,-1.428409401570455,0.032000128179789,-0.185793224965231
406,1774921927596,-0.093938830504483,-0.207493104091305,0.983596811484378,0.036360491249374,2.042047708782250,-2.029856391650748,0.138730883598328,-1.588429752980367,0.264051914215088,-1.428433243428366,0.031988143920898,-0.185793224965231
407,1774921927607,-0.093968425692524,-0.207492838448690,0.983593019610904,0.036482828971448,2.042038360818121,-2.029839783502156,0.138694941997528,-1.588405434285299,0.264039993286133,-1.428373638783590,0.031976159662008,-0.185793224965231
408,1774921927617,-0.093937462061633,-0.207486958829022,0.983598613580228,0.036386534945436,2.042047710675208,-2.029880253455933,0.138682946562767,-1.588441673909323,0.264051914215088,-1.428421322499410,0.032012112438679,-0.185793224965231
409,1774921927628,-0.093940875081565,-0.207490441941732,0.983595922178676,0.036409558463538,2.042046212989094,-2.029857288112847,0.138706922531128,-1.588441673909323,0.264063835144043,-1.428409401570455,0.031988143920898,-0.185793224965231
410,1774921927639,-0.093963878177307,-0.207490677612059,0.983595764924215,0.036410851146717,2.042051405636244,-2.029875576938368,0.138682946562767,-1.588405434285299,0.264039993286133,-1.428433243428366,0.032000128179789,-0.185793224965231
411,1774921927649,-0.093916535163626,-0.207486950382600,0.983601584877809,0.036325960107236,2.042039559610811,-2.029877523573717,0.138706922531128,-1.588453594838278,0.264039993286133,-1.428409401570455,0.032024096697569,-0.185805145894186
412,1774921927660,-0.093902931840488,-0.207490866709950,0.983604453411099,0.036216210036319,2.042033278336316,-2.029874362954739,0.138754487037659,-1.588441673909323,0.264015674591064,-1.428433243428366,0.032036080956459,-0.185817066823141
413,1774921927670,-0.093926035280421,-0.207491338380590,0.983599931874231,0.036371622976484,2.042057110926363,-2.029858999365469,0.138730883598328,-1.588429752980367,0.264015674591064,-1.428397480641500,0.031976159662008,-0.185793224965231
