YU-l2025/UR5-MoveDataCollecting/upload/数据集/3.31test1.csv
global_index,timestamp_ms,tcp_x,tcp_y,tcp_z,tcp_rx,tcp_ry,tcp_rz,joint_q1,joint_q2,joint_q3,joint_q4,joint_q5,joint_q6
0,1774921320497,-0.000123360156910,-0.192532294959725,1.001670932578068,-0.001771182261497,-2.221275057820723,2.219816809144196,-0.000059906636373,-1.570748154317037,0.000011920928955,-1.570783917103903,-0.000071827565328,0.000023968450478
1,1774921320508,-0.000093594023025,-0.192532288866134,1.001670942608899,-0.001743556491832,-2.221263060382648,2.219804923602799,-0.000023667012350,-1.570772473012106,0.000000000000000,-1.570760075245992,-0.000107590352194,0.000011984225239
2,1774921320518,-0.000118678022702,-0.192532297902742,1.001670932578068,-0.001717552880073,-2.221275274884302,2.219816984325540,-0.000035587941305,-1.570748154317037,0.000011920928955,-1.570783917103903,-0.000071827565328,0.000000000000000
3,1774921320529,-0.000110550793098,-0.192532307067840,1.001670932795361,-0.001704041855101,-2.221280609504183,2.219822307199857,-0.000047985707418,-1.570760075245992,0.000023841857910,-1.570820633565084,-0.000047985707418,0.000035952674807
4,1774921320539,-0.000146638627534,-0.192532299393753,1.001670919149704,-0.001730442856890,-2.221317381427223,2.219858995120305,-0.000035587941305,-1.570724312459127,0.000023841857910,-1.570748154317037,-0.000035587941305,-0.000023667012350
5,1774921320549,-0.000115723456650,-0.192532311479457,1.001670929356174,-0.001623520976540,-2.221281168399091,2.219822757349706,-0.000023667012350,-1.570748154317037,0.000023841857910,-1.570820633565084,-0.000035587941305,-0.000011746083395
6,1774921320562,-0.000107800893591,-0.192532297995601,1.001670935799357,-0.001691267259159,-2.221263447432959,2.219805164736173,-0.000035587941305,-1.570760075245992,0.000011920928955,-1.570783917103903,-0.000071827565328,-0.000011746083395
7,1774921320574,-0.000144595728482,-0.192532313439328,1.001670913285454,-0.001757450563646,-2.221280891592884,2.219822396588237,-0.000047985707418,-1.570748154317037,0.000072002410889,-1.570844475422994,-0.000071827565328,0.000023968450478
8,1774921320585,-0.000128507749123,-0.192532308711705,1.001670925084211,-0.001743305771552,-2.221298769954662,2.219840421709205,-0.000059906636373,-1.570748154317037,0.000035762786865,-1.570820633565084,-0.000035587941305,0.000047936900955
9,1774921320595,-0.000102659933887,-0.192532297095601,1.001670940164943,-0.001664267915736,-2.221287028544898,2.219828807253302,-0.000011746083395,-1.570748154317037,-0.000011746083395,-1.570772473012106,-0.000059906636373,0.000000000000000
10,1774921320607,-0.000104322849631,-0.192532303318354,1.001670937398655,-0.001716817282507,-2.221274878763599,2.219816642332063,-0.000035587941305,-1.570760075245992,0.000011920928955,-1.570820633565084,-0.000071827565328,0.000047936900955
11,1774921320618,-0.000106326881341,-0.192532307140134,1.001670930644591,-0.001690121518742,-2.221286767757855,2.219828445076033,-0.000047985707418,-1.570772473012106,0.000035762786865,-1.570796314870016,-0.000035587941305,0.000011984225239
12,1774921320628,-0.000105613015873,-0.192532308242239,1.001670936770527,-0.001623938278944,-2.221293219581933,2.219834912028969,-0.000035587941305,-1.570748154317037,0.000000000000000,-1.570808235798971,-0.000011746083395,0.000011984225239
13,1774921320639,-0.000108399227090,-0.192532310578251,1.001670933039232,-0.001650417180270,-2.221268913838223,2.219810552008083,-0.000047985707418,-1.570760075245992,0.000023841857910,-1.570832554494039,-0.000035587941305,0.000011984225239
14,1774921320650,-0.000161318730389,-0.192532293558580,1.001670916840721,-0.001823974277018,-2.221275059660454,2.219816661980239,-0.000083748494283,-1.570724312459127,0.000035762786865,-1.570783917103903,-0.000071827565328,0.000000000000000
15,1774921320660,-0.000133008123843,-0.192532301523915,1.001670923634098,-0.001744567576692,-2.221286987300839,2.219828620931663,-0.000059906636373,-1.570748154317037,0.000035762786865,-1.570783917103903,-0.000047985707418,0.000000000000000
16,1774921320671,-0.000142448974329,-0.192532292623474,1.001670922953989,-0.001797496900552,-2.221298868951020,2.219840562386722,-0.000059906636373,-1.570736233388082,0.000023841857910,-1.570748154317037,-0.000059906636373,0.000000000000000
17,1774921320682,-0.000139342616390,-0.192532301708830,1.001670925482386,-0.001770219892590,-2.221287050457452,2.219828713530038,-0.000083748494283,-1.570736233388082,0.000023841857910,-1.570808235798971,-0.000035587941305,0.000035952674807
18,1774921320693,-0.000158328969619,-0.192532299167321,1.001670918273009,-0.001770501697540,-2.221286764864192,2.219828351062902,-0.000047985707418,-1.570712391530172,0.000023841857910,-1.570796314870016,-0.000071827565328,0.000000000000000
19,1774921320703,-0.000094344115064,-0.192532293498900,1.001670941836190,-0.001744255687473,-2.221286718148377,2.219828592627286,-0.000047985707418,-1.570772473012106,0.000000000000000,-1.570760075245992,-0.000059906636373,0.000035952674807
20,1774921320714,-0.000133534213397,-0.192532299705929,1.001670931777760,-0.001717104425716,-2.221262686410032,2.219804353803595,-0.000047985707418,-1.570724312459127,0.000000000000000,-1.570820633565084,-0.000071827565328,0.000011984225239
21,1774921320724,-0.000146454958103,-0.192532306366458,1.001670916124555,-0.001771204929767,-2.221310895916297,2.219852487704933,-0.000047985707418,-1.570736233388082,0.000048160552979,-1.570796314870016,-0.000047985707418,0.000023968450478
22,1774921320736,-0.000120818841488,-0.192532301611278,1.001670927139667,-0.001771274093617,-2.221298941249844,2.219840659391672,-0.000047985707418,-1.570760075245992,0.000035762786865,-1.570783917103903,-0.000059906636373,0.000035952674807
23,1774921320746,-0.000071264852528,-0.192532300938043,1.001670945307572,-0.001637083983683,-2.221250929571375,2.219792726513704,-0.000023667012350,-1.570796314870016,0.000011920928955,-1.570796314870016,-0.000071827565328,0.000000000000000
24,1774921320756,-0.000097403571842,-0.192532298679048,1.001670939940732,-0.001704551054644,-2.221293189659364,2.219835008470536,-0.000011746083395,-1.570760075245992,0.000000000000000,-1.570783917103903,-0.000071827565328,0.000035952674807
25,1774921320766,-0.000133719732956,-0.192532313363351,1.001670921489974,-0.001676363768931,-2.221304948630965,2.219846508747816,-0.000035587941305,-1.570736233388082,0.000035762786865,-1.570820633565084,-0.000023667012350,0.000011984225239
26,1774921320776,-0.000142105959607,-0.192532296119530,1.001670917509072,-0.001851214532266,-2.221323005238916,2.219864714420130,-0.000047985707418,-1.570748154317037,0.000048160552979,-1.570748154317037,-0.000071827565328,0.000035952674807
27,1774921320787,-0.000123748157804,-0.192532296116640,1.001670933506936,-0.001717548500452,-2.221275272887302,2.219816990279699,-0.000035587941305,-1.570736233388082,0.000000000000000,-1.570783917103903,-0.000071827565328,0.000000000000000
28,1774921320798,-0.000102455904995,-0.192532297560987,1.001670944243474,-0.001703614000458,-2.221245582106826,2.219787375134534,-0.000095192586080,-1.570760075245992,-0.000011746083395,-1.570808235798971,-0.000035587941305,0.000023968450478
29,1774921320809,-0.000103650987882,-0.192532296742782,1.001670938310572,-0.001704396391528,-2.221293151056050,2.219834947565842,-0.000047985707418,-1.570760075245992,0.000000000000000,-1.570760075245992,-0.000035587941305,0.000011984225239
30,1774921320819,-0.000146308733656,-0.192532306396468,1.001670916845764,-0.001771203798192,-2.221298976691743,2.219840560655677,-0.000047985707418,-1.570736233388082,0.000048160552979,-1.570808235798971,-0.000059906636373,0.000023968450478
31,1774921320830,-0.000131567470067,-0.192532299545128,1.001670922627424,-0.001797213097760,-2.221323016733056,2.219864735565241,-0.000035587941305,-1.570748154317037,0.000035762786865,-1.570760075245992,-0.000059906636373,0.000035952674807
32,1774921320841,-0.000132766164100,-0.192532304958862,1.001670917518424,-0.001771125884709,-2.221310853630698,2.219852474638830,-0.000047985707418,-1.570760075245992,0.000060081481934,-1.570772473012106,-0.000047985707418,0.000011984225239
33,1774921320851,-0.000148237720628,-0.192532306393295,1.001670908836513,-0.001810916259226,-2.221341163926104,2.219882756241398,-0.000035587941305,-1.570748154317037,0.000072002410889,-1.570760075245992,-0.000047985707418,0.000023968450478
34,1774921320862,-0.000128158331118,-0.192532295551068,1.001670929607253,-0.001823148883702,-2.221238841792828,2.219780553480443,-0.000083748494283,-1.570760075245992,0.000035762786865,-1.570820633565084,-0.000107590352194,0.000035952674807
35,1774921320873,-0.000105497254092,-0.192532301521059,1.001670936872913,-0.001717265319636,-2.221275092020178,2.219816852418516,-0.000035587941305,-1.570760075245992,0.000011920928955,-1.570808235798971,-0.000071827565328,0.000035952674807
36,1774921320884,-0.000108061873203,-0.192532295555497,1.001670934349275,-0.001783440677599,-2.221280539334308,2.219822342010909,-0.000059906636373,-1.570772473012106,0.000023841857910,-1.570772473012106,-0.000071827565328,0.000035952674807
37,1774921320895,-0.000117111242107,-0.192532304908104,1.001670928437413,-0.001690750928413,-2.221263251739977,2.219804871986688,-0.000035587941305,-1.570760075245992,0.000035762786865,-1.570808235798971,-0.000071827565328,-0.000011746083395
38,1774921320906,-0.000143128987721,-0.192532311688749,1.001670917083623,-0.001730446063463,-2.221304963721008,2.219846517280412,-0.000047985707418,-1.570736233388082,0.000048160552979,-1.570820633565084,-0.000035587941305,0.000023968450478
39,1774921320918,-0.000117235479339,-0.192532309515121,1.001670927445155,-0.001650863965459,-2.221317291761078,2.219858929670714,-0.000023667012350,-1.570748154317037,0.000023841857910,-1.570783917103903,-0.000011746083395,0.000000000000000
40,1774921320928,-0.000118515202063,-0.192532305165318,1.001670928244240,-0.001717647743265,-2.221274849983642,2.219816501298988,-0.000047985707418,-1.570760075245992,0.000035762786865,-1.570808235798971,-0.000059906636373,0.000011984225239
41,1774921320939,-0.000123502006125,-0.192532301308017,1.001670928128976,-0.001717560224483,-2.221287215445549,2.219828884153382,-0.000035587941305,-1.570748154317037,0.000023841857910,-1.570783917103903,-0.000059906636373,0.000000000000000
42,1774921320949,-0.000122181377198,-0.192532303121781,1.001670929426722,-0.001743741001390,-2.221287034454805,2.219828735365646,-0.000035587941305,-1.570748154317037,0.000023841857910,-1.570808235798971,-0.000071827565328,0.000035952674807
43,1774921320959,-0.000104895872497,-0.192532305402666,1.001670936214423,-0.001637808776851,-2.221263247944556,2.219804914574455,-0.000047985707418,-1.570760075245992,0.000011920928955,-1.570808235798971,-0.000035587941305,-0.000011746083395
44,1774921320970,-0.000123678369245,-0.192532308589966,1.001670922866779,-0.001744286176803,-2.221311139350150,2.219852792043876,-0.000047985707418,-1.570760075245992,0.000048160552979,-1.570796314870016,-0.000035587941305,0.000035952674807
45,1774921320980,-0.000115936837659,-0.192532306705407,1.001670928991156,-0.001729982474676,-2.221280847390440,2.219822525250843,-0.000035587941305,-1.570760075245992,0.000035762786865,-1.570820633565084,-0.000071827565328,0.000035952674807
46,1774921320991,-0.000141688517460,-0.192532304772800,1.001670920589724,-0.001730278398143,-2.221292975475550,2.219834561075151,-0.000059906636373,-1.570736233388082,0.000035762786865,-1.570796314870016,-0.000035587941305,0.000000000000000
47,1774921321002,-0.000093432208977,-0.192532305427622,1.001670939114874,-0.001651090130664,-2.221317303057631,2.219859089697366,-0.000011746083395,-1.570760075245992,0.000000000000000,-1.570783917103903,-0.000023667012350,0.000035952674807
48,1774921321012,-0.000130407772324,-0.192532308011324,1.001670924084036,-0.001690650215165,-2.221323273448605,2.219864906314799,-0.000035587941305,-1.570736233388082,0.000023841857910,-1.570783917103903,-0.000011746083395,0.000011984225239
49,1774921321023,-0.000160472512437,-0.192532300891005,1.001670912100289,-0.001771743838793,-2.221287365685804,2.219828887902802,-0.000047985707418,-1.570724312459127,0.000048160552979,-1.570783917103903,-0.000071827565328,-0.000023667012350
50,1774921321034,-0.000103077965166,-0.192532294642995,1.001670939429068,-0.001703781496384,-2.221269045386059,2.219810828252235,-0.000035587941305,-1.570760075245992,0.000000000000000,-1.570772473012106,-0.000071827565328,0.000000000000000
51,1774921321044,-0.000121674073782,-0.192532301657329,1.001670934930615,-0.001717265744684,-2.221274636664147,2.219816358395915,-0.000047985707418,-1.570736233388082,0.000000000000000,-1.570820633565084,-0.000059906636373,0.000035952674807
52,1774921321055,-0.000127219193782,-0.192532292895113,1.001670932969426,-0.001797277141953,-2.221298684886419,2.219840492505730,-0.000047985707418,-1.570736233388082,0.000000000000000,-1.570772473012106,-0.000071827565328,0.000047936900955
53,1774921321066,-0.000099711319699,-0.192532311857112,1.001670935747695,-0.001649972167519,-2.221268689954111,2.219810359235382,-0.000071827565328,-1.570772473012106,0.000023841857910,-1.570832554494039,-0.000011746083395,0.000023968450478
54,1774921321076,-0.000122728453503,-0.192532295848656,1.001670932215573,-0.001744177524678,-2.221311060170451,2.219852833030866,-0.000023667012350,-1.570736233388082,0.000000000000000,-1.570760075245992,-0.000059906636373,0.000023968450478
55,1774921321087,-0.000093060179897,-0.192532297717762,1.001670944098864,-0.001703945645243,-2.221244767163681,2.219786573518279,-0.000059906636373,-1.570772473012106,0.000000000000000,-1.570808235798971,-0.000071827565328,0.000023968450478
56,1774921321097,-0.000143111700096,-0.192532295913296,1.001670924290608,-0.001797736362170,-2.221322777095015,2.219864508358355,-0.000047985707418,-1.570724312459127,0.000011920928955,-1.570760075245992,-0.000047985707418,0.000035952674807
57,1774921321107,-0.000147912953415,-0.192532297741005,1.001670912978421,-0.001864455172681,-2.221328976992604,2.219870652618929,-0.000047985707418,-1.570748154317037,0.000060081481934,-1.570748154317037,-0.000071827565328,0.000035952674807
58,1774921321117,-0.000127447281465,-0.192532294785739,1.001670933325949,-0.001784575325024,-2.221292975749446,2.219834764403303,-0.000059906636373,-1.570736233388082,0.000000000000000,-1.570783917103903,-0.000059906636373,0.000047936900955
59,1774921321128,-0.000103993706762,-0.192532301113052,1.001670937856258,-0.001663738943058,-2.221239144982668,2.219780831385347,-0.000023667012350,-1.570760075245992,0.000011920928955,-1.570820633565084,-0.000095669423239,-0.000011746083395
60,1774921321138,-0.000101694291717,-0.192532303706761,1.001670934286104,-0.001703959148616,-2.221292960697792,2.219834704812672,-0.000047985707418,-1.570772473012106,0.000023841857910,-1.570783917103903,-0.000035587941305,0.000023968450478
61,1774921321149,-0.000084378464782,-0.192532301851789,1.001670941248955,-0.001650477281020,-2.221317019639132,2.219858845113430,-0.000011746083395,-1.570772473012106,0.000000000000000,-1.570760075245992,-0.000023667012350,0.000023968450478
62,1774921321160,-0.000128961885204,-0.192532301861907,1.001670923381348,-0.001797748552004,-2.221287029236080,2.219828707636795,-0.000059906636373,-1.570760075245992,0.000048160552979,-1.570796314870016,-0.000071827565328,0.000035952674807
63,1774921321171,-0.000106379316624,-0.192532301980438,1.001670927809906,-0.001745176996996,-2.221299130688885,2.219840851112480,-0.000047985707418,-1.570783917103903,0.000048160552979,-1.570760075245992,-0.000047985707418,0.000011984225239
64,1774921321181,-0.000133204730718,-0.192532303012674,1.001670925304629,-0.001796923268883,-2.221322851535025,2.219864588032722,-0.000035587941305,-1.570736233388082,0.000023841857910,-1.570796314870016,-0.000059906636373,0.000071905349614
65,1774921321192,-0.000097101752588,-0.192532288344939,1.001670943199203,-0.001783422669457,-2.221256653636856,2.219798544584088,-0.000047985707418,-1.570772473012106,0.000000000000000,-1.570772473012106,-0.000107590352194,0.000035952674807
66,1774921321202,-0.000106933085439,-0.192532296641225,1.001670933639418,-0.001784425354715,-2.221257161825391,2.219798927616439,-0.000083748494283,-1.570783917103903,0.000035762786865,-1.570783917103903,-0.000071827565328,0.000023968450478
67,1774921321213,-0.000080797106258,-0.192532301694116,1.001670946804623,-0.001636906132141,-2.221275146111287,2.219816971304533,-0.000035587941305,-1.570772473012106,-0.000011746083395,-1.570796314870016,-0.000035587941305,0.000023968450478
68,1774921321223,-0.000154337332170,-0.192532293998572,1.001670921938521,-0.001810286021741,-2.221268874786151,2.219810513334354,-0.000083748494283,-1.570724312459127,0.000023841857910,-1.570796314870016,-0.000071827565328,0.000011984225239
69,1774921321233,-0.000122250826699,-0.192532287533008,1.001670936887193,-0.001770749647732,-2.221275329160040,2.219817141424927,-0.000035587941305,-1.570736233388082,-0.000011746083395,-1.570760075245992,-0.000095669423239,0.000011984225239
70,1774921321244,-0.000115112902564,-0.192532300029460,1.001670930711777,-0.001717560784514,-2.221286723089256,2.219828427028668,-0.000047985707418,-1.570760075245992,0.000023841857910,-1.570772473012106,-0.000047985707418,0.000000000000000
71,1774921321255,-0.000122549134240,-0.192532310332147,1.001670923391331,-0.001704422660103,-2.221293236611039,2.219834838237985,-0.000047985707418,-1.570760075245992,0.000048160552979,-1.570808235798971,-0.000035587941305,0.000011984225239
72,1774921321266,-0.000110620242398,-0.192532291524848,1.001670940357945,-0.001757680288627,-2.221280854886040,2.219822702737249,-0.000047985707418,-1.570748154317037,-0.000011746083395,-1.570772473012106,-0.000071827565328,0.000035952674807
73,1774921321276,-0.000151810539828,-0.192532313234540,1.001670912750566,-0.001703817236802,-2.221317342158766,2.219858840872722,-0.000035587941305,-1.570724312459127,0.000048160552979,-1.570808235798971,-0.000023667012350,0.000000000000000
74,1774921321287,-0.000118911678319,-0.192532304197943,1.001670928128976,-0.001717719291544,-2.221311097360541,2.219852796734697,-0.000011746083395,-1.570748154317037,0.000023841857910,-1.570783917103903,-0.000059906636373,0.000023968450478
75,1774921321297,-0.000124239587193,-0.192532308475389,1.001670931475705,-0.001690806178011,-2.221274675789381,2.219816326151004,-0.000047985707418,-1.570736233388082,0.000011920928955,-1.570844475422994,-0.000047985707418,0.000035952674807
76,1774921321308,-0.000128380747340,-0.192532299607513,1.001670929809415,-0.001756970257718,-2.221292983437865,2.219834706818588,-0.000035587941305,-1.570736233388082,0.000011920928955,-1.570796314870016,-0.000071827565328,0.000035952674807
77,1774921321319,-0.000111304248124,-0.192532303214534,1.001670932689775,-0.001703875799463,-2.221269112525726,2.219810802666401,-0.000035587941305,-1.570760075245992,0.000023841857910,-1.570808235798971,-0.000071827565328,0.000011984225239
78,1774921321330,-0.000104816017343,-0.192532306716234,1.001670931560072,-0.001716747616312,-2.221286796248695,2.219828508031414,-0.000035587941305,-1.570772473012106,0.000035762786865,-1.570808235798971,-0.000059906636373,0.000035952674807
79,1774921321340,-0.000125527841105,-0.192532304754702,1.001670917006923,-0.001783298842860,-2.221304881147020,2.219846509039111,-0.000023667012350,-1.570772473012106,0.000072002410889,-1.570772473012106,-0.000083748494283,0.000011984225239
80,1774921321350,-0.000111281254364,-0.192532298452916,1.001670931620550,-0.001756813719122,-2.221256686175081,2.219798401298884,-0.000047985707418,-1.570772473012106,0.000035762786865,-1.570796314870016,-0.000095669423239,0.000011984225239
81,1774921321361,-0.000135844829627,-0.192532301342399,1.001670923869962,-0.001743585204123,-2.221310845949678,2.219852510290732,-0.000047985707418,-1.570736233388082,0.000023841857910,-1.570772473012106,-0.000035587941305,0.000011984225239
82,1774921321372,-0.000112738719236,-0.192532297033856,1.001670941681207,-0.001690902203559,-2.221275155620945,2.219816941547316,-0.000059906636373,-1.570736233388082,-0.000023667012350,-1.570796314870016,-0.000035587941305,0.000023968450478
83,1774921321382,-0.000082498111202,-0.192532293031106,1.001670944829745,-0.001731017406514,-2.221281221585981,2.219823125895120,-0.000035587941305,-1.570783917103903,0.000000000000000,-1.570760075245992,-0.000071827565328,0.000035952674807
84,1774921321393,-0.000081744656051,-0.192532297241365,1.001670944936829,-0.001677924571113,-2.221268814789272,2.219810653899705,-0.000047985707418,-1.570783917103903,0.000000000000000,-1.570772473012106,-0.000047985707418,0.000011984225239
85,1774921321403,-0.000127858849734,-0.192532299671036,1.001670920859264,-0.001797665793628,-2.221323232664075,2.219864938769795,-0.000035587941305,-1.570760075245992,0.000048160552979,-1.570748154317037,-0.000059906636373,0.000023968450478
86,1774921321414,-0.000101542218281,-0.192532303750399,1.001670935016368,-0.001717273137985,-2.221286540415382,2.219828295008277,-0.000047985707418,-1.570772473012106,0.000023841857910,-1.570796314870016,-0.000047985707418,0.000035952674807
87,1774921321424,-0.000096034239627,-0.192532304140133,1.001670937770294,-0.001624576353076,-2.221317159842182,2.219858912293395,-0.000023667012350,-1.570760075245992,0.000000000000000,-1.570760075245992,0.000000000000000,0.000000000000000
88,1774921321435,-0.000124568347652,-0.192532301592169,1.001670929426722,-0.001730875942225,-2.221268879419356,2.219810546180894,-0.000047985707418,-1.570748154317037,0.000023841857910,-1.570808235798971,-0.000071827565328,0.000011984225239
89,1774921321446,-0.000154697114806,-0.192532292440243,1.001670920294140,-0.001823591803924,-2.221322989350635,2.219864701584040,-0.000035587941305,-1.570712391530172,0.000011920928955,-1.570748154317037,-0.000071827565328,0.000023968450478
90,1774921321457,-0.000124856421093,-0.192532308000871,1.001670924206027,-0.001717199057673,-2.221310883949025,2.219852529943163,-0.000023667012350,-1.570748154317037,0.000035762786865,-1.570796314870016,-0.000047985707418,0.000023968450478
91,1774921321467,-0.000089064522453,-0.192532302967216,1.001670936316512,-0.001678045829307,-2.221257011541350,2.219798728786974,-0.000059906636373,-1.570796314870016,0.000035762786865,-1.570783917103903,-0.000047985707418,-0.000011746083395
92,1774921321477,-0.000069028481783,-0.192532296636501,1.001670948025584,-0.001690256954482,-2.221274792279539,2.219816699995873,-0.000035587941305,-1.570796314870016,0.000000000000000,-1.570772473012106,-0.000059906636373,0.000035952674807
93,1774921321488,-0.000121673351624,-0.192532297926292,1.001670926148200,-0.001770579470181,-2.221299126837467,2.219840841916451,-0.000035587941305,-1.570760075245992,0.000035762786865,-1.570760075245992,-0.000071827565328,0.000011984225239
94,1774921321498,-0.000121726220034,-0.192532306742536,1.001670928147480,-0.001690649384152,-2.221298942965898,2.219840594768584,-0.000047985707418,-1.570748154317037,0.000023841857910,-1.570796314870016,-0.000023667012350,0.000011984225239
95,1774921321508,-0.000096229167345,-0.192532300448340,1.001670940481034,-0.001690788220041,-2.221287000312930,2.219828804352505,-0.000011746083395,-1.570760075245992,0.000000000000000,-1.570796314870016,-0.000071827565328,0.000035952674807
96,1774921321519,-0.000095938833641,-0.192532289002235,1.001670948949860,-0.001704494223297,-2.221221181420975,2.219763021199329,-0.000059906636373,-1.570760075245992,-0.000023667012350,-1.570796314870016,-0.000095669423239,0.000000000000000
97,1774921321530,-0.000118486628782,-0.192532297976619,1.001670933339546,-0.001756967080676,-2.221281044474777,2.219822801435818,-0.000035587941305,-1.570748154317037,0.000011920928955,-1.570796314870016,-0.000083748494283,0.000035952674807
98,1774921321540,-0.000111725197524,-0.192532305255977,1.001670932279993,-0.001677860520236,-2.221268870398666,2.219810529341912,-0.000047985707418,-1.570760075245992,0.000023841857910,-1.570808235798971,-0.000047985707418,0.000000000000000
99,1774921321551,-0.000086043928458,-0.192532293070618,1.001670946537825,-0.001716914961437,-2.221274879274166,2.219816776970490,-0.000035587941305,-1.570772473012106,-0.000011746083395,-1.570772473012106,-0.000071827565328,0.000035952674807
100,1774921321562,-0.000095505668737,-0.192532299803727,1.001670938807058,-0.001690634439047,-2.221275039968070,2.219816812592241,-0.000035587941305,-1.570772473012106,0.000011920928955,-1.570783917103903,-0.000059906636373,0.000011984225239
101,1774921321572,-0.000131257049087,-0.192532300310941,1.001670923381348,-0.001797668589717,-2.221275088521669,2.219816751107200,-0.000071827565328,-1.570760075245992,0.000048160552979,-1.570796314870016,-0.000071827565328,0.000023968450478
102,1774921321583,-0.000130774694547,-0.192532303191556,1.001670922941094,-0.001730274575674,-2.221304871982072,2.219846510420201,-0.000047985707418,-1.570748154317037,0.000035762786865,-1.570772473012106,-0.000035587941305,0.000000000000000
103,1774921321594,-0.000127984271012,-0.192532300407616,1.001670929980464,-0.001770212860364,-2.221262711953437,2.219804405213205,-0.000071827565328,-1.570748154317037,0.000023841857910,-1.570820633565084,-0.000071827565328,0.000035952674807
104,1774921321605,-0.000116636257044,-0.192532311815328,1.001670931255705,-0.001677045184417,-2.221268961018129,2.219810594823853,-0.000035587941305,-1.570748154317037,0.000023841857910,-1.570856396351950,-0.000059906636373,0.000035952674807
105,1774921321616,-0.000116357787102,-0.192532308689358,1.001670928580436,-0.001677337689075,-2.221268653537482,2.219810263642662,-0.000047985707418,-1.570760075245992,0.000035762786865,-1.570820633565084,-0.000047985707418,0.000000000000000
106,1774921321626,-0.000114070743703,-0.192532304953668,1.001670934724079,-0.001690190035942,-2.221262946131211,2.219804632873923,-0.000035587941305,-1.570748154317037,0.000011920928955,-1.570832554494039,-0.000071827565328,0.000023968450478
107,1774921321637,-0.000080361059411,-0.192532299226741,1.001670948013790,-0.001637350710340,-2.221251037966277,2.219792854063494,-0.000023667012350,-1.570772473012106,-0.000011746083395,-1.570808235798971,-0.000071827565328,0.000011984225239
108,1774921321647,-0.000124718672193,-0.192532306029940,1.001670923791646,-0.001717644490644,-2.221311093591724,2.219852741295221,-0.000011746083395,-1.570748154317037,0.000035762786865,-1.570783917103903,-0.000059906636373,0.000011984225239
109,1774921321658,-0.000154099472473,-0.192532302992854,1.001670910629220,-0.001823613825435,-2.221323036544980,2.219864634468816,-0.000035587941305,-1.570736233388082,0.000060081481934,-1.570772473012106,-0.000071827565328,0.000023968450478
110,1774921321668,-0.000138024231406,-0.192532292872659,1.001670923678448,-0.001810201754067,-2.221268826534947,2.219810501537234,-0.000059906636373,-1.570748154317037,0.000035762786865,-1.570772473012106,-0.000095669423239,0.000000000000000
111,1774921321679,-0.000113497462284,-0.192532288884012,1.001670934107014,-0.001810273495420,-2.221256874694132,2.219798672590174,-0.000071827565328,-1.570772473012106,0.000023841857910,-1.570760075245992,-0.000095669423239,0.000011984225239
112,1774921321690,-0.000109543137667,-0.192532308085297,1.001670927344417,-0.001743829610207,-2.221298979403847,2.219840679591405,-0.000023667012350,-1.570772473012106,0.000048160552979,-1.570808235798971,-0.000071827565328,0.000047936900955
113,1774921321701,-0.000095176740762,-0.192532300843679,1.001670943412265,-0.001610802541797,-2.221299203554884,2.219840987857593,-0.000023667012350,-1.570748154317037,-0.000023667012350,-1.570772473012106,-0.000011746083395,0.000000000000000
114,1774921321711,-0.000127879659885,-0.192532289661199,1.001670937818644,-0.001730969683072,-2.221268899493446,2.219810669512179,-0.000059906636373,-1.570724312459127,-0.000023667012350,-1.570772473012106,-0.000059906636373,0.000000000000000
115,1774921321721,-0.000132404084252,-0.192532300005658,1.001670917740288,-0.001824061545974,-2.221275065060758,2.219816695096163,-0.000059906636373,-1.570772473012106,0.000072002410889,-1.570783917103903,-0.000095669423239,0.000011984225239
116,1774921321732,-0.000112660676343,-0.192532290644711,1.001670933194434,-0.001783727534722,-2.221268787162009,2.219810566947658,-0.000071827565328,-1.570772473012106,0.000023841857910,-1.570748154317037,-0.000071827565328,0.000000000000000
117,1774921321742,-0.000092219018676,-0.192532305029168,1.001670939599351,-0.001650405755636,-2.221268868291224,2.219810603000740,-0.000035587941305,-1.570772473012106,0.000011920928955,-1.570808235798971,-0.000047985707418,0.000011984225239
118,1774921321753,-0.000107005176510,-0.192532295962223,1.001670939531887,-0.001731476677791,-2.221269088559612,2.219810885420559,-0.000071827565328,-1.570760075245992,0.000000000000000,-1.570783917103903,-0.000047985707418,0.000023968450478
119,1774921321763,-0.000121082717229,-0.192532294429950,1.001670930711325,-0.001757335936738,-2.221305072031223,2.219846836442138,-0.000035587941305,-1.570748154317037,0.000011920928955,-1.570748154317037,-0.000059906636373,0.000011984225239
120,1774921321774,-0.000119515936657,-0.192532301435283,1.001670926600484,-0.001743583762433,-2.221298906267834,2.219840599225293,-0.000035587941305,-1.570760075245992,0.000035762786865,-1.570772473012106,-0.000059906636373,0.000011984225239
121,1774921321784,-0.000118127390691,-0.192532294500481,1.001670936950217,-0.001717288994810,-2.221287045594629,2.219828821084219,-0.000035587941305,-1.570736233388082,-0.000011746083395,-1.570772473012106,-0.000059906636373,0.000011984225239
122,1774921321795,-0.000137049696500,-0.192532292697665,1.001670922269913,-0.001824046328573,-2.221298875280972,2.219840589033286,-0.000047985707418,-1.570748154317037,0.000035762786865,-1.570748154317037,-0.000083748494283,0.000011984225239
123,1774921321806,-0.000110255981894,-0.192532294192934,1.001670935066521,-0.001783888937535,-2.221256917266169,2.219798697211191,-0.000071827565328,-1.570772473012106,0.000023841857910,-1.570783917103903,-0.000083748494283,0.000023968450478
124,1774921321816,-0.000138674106200,-0.192532304796599,1.001670922406861,-0.001729741907127,-2.221268891922404,2.219810470623830,-0.000035587941305,-1.570736233388082,0.000035762786865,-1.570820633565084,-0.000083748494283,0.000000000000000
125,1774921321827,-0.000123549868737,-0.192532306652037,1.001670921777291,-0.001717043738496,-2.221311316487973,2.219852942765312,-0.000035587941305,-1.570760075245992,0.000048160552979,-1.570772473012106,-0.000035587941305,0.000000000000000
126,1774921321837,-0.000116751232863,-0.192532305626039,1.001670927431776,-0.001717464445015,-2.221334632718395,2.219876353292510,0.000000000000000,-1.570748154317037,0.000023841857910,-1.570772473012106,-0.000047985707418,0.000035952674807
127,1774921321848,-0.000124700700233,-0.192532306821736,1.001670923042813,-0.001731418256918,-2.221292980242381,2.219834604492208,-0.000047985707418,-1.570760075245992,0.000048160552979,-1.570796314870016,-0.000047985707418,0.000011984225239
128,1774921321859,-0.000109108946437,-0.192532294779490,1.001670940264423,-0.001744181471852,-2.221250966314630,2.219792757357359,-0.000083748494283,-1.570760075245992,0.000000000000000,-1.570796314870016,-0.000059906636373,0.000023968450478
129,1774921321869,-0.000135578850096,-0.192532309959911,1.001670922576928,-0.001716672766563,-2.221286829612110,2.219828415487443,-0.000035587941305,-1.570736233388082,0.000035762786865,-1.570832554494039,-0.000059906636373,0.000023968450478
130,1774921321880,-0.000102476583471,-0.192532298554629,1.001670938841826,-0.001677318835701,-2.221280986084557,2.219822748872945,-0.000047985707418,-1.570760075245992,0.000000000000000,-1.570772473012106,-0.000035587941305,0.000000000000000
131,1774921321891,-0.000132083971249,-0.192532302803637,1.001670924720514,-0.001730875517239,-2.221305126561273,2.219846784992543,-0.000023667012350,-1.570736233388082,0.000023841857910,-1.570783917103903,-0.000059906636373,0.000011984225239
132,1774921321902,-0.000080240987353,-0.192532308294082,1.001670946905019,-0.001610720760697,-2.221274634467931,2.219816424055091,-0.000059906636373,-1.570772473012106,-0.000011746083395,-1.570820633565084,0.000000000000000,0.000035952674807
133,1774921321913,-0.000105822296622,-0.192532300163212,1.001670941017537,-0.001703953075529,-2.221244795930795,2.219786547442692,-0.000083748494283,-1.570760075245992,0.000000000000000,-1.570820633565084,-0.000047985707418,0.000023968450478
134,1774921321924,-0.000125697582669,-0.192532299850003,1.001670928880547,-0.001770739236109,-2.221286781679211,2.219828499991990,-0.000047985707418,-1.570748154317037,0.000023841857910,-1.570796314870016,-0.000071827565328,0.000035952674807
135,1774921321934,-0.000113499824643,-0.192532301896174,1.001670933446600,-0.001703795645252,-2.221244775796691,2.219786442115845,-0.000047985707418,-1.570760075245992,0.000023841857910,-1.570820633565084,-0.000083748494283,0.000000000000000
136,1774921321945,-0.000125689107128,-0.192532301919378,1.001670929980464,-0.001743663022727,-2.221262701337693,2.219804373554546,-0.000059906636373,-1.570748154317037,0.000023841857910,-1.570820633565084,-0.000071827565328,0.000023968450478
137,1774921321956,-0.000125004394539,-0.192532303577781,1.001670928328929,-0.001730432378031,-2.221292985650797,2.219834665355857,-0.000059906636373,-1.570748154317037,0.000023841857910,-1.570796314870016,-0.000035587941305,0.000023968450478
138,1774921321967,-0.000144676869462,-0.192532299532893,1.001670921070094,-0.001810450462243,-2.221292758204719,2.219834420445776,-0.000059906636373,-1.570736233388082,0.000035762786865,-1.570796314870016,-0.000071827565328,0.000035952674807
139,1774921321978,-0.000154745430902,-0.192532304337809,1.001670918842577,-0.001783460977750,-2.221280645242227,2.219822227130929,-0.000083748494283,-1.570724312459127,0.000035762786865,-1.570832554494039,-0.000047985707418,0.000035952674807
140,1774921321988,-0.000101713617004,-0.192532300975603,1.001670940977431,-0.001651118475539,-2.221281106242931,2.219822868197801,-0.000023667012350,-1.570748154317037,-0.000011746083395,-1.570796314870016,-0.000047985707418,0.000011984225239
141,1774921321999,-0.000154450962917,-0.192532297631682,1.001670914859313,-0.001836919535838,-2.221340907198801,2.219882589487261,-0.000035587941305,-1.570724312459127,0.000035762786865,-1.570748154317037,-0.000059906636373,0.000035952674807
142,1774921322010,-0.000080698677861,-0.192532299116975,1.001670946567003,-0.001664510096387,-2.221287068501564,2.219828933552015,-0.000023667012350,-1.570772473012106,-0.000011746083395,-1.570783917103903,-0.000047985707418,0.000035952674807
143,1774921322020,-0.000123727186044,-0.192532309715591,1.001670924742227,-0.001690650556857,-2.221298956767128,2.219840570291042,-0.000023667012350,-1.570748154317037,0.000035762786865,-1.570808235798971,-0.000047985707418,0.000011984225239
144,1774921322031,-0.000138674106200,-0.192532304796599,1.001670922406861,-0.001756371560349,-2.221280843339009,2.219822458895463,-0.000035587941305,-1.570736233388082,0.000035762786865,-1.570820633565084,-0.000083748494283,0.000023968450478
145,1774921322042,-0.000090421725783,-0.192532285709369,1.001670943930768,-0.001784401826524,-2.221269010383388,2.219810938293002,-0.000059906636373,-1.570783917103903,0.000000000000000,-1.570736233388082,-0.000083748494283,0.000023968450478
146,1774921322053,-0.000142227005570,-0.192532303122707,1.001670922964216,-0.001756822780436,-2.221256748261538,2.219798335702826,-0.000059906636373,-1.570736233388082,0.000035762786865,-1.570832554494039,-0.000083748494283,0.000011984225239
147,1774921322064,-0.000134124847737,-0.192532303183071,1.001670927339285,-0.001717033164734,-2.221250765252104,2.219792365523157,-0.000047985707418,-1.570736233388082,0.000023841857910,-1.570832554494039,-0.000083748494283,0.000000000000000
148,1774921322075,-0.000129562128480,-0.192532303000650,1.001670922353840,-0.001770218267737,-2.221335192484248,2.219876897001915,-0.000035587941305,-1.570748154317037,0.000035762786865,-1.570760075245992,-0.000035587941305,0.000035952674807
149,1774921322085,-0.000101170813496,-0.192532295688593,1.001670939011950,-0.001757496322426,-2.221268854670322,2.219810676496272,-0.000059906636373,-1.570772473012106,0.000011920928955,-1.570783917103903,-0.000071827565328,0.000035952674807
150,1774921322096,-0.000090573622084,-0.192532298889607,1.001670944848752,-0.001716809576937,-2.221250525060997,2.219792359968589,-0.000047985707418,-1.570772473012106,0.000000000000000,-1.570820633565084,-0.000083748494283,0.000047936900955
151,1774921322107,-0.000092109320671,-0.192532301597794,1.001670943786571,-0.001624041861169,-2.221269402466774,2.219811165786174,-0.000035587941305,-1.570760075245992,-0.000011746083395,-1.570796314870016,-0.000035587941305,0.000000000000000
152,1774921322117,-0.000131878705282,-0.192532308145901,1.001670919806065,-0.001717571718367,-2.221299174579553,2.219840756939754,-0.000023667012350,-1.570748154317037,0.000048160552979,-1.570796314870016,-0.000059906636373,0.000000000000000
153,1774921322128,-0.000126414343961,-0.192532294202036,1.001670927429179,-0.001810435295093,-2.221305104390633,2.219846875056947,-0.000023667012350,-1.570748154317037,0.000023841857910,-1.570760075245992,-0.000095669423239,0.000035952674807
154,1774921322139,-0.000127476245278,-0.192532295230356,1.001670926758502,-0.001810366187122,-2.221280779054678,2.219822506206830,-0.000071827565328,-1.570760075245992,0.000035762786865,-1.570772473012106,-0.000071827565328,0.000023968450478
155,1774921322149,-0.000104682643762,-0.192532298502494,1.001670934873345,-0.001730871613069,-2.221268840292824,2.219810589239406,-0.000047985707418,-1.570772473012106,0.000023841857910,-1.570783917103903,-0.000071827565328,0.000011984225239
156,1774921322160,-0.000098936804940,-0.192532303824772,1.001670941017537,-0.001664247506767,-2.221262689235790,2.219804435293542,-0.000047985707418,-1.570760075245992,0.000000000000000,-1.570820633565084,-0.000047985707418,0.000023968450478
157,1774921322171,-0.000114925608849,-0.192532304230100,1.001670926600484,-0.001743743108891,-2.221322788491331,2.219864511495221,-0.000011746083395,-1.570760075245992,0.000035762786865,-1.570772473012106,-0.000059906636373,0.000035952674807
158,1774921322182,-0.000116095913109,-0.192532298317298,1.001670930881512,-0.001757423234978,-2.221292706322050,2.219834453833006,-0.000047985707418,-1.570760075245992,0.000023841857910,-1.570772473012106,-0.000059906636373,0.000023968450478
159,1774921322192,-0.000137543850262,-0.192532303157910,1.001670919963615,-0.001784434254351,-2.221292988944755,2.219834620370575,-0.000047985707418,-1.570748154317037,0.000048160552979,-1.570796314870016,-0.000071827565328,0.000023968450478
160,1774921322203,-0.000122410932709,-0.192532305127917,1.001670929775103,-0.001703880606476,-2.221268659012336,2.219810302844568,-0.000047985707418,-1.570748154317037,0.000023841857910,-1.570820633565084,-0.000059906636373,0.000011984225239
161,1774921322214,-0.000110107856537,-0.192532309597817,1.001670932851333,-0.001637175520112,-2.221299187767182,2.219840852803641,-0.000023667012350,-1.570748154317037,0.000011920928955,-1.570808235798971,-0.000023667012350,0.000011984225239
162,1774921322225,-0.000125998443594,-0.192532301500499,1.001670934792166,-0.001690908916712,-2.221287111430011,2.219828821852080,-0.000047985707418,-1.570724312459127,-0.000011746083395,-1.570808235798971,-0.000035587941305,0.000023968450478
163,1774921322235,-0.000141132445719,-0.192532299437026,1.001670919245209,-0.001797131306145,-2.221323008149561,2.219864686552663,-0.000023667012350,-1.570736233388082,0.000035762786865,-1.570760075245992,-0.000071827565328,0.000023968450478
164,1774921322245,-0.000123572486053,-0.192532311780616,1.001670926506688,-0.001690203734865,-2.221274908350534,2.219816505160059,-0.000035587941305,-1.570748154317037,0.000035762786865,-1.570844475422994,-0.000059906636373,0.000023968450478
165,1774921322256,-0.000079481810715,-0.192532306079227,1.001670942391480,-0.001651093520844,-2.221281053667818,2.219822846733440,-0.000023667012350,-1.570783917103903,0.000011920928955,-1.570808235798971,-0.000047985707418,0.000035952674807
166,1774921322266,-0.000112734344004,-0.192532303140460,1.001670938072268,-0.001610985265673,-2.221263589475913,2.219805252094352,-0.000035587941305,-1.570736233388082,-0.000011746083395,-1.570808235798971,-0.000035587941305,-0.000023667012350
167,1774921322277,-0.000110713613696,-0.192532299718140,1.001670937138077,-0.001677317615968,-2.221269081873823,2.219810802440338,-0.000035587941305,-1.570748154317037,0.000000000000000,-1.570796314870016,-0.000059906636373,0.000000000000000
168,1774921322288,-0.000157020851629,-0.192532297298104,1.001670915377865,-0.001797506796373,-2.221310828058623,2.219852441741447,-0.000059906636373,-1.570724312459127,0.000035762786865,-1.570760075245992,-0.000047985707418,0.000000000000000
169,1774921322298,-0.000120700947676,-0.192532302162779,1.001670931665918,-0.001744355059918,-2.221311126637377,2.219852878739001,-0.000071827565328,-1.570748154317037,0.000011920928955,-1.570783917103903,-0.000011746083395,0.000047936900955
170,1774921322310,-0.000142381705588,-0.192532301244100,1.001670921070094,-0.001783900264899,-2.221292748068912,2.219834388788061,-0.000047985707418,-1.570736233388082,0.000035762786865,-1.570796314870016,-0.000071827565328,0.000023968450478
171,1774921322320,-0.000122593851108,-0.192532307134509,1.001670930065022,-0.001743908895168,-2.221286615577183,2.219828311829938,-0.000059906636373,-1.570748154317037,0.000023841857910,-1.570832554494039,-0.000047985707418,0.000059921127104
172,1774921322330,-0.000118506726577,-0.192532307320318,1.001670929292790,-0.001717201475738,-2.221262721281958,2.219804362731892,-0.000059906636373,-1.570760075245992,0.000035762786865,-1.570832554494039,-0.000059906636373,0.000023968450478
173,1774921322340,-0.000111888018141,-0.192532297920853,1.001670936595961,-0.001704395026787,-2.221281247018789,2.219823000959600,-0.000035587941305,-1.570748154317037,0.000000000000000,-1.570783917103903,-0.000059906636373,0.000011984225239
174,1774921322351,-0.000100819495068,-0.192532298099310,1.001670940481034,-0.001677314866715,-2.221257143069714,2.219798896897964,-0.000035587941305,-1.570760075245992,0.000000000000000,-1.570796314870016,-0.000071827565328,0.000000000000000
175,1774921322362,-0.000120793591774,-0.192532309753769,1.001670930285042,-0.001676510755572,-2.221304953190645,2.219846620255283,-0.000023667012350,-1.570736233388082,0.000011920928955,-1.570820633565084,-0.000035587941305,0.000035952674807
176,1774921322372,-0.000110467462067,-0.192532304898038,1.001670931770716,-0.001730588443366,-2.221304928767462,2.219846672293921,-0.000035587941305,-1.570760075245992,0.000023841857910,-1.570796314870016,-0.000047985707418,0.000047936900955
177,1774921322382,-0.000145339595149,-0.192532302861011,1.001670922341882,-0.001770744608734,-2.221298739582964,2.219840384507509,-0.000047985707418,-1.570724312459127,0.000023841857910,-1.570808235798971,-0.000059906636373,0.000035952674807
178,1774921322392,-0.000119486972823,-0.192532300966305,1.001670933144964,-0.001664797574487,-2.221287316773004,2.219829000079551,-0.000023667012350,-1.570736233388082,0.000000000000000,-1.570783917103903,-0.000047985707418,-0.000011746083395
179,1774921322403,-0.000117466924500,-0.192532297657762,1.001670932040558,-0.001743651572083,-2.221298904580959,2.219840661728270,-0.000023667012350,-1.570748154317037,0.000011920928955,-1.570772473012106,-0.000071827565328,0.000023968450478
180,1774921322413,-0.000117224020030,-0.192532291312217,1.001670937174084,-0.001771172017195,-2.221263113337867,2.219804910890218,-0.000047985707418,-1.570748154317037,0.000000000000000,-1.570783917103903,-0.000095669423239,0.000023968450478
181,1774921322423,-0.000117911334297,-0.192532301140611,1.001670928254156,-0.001770208985159,-2.221287015051488,2.219828735067216,-0.000023667012350,-1.570760075245992,0.000035762786865,-1.570796314870016,-0.000095669423239,0.000035952674807
182,1774921322433,-0.000133190858672,-0.192532308260106,1.001670919648517,-0.001757519363055,-2.221317105761248,2.219858737738046,-0.000035587941305,-1.570748154317037,0.000048160552979,-1.570796314870016,-0.000047985707418,0.000035952674807
183,1774921322444,-0.000148191423651,-0.192532301235044,1.001670915925000,-0.001797586188276,-2.221299407791103,2.219841013920203,-0.000035587941305,-1.570736233388082,0.000048160552979,-1.570783917103903,-0.000083748494283,0.000011984225239
184,1774921322455,-0.000134667548610,-0.192532302780147,1.001670926342794,-0.001743735487954,-2.221310883973301,2.219852575726740,-0.000011746083395,-1.570724312459127,0.000011920928955,-1.570796314870016,-0.000071827565328,0.000035952674807
185,1774921322466,-0.000153534784865,-0.192532307939562,1.001670911463027,-0.001730993310121,-2.221293356481691,2.219834839164004,-0.000059906636373,-1.570736233388082,0.000060081481934,-1.570796314870016,-0.000035587941305,-0.000023667012350
186,1774921322476,-0.000109169008858,-0.192532301942417,1.001670931970797,-0.001743662583071,-2.221262679450024,2.219804391140253,-0.000047985707418,-1.570772473012106,0.000035762786865,-1.570808235798971,-0.000083748494283,0.000023968450478
187,1774921322487,-0.000129522833184,-0.192532289341125,1.001670931786024,-0.001797643890021,-2.221298873347457,2.219840674052212,-0.000047985707418,-1.570736233388082,0.000000000000000,-1.570748154317037,-0.000071827565328,0.000023968450478
188,1774921322498,-0.000128167366422,-0.192532304529951,1.001670930126224,-0.001703502917142,-2.221317091230854,2.219858796522307,-0.000023667012350,-1.570724312459127,0.000000000000000,-1.570796314870016,-0.000035587941305,0.000035952674807
189,1774921322509,-0.000136960080134,-0.192532308447074,1.001670915851180,-0.001797229591497,-2.221286830104715,2.219828416001646,-0.000047985707418,-1.570760075245992,0.000072002410889,-1.570820633565084,-0.000083748494283,0.000035952674807
190,1774921322520,-0.000100819495068,-0.192532298099310,1.001670940481034,-0.001677314866715,-2.221257143069714,2.219798896897964,-0.000035587941305,-1.570760075245992,0.000000000000000,-1.570796314870016,-0.000071827565328,0.000000000000000
191,1774921322531,-0.000100711281135,-0.192532305395020,1.001670934092937,-0.001690726354864,-2.221298929264020,2.219840665725650,-0.000047985707418,-1.570772473012106,0.000023841857910,-1.570783917103903,-0.000023667012350,0.000023968450478
192,1774921322541,-0.000104522719176,-0.192532300966848,1.001670935606652,-0.001664799271941,-2.221275380204456,2.219817088344348,-0.000023667012350,-1.570760075245992,0.000011920928955,-1.570783917103903,-0.000059906636373,-0.000011746083395
193,1774921322552,-0.000142111355997,-0.192532292722029,1.001670924461010,-0.001810280016909,-2.221280768312040,2.219822463311163,-0.000059906636373,-1.570736233388082,0.000023841857910,-1.570772473012106,-0.000083748494283,0.000011984225239
194,1774921322562,-0.000097149906198,-0.192532308426086,1.001670934597443,-0.001649883907258,-2.221292967303232,2.219834667819995,-0.000035587941305,-1.570772473012106,0.000023841857910,-1.570796314870016,-0.000023667012350,0.000011984225239
195,1774921322573,-0.000103679206204,-0.192532301363755,1.001670940292711,-0.001690718683663,-2.221263156730100,2.219804913898968,-0.000071827565328,-1.570760075245992,0.000000000000000,-1.570808235798971,-0.000035587941305,0.000023968450478
196,1774921322584,-0.000098524331214,-0.192532299287366,1.001670940481034,-0.001651029671431,-2.221257250096907,2.219798984351962,-0.000023667012350,-1.570760075245992,0.000000000000000,-1.570796314870016,-0.000071827565328,-0.000011746083395
197,1774921322594,-0.000108813439114,-0.192532305733062,1.001670929932449,-0.001730516762755,-2.221304912269706,2.219846636379088,-0.000059906636373,-1.570772473012106,0.000035762786865,-1.570783917103903,-0.000023667012350,0.000035952674807
198,1774921322605,-0.000116232533912,-0.192532295241577,1.001670938078834,-0.001704499210900,-2.221233169251532,2.219774875784682,-0.000059906636373,-1.570748154317037,0.000000000000000,-1.570808235798971,-0.000083748494283,-0.000011746083395
199,1774921322617,-0.000101993899522,-0.192532296302024,1.001670939940732,-0.001731021652415,-2.221281259944307,2.219823083680124,-0.000035587941305,-1.570760075245992,0.000000000000000,-1.570783917103903,-0.000071827565328,0.000035952674807
200,1774921322627,-0.000113416493691,-0.192532299762945,1.001670932350238,-0.001770286397891,-2.221287022118344,2.219828789556551,-0.000035587941305,-1.570760075245992,0.000023841857910,-1.570796314870016,-0.000083748494283,0.000047936900955
201,1774921322637,-0.000109315233385,-0.192532301935849,1.001670931233258,-0.001730348776135,-2.221268623430920,2.219810323552471,-0.000047985707418,-1.570772473012106,0.000035762786865,-1.570796314870016,-0.000071827565328,0.000011984225239
202,1774921322648,-0.000143293183962,-0.192532311540135,1.001670917020277,-0.001703357973556,-2.221329020233112,2.219870587145149,-0.000011746083395,-1.570724312459127,0.000035762786865,-1.570796314870016,-0.000035587941305,0.000011984225239
203,1774921322659,-0.000105958103266,-0.192532296742038,1.001670933597796,-0.001757421027140,-2.221292686375099,2.219834475784806,-0.000047985707418,-1.570772473012106,0.000023841857910,-1.570760075245992,-0.000059906636373,0.000023968450478
204,1774921322670,-0.000135362145691,-0.192532299503683,1.001670924878064,-0.001783973596112,-2.221305144490804,2.219846849252358,-0.000035587941305,-1.570736233388082,0.000023841857910,-1.570783917103903,-0.000071827565328,0.000035952674807
205,1774921322681,-0.000084150051309,-0.192532336700255,1.001670918750748,-0.001451266850551,-2.221490870546189,2.220032456963404,0.000251668738201,-1.570736233388082,0.000035762786865,-1.570760075245992,-0.000023667012350,0.000035952674807
206,1774921322692,-0.000041141320756,-0.192532349663661,1.001670919614350,-0.001185018671618,-2.221574464602261,2.220115966351464,0.000479369016830,-1.570736233388082,0.000035762786865,-1.570772473012106,-0.000047985707418,0.000011984225239
207,1774921322703,0.000080979957818,-0.192532330106854,1.001670924558832,-0.000506971439810,-2.221892236063951,2.220433642890880,0.001126142684370,-1.570724312459127,0.000011920928955,-1.570760075245992,-0.000071827565328,0.000023968450478
208,1774921322714,0.000164932201837,-0.192532270928698,1.001670921520033,-0.000094513924768,-2.222101742344781,2.220643013454343,0.001521247555502,-1.570748154317037,0.000035762786865,-1.570736233388082,-0.000071827565328,0.000023968450478
209,1774921322724,0.000263502764503,-0.192532149734698,1.001670929867848,-0.000424529869923,2.222053805679814,-2.220595236379561,0.001940695452504,-1.570760075245992,0.000023841857910,-1.570748154317037,-0.000071827565328,0.000011984225239
210,1774921322735,0.000315189781574,-0.192532092119624,1.001670925134894,-0.000850751202688,2.221874250454547,-2.220415756646572,0.002288237912580,-1.570736233388082,0.000023841857910,-1.570796314870016,-0.000047985707418,0.000023968450478
211,1774921322746,0.000523697266393,-0.192531604574920,1.001670940795674,-0.001795145276535,2.221508264827536,-2.220050411323543,0.003102790797129,-1.570796314870016,0.000023841857910,-1.570783917103903,-0.000071827565328,0.000011984225239
212,1774921322756,0.000570749930588,-0.192531483360299,1.001670934487000,-0.002193898669742,2.221316672861259,-2.219858882809449,0.003449958749115,-1.570772473012106,0.000023841857910,-1.570783917103903,-0.000047985707418,0.000000000000000
213,1774921322767,0.000647351529131,-0.192531233470297,1.001670931371793,-0.002539645526329,2.221088664970794,-2.219630889782968,0.003857422387227,-1.570783917103903,0.000035762786865,-1.570736233388082,-0.000071827565328,0.000023968450478
214,1774921322778,0.000727078627078,-0.192530968248724,1.001670925995146,-0.003164654749727,2.220794791390525,-2.219337120913047,0.004384353756905,-1.570748154317037,0.000023841857910,-1.570748154317037,-0.000023667012350,0.000023968450478
215,1774921322789,0.000779567184174,-0.192530768398056,1.001670929076348,-0.003536879214707,2.220686850426552,-2.219229488913517,0.004659616388381,-1.570736233388082,0.000011920928955,-1.570796314870016,-0.000023667012350,0.000011984225239
216,1774921322800,0.000853531642254,-0.192530443530786,1.001670933883979,-0.003855663162373,2.220542752157643,-2.219085592803432,0.005007158964872,-1.570748154317037,0.000011920928955,-1.570808235798971,-0.000083748494283,0.000035952674807
217,1774921322811,0.000917203953340,-0.192530129774563,1.001670946368168,-0.004081480107989,2.220500337545953,-2.219043630392881,0.005138985812664,-1.570783917103903,0.000000000000000,-1.570796314870016,-0.000071827565328,0.000011984225239
218,1774921322822,0.000876413264881,-0.192530350349995,1.001670922627404,-0.003987608993105,2.220422665493563,-2.218965237769241,0.005162953864783,-1.570760075245992,0.000048160552979,-1.570783917103903,-0.000059906636373,0.000047936900955
219,1774921322833,0.000894288150515,-0.192530259148169,1.001670936987128,-0.004108373971282,2.220440495531712,-2.218983499777828,0.005162953864783,-1.570748154317037,0.000000000000000,-1.570808235798971,-0.000023667012350,0.000035952674807
220,1774921322844,0.000853224450189,-0.192530472482642,1.001670915972895,-0.004001914993765,2.220428755538181,-2.218971281319272,0.005138985812664,-1.570736233388082,0.000048160552979,-1.570796314870016,-0.000035587941305,0.000023968450478
221,1774921322855,0.000887472201642,-0.192530292954701,1.001670924611883,-0.004015193455351,2.220410726119989,-2.218953340357151,0.005162953864783,-1.570772473012106,0.000048160552979,-1.570760075245992,-0.000035587941305,0.000035952674807
222,1774921322866,0.000835776340252,-0.192530553855641,1.001670911386971,-0.003948574606604,2.220441091472940,-2.218983518539006,0.005127001553774,-1.570724312459127,0.000048160552979,-1.570772473012106,-0.000059906636373,0.000000000000000
223,1774921322876,0.000887542888613,-0.192530279936819,1.001670939239767,-0.004054797100454,2.220464215262712,-2.219007240764801,0.005127001553774,-1.570748154317037,-0.000011746083395,-1.570760075245992,-0.000035587941305,0.000000000000000
224,1774921322887,0.000850711824282,-0.192530478409004,1.001670920884897,-0.004028314926077,2.220452477411259,-2.218995184769896,0.005127001553774,-1.570724312459127,0.000023841857910,-1.570783917103903,-0.000035587941305,-0.000011746083395
225,1774921322898,0.000865390383875,-0.192530397572591,1.001670929057844,-0.004014769452211,2.220470631479606,-2.219013474488197,0.005127001553774,-1.570736233388082,0.000011920928955,-1.570783917103903,-0.000059906636373,0.000000000000000
226,1774921322908,0.000916177307917,-0.192530129016157,1.001670944744695,-0.004015796813085,2.220506671862627,-2.219049862043490,0.005127001553774,-1.570796314870016,0.000011920928955,-1.570772473012106,-0.000095669423239,0.000011984225239
227,1774921322919,0.000871988746403,-0.192530378489357,1.001670926013079,-0.004109145990760,2.220452791445190,-2.218995699708507,0.005162953864783,-1.570736233388082,0.000023841857910,-1.570820633565084,-0.000035587941305,0.000000000000000
228,1774921322930,0.000877412024093,-0.192530337897384,1.001670925507487,-0.003975440195834,2.220465005953773,-2.219007733008461,0.005115017294884,-1.570772473012106,0.000048160552979,-1.570772473012106,-0.000059906636373,0.000011984225239
229,1774921322941,0.000877401505109,-0.192530340089659,1.001670919327051,-0.003935196796137,2.220399193727284,-2.218941576362908,0.005162953864783,-1.570772473012106,0.000060081481934,-1.570736233388082,-0.000059906636373,0.000047936900955
230,1774921322952,0.000869167077900,-0.192530384642119,1.001670923093241,-0.004001996619421,2.220429150004890,-2.218971771976307,0.005150969605893,-1.570748154317037,0.000035762786865,-1.570772473012106,-0.000047985707418,0.000023968450478
231,1774921322962,0.000900972987075,-0.192530209648461,1.001670943081330,-0.004001786166789,2.220488597872757,-2.219031663236563,0.005115017294884,-1.570772473012106,0.000000000000000,-1.570783917103903,-0.000071827565328,0.000035952674807
232,1774921322973,0.000869015006336,-0.192530385389100,1.001670922353840,-0.004028614692121,2.220428686220229,-2.218971348088699,0.005150969605893,-1.570748154317037,0.000035762786865,-1.570760075245992,-0.000035587941305,0.000000000000000
233,1774921322984,0.000912106502848,-0.192530159846418,1.001670941958816,-0.004082451446332,2.220440733055462,-2.218983775630039,0.005162953864783,-1.570772473012106,0.000000000000000,-1.570772473012106,-0.000035587941305,0.000035952674807
234,1774921322994,0.000904507206007,-0.192530189518047,1.001670941483188,-0.004015281014480,2.220458754861965,-2.219001740921455,0.005150969605893,-1.570772473012106,0.000000000000000,-1.570748154317037,-0.000071827565328,0.000023968450478
235,1774921323005,0.000862764756090,-0.192530410784196,1.001670926153338,-0.003949118930045,2.220464870236723,-2.219007551875843,0.005162953864783,-1.570736233388082,0.000023841857910,-1.570796314870016,-0.000119511281149,0.000035952674807
236,1774921323015,0.000903880375515,-0.192530211182469,1.001670935285887,-0.004095673438212,2.220446715480093,-2.218989707577027,0.005162953864783,-1.570772473012106,0.000023841857910,-1.570808235798971,-0.000035587941305,0.000035952674807
237,1774921323026,0.000877640481673,-0.192530332097835,1.001670931444255,-0.003974955742552,2.220440774321632,-2.218983492700755,0.005150969605893,-1.570748154317037,0.000011920928955,-1.570760075245992,-0.000071827565328,0.000035952674807
238,1774921323036,0.000897571069994,-0.192530225458428,1.001670936800325,-0.004002121166735,2.220452881898698,-2.218995770025966,0.005150969605893,-1.570772473012106,0.000011920928955,-1.570736233388082,-0.000071827565328,0.000011984225239
239,1774921323047,0.000878254768882,-0.192530341026328,1.001670928328929,-0.004042141253754,2.220434741270858,-2.218977506376611,0.005150969605893,-1.570748154317037,0.000023841857910,-1.570796314870016,-0.000035587941305,0.000035952674807
240,1774921323058,0.000890806954210,-0.192530271391186,1.001670931051249,-0.004041914341765,2.220434888339907,-2.218977705052925,0.005186922382563,-1.570760075245992,0.000023841857910,-1.570772473012106,-0.000071827565328,0.000023968450478
241,1774921323068,0.000866730986243,-0.192530402010889,1.001670925110003,-0.004054954505171,2.220404680990699,-2.218947330352096,0.005174938123673,-1.570724312459127,0.000011920928955,-1.570783917103903,-0.000023667012350,0.000035952674807
242,1774921323079,0.000863434638360,-0.192530422850836,1.001670918108842,-0.004028821380155,2.220440892033009,-2.218983538544544,0.005210890900344,-1.570736233388082,0.000048160552979,-1.570820633565084,-0.000107590352194,0.000023968450478
243,1774921323089,0.000891255932640,-0.192530274309320,1.001670925507487,-0.004028574201976,2.220417065241894,-2.218959735838882,0.005186922382563,-1.570772473012106,0.000048160552979,-1.570772473012106,-0.000059906636373,0.000035952674807
244,1774921323100,0.000903753433119,-0.192530200896962,1.001670943821690,-0.004095030627080,2.220434393189666,-2.218977452238909,0.005174938123673,-1.570748154317037,-0.000023667012350,-1.570772473012106,-0.000035587941305,0.000035952674807
245,1774921323111,0.000904327470528,-0.192530204462124,1.001670934353934,-0.004094400069934,2.220398709525489,-2.218941544690561,0.005222875159234,-1.570760075245992,0.000011920928955,-1.570760075245992,-0.000047985707418,0.000035952674807
246,1774921323122,0.000892300814905,-0.192530269125544,1.001670934812847,-0.004108266544146,2.220428655421609,-2.218971606757285,0.005234859418124,-1.570736233388082,0.000000000000000,-1.570808235798971,-0.000083748494283,0.000035952674807
247,1774921323133,0.000913235884209,-0.192530156022099,1.001670945241314,-0.004187654446253,2.220452277247565,-2.218995584331613,0.005222875159234,-1.570748154317037,-0.000023667012350,-1.570796314870016,-0.000059906636373,0.000000000000000
248,1774921323143,0.000925570192481,-0.192530100786881,1.001670935788676,-0.004174433673803,2.220386417187168,-2.218929382005621,0.005234859418124,-1.570783917103903,0.000023841857910,-1.570760075245992,-0.000011746083395,0.000023968450478
249,1774921323154,0.000905735006816,-0.192530202759046,1.001670931588759,-0.004121067842078,2.220398593338997,-2.218941442103895,0.005258827935904,-1.570760075245992,0.000023841857910,-1.570783917103903,-0.000071827565328,0.000035952674807
250,1774921323165,0.000876562512578,-0.192530358696908,1.001670920751939,-0.004121456089304,2.220375273830702,-2.218917910837776,0.005282421596348,-1.570724312459127,0.000023841857910,-1.570772473012106,-0.000071827565328,0.000011984225239
251,1774921323176,0.000894454975632,-0.192530264413446,1.001670927267442,-0.004122023701832,2.220374846319464,-2.218917557997384,0.005246843677014,-1.570748154317037,0.000023841857910,-1.570772473012106,-0.000035587941305,0.000035952674807
252,1774921323187,0.000923753764495,-0.192530101788162,1.001670941643018,-0.004161333494949,2.220416659081187,-2.218959773932150,0.005234859418124,-1.570772473012106,0.000000000000000,-1.570760075245992,-0.000047985707418,0.000011984225239
253,1774921323198,0.000875015303100,-0.192530363442775,1.001670927150780,-0.004081735503483,2.220381021967226,-2.218923671676572,0.005258827935904,-1.570712391530172,0.000000000000000,-1.570796314870016,-0.000071827565328,0.000059921127104
254,1774921323209,0.000889446635070,-0.192530288987033,1.001670928888578,-0.004187229053003,2.220416369409584,-2.218959355071992,0.005246843677014,-1.570736233388082,0.000011920928955,-1.570783917103903,-0.000047985707418,-0.000023667012350
255,1774921323220,0.000859687242752,-0.192530449955771,1.001670911724599,-0.004054489160585,2.220333463977870,-2.218875733772470,0.005282421596348,-1.570712391530172,0.000035762786865,-1.570760075245992,-0.000059906636373,0.000047936900955
256,1774921323231,0.000886247251964,-0.192530312333476,1.001670919883512,-0.004134723129525,2.220357314663723,-2.218899908337465,0.005306390114129,-1.570736233388082,0.000035762786865,-1.570772473012106,-0.000071827565328,0.000023968450478
257,1774921323242,0.000881736495674,-0.192530331435773,1.001670918015168,-0.004094203090515,2.220374734600157,-2.218917294134826,0.005258827935904,-1.570748154317037,0.000048160552979,-1.570760075245992,-0.000059906636373,0.000011984225239
258,1774921323253,0.000916400039180,-0.192530153181977,1.001670935068815,-0.004175364328555,2.220410716977329,-2.218953736626428,0.005222875159234,-1.570772473012106,0.000023841857910,-1.570808235798971,-0.000023667012350,0.000035952674807
259,1774921323264,0.000902347321771,-0.192530215510462,1.001670929867848,-0.004081364132989,2.220380811214252,-2.218923516834463,0.005258827935904,-1.570760075245992,0.000023841857910,-1.570748154317037,-0.000071827565328,0.000035952674807
260,1774921323275,0.000909897741896,-0.192530187684206,1.001670931569820,-0.004188339422366,2.220392557875089,-2.218935501089956,0.005258827935904,-1.570760075245992,0.000023841857910,-1.570796314870016,-0.000035587941305,0.000023968450478
261,1774921323286,0.000901933452033,-0.192530231976546,1.001670928712543,-0.004227416865062,2.220362602786166,-2.218905482918770,0.005306390114129,-1.570736233388082,0.000011920928955,-1.570783917103903,-0.000035587941305,0.000011984225239
262,1774921323296,0.000911590785207,-0.192530167911210,1.001670934692468,-0.004107817542745,2.220380678407032,-2.218923488142115,0.005270812194794,-1.570760075245992,0.000011920928955,-1.570760075245992,-0.000071827565328,0.000047936900955
263,1774921323307,0.000896734029085,-0.192530260170747,1.001670924206027,-0.004187599220089,2.220381095103421,-2.218923909803808,0.005282421596348,-1.570748154317037,0.000035762786865,-1.570796314870016,-0.000047985707418,0.000011984225239
264,1774921323317,0.000887343222496,-0.192530289811090,1.001670927575017,-0.004015089068058,2.220398796928042,-2.218941412046494,0.005246843677014,-1.570748154317037,0.000023841857910,-1.570760075245992,-0.000107590352194,0.000047936900955
265,1774921323327,0.000894871929328,-0.192530265439788,1.001670922627404,-0.004147224872773,2.220398451238415,-2.218941238175820,0.005258827935904,-1.570760075245992,0.000048160552979,-1.570783917103903,-0.000059906636373,0.000000000000000
266,1774921323337,0.000896824041333,-0.192530253256897,1.001670927959710,-0.004120957041965,2.220374787408825,-2.218917504237350,0.005258827935904,-1.570748154317037,0.000023841857910,-1.570783917103903,-0.000047985707418,0.000047936900955
267,1774921323348,0.000881722595972,-0.192530326250157,1.001670923690405,-0.004068125570177,2.220374925983516,-2.218917503346157,0.005258827935904,-1.570736233388082,0.000023841857910,-1.570760075245992,-0.000071827565328,0.000035952674807
268,1774921323358,0.000900657984119,-0.192530233043551,1.001670925704879,-0.004148180761264,2.220374593445435,-2.218917342392596,0.005258827935904,-1.570760075245992,0.000035762786865,-1.570760075245992,-0.000035587941305,0.000011984225239
269,1774921323368,0.000917397688520,-0.192530135403594,1.001670938860765,-0.004161006584037,2.220404445093968,-2.218947484314533,0.005270812194794,-1.570760075245992,0.000000000000000,-1.570760075245992,-0.000071827565328,0.000011984225239
270,1774921323379,0.000893593620252,-0.192530271662572,1.001670923949196,-0.004134077678291,2.220380920408553,-2.218923639252070,0.005282421596348,-1.570748154317037,0.000035762786865,-1.570783917103903,-0.000071827565328,0.000023968450478
271,1774921323389,0.000918277667992,-0.192530144179783,1.001670932522166,-0.004215255831426,2.220429106416827,-2.218972242392150,0.005282421596348,-1.570772473012106,0.000035762786865,-1.570820633565084,-0.000083748494283,0.000000000000000
272,1774921323399,0.000929460215813,-0.192530076541356,1.001670936484290,-0.004187652561805,2.220357105314785,-2.218900015833708,0.005306390114129,-1.570772473012106,0.000011920928955,-1.570736233388082,-0.000047985707418,0.000023968450478
273,1774921323409,0.000917056369084,-0.192530139386624,1.001670938498794,-0.004147522486714,2.220386595034106,-2.218929540597986,0.005258827935904,-1.570760075245992,0.000000000000000,-1.570760075245992,-0.000047985707418,0.000035952674807
274,1774921323419,0.000899528904953,-0.192530244936410,1.001670925286593,-0.004174442914833,2.220386973376771,-2.218929800365815,0.005306390114129,-1.570748154317037,0.000035762786865,-1.570808235798971,-0.000083748494283,0.000023968450478
275,1774921323430,0.000921258672340,-0.192530125363650,1.001670933796233,-0.004215561991477,2.220392750477575,-2.218935785375546,0.005270812194794,-1.570772473012106,0.000023841857910,-1.570772473012106,-0.000035587941305,0.000000000000000
276,1774921323440,0.000920598010352,-0.192530127340808,1.001670935093315,-0.004253829030647,2.220398623407649,-2.218941767018693,0.005306390114129,-1.570760075245992,0.000011920928955,-1.570772473012106,-0.000059906636373,-0.000023667012350
277,1774921323451,0.000917374391609,-0.192530133294401,1.001670937726952,-0.004147414983368,2.220386773510102,-2.218929721908985,0.005282421596348,-1.570760075245992,0.000000000000000,-1.570736233388082,-0.000071827565328,0.000011984225239
278,1774921323462,0.000884682656062,-0.192530322370602,1.001670920168130,-0.004133966739903,2.220357114317239,-2.218899701548876,0.005282421596348,-1.570736233388082,0.000035762786865,-1.570783917103903,-0.000047985707418,0.000035952674807
279,1774921323473,0.000917988928478,-0.192530143451530,1.001670929958317,-0.004188205680279,2.220381256262380,-2.218924159643893,0.005294405855238,-1.570772473012106,0.000035762786865,-1.570772473012106,-0.000059906636373,0.000011984225239
280,1774921323484,0.000917465942078,-0.192530139669563,1.001670939239767,-0.004213885595925,2.220380378946434,-2.218923431448492,0.005282421596348,-1.570748154317037,-0.000011746083395,-1.570760075245992,-0.000035587941305,0.000011984225239
281,1774921323495,0.000895060331009,-0.192530262093637,1.001670927623056,-0.004187676681195,2.220368714251968,-2.218911533899929,0.005282421596348,-1.570736233388082,0.000011920928955,-1.570760075245992,-0.000035587941305,0.000000000000000
282,1774921323506,0.000940806291175,-0.192530029866948,1.001670944870040,-0.004334082551887,2.220398381506861,-2.218941777775536,0.005306390114129,-1.570760075245992,-0.000011746083395,-1.570832554494039,-0.000023667012350,0.000023968450478
283,1774921323517,0.000900137352990,-0.192530231689185,1.001670933506936,-0.004187196499722,2.220404625121422,-2.218947633649811,0.005282421596348,-1.570736233388082,0.000000000000000,-1.570783917103903,-0.000071827565328,0.000000000000000
284,1774921323528,0.000900890529621,-0.192530231436290,1.001670932956743,-0.004201193624259,2.220386331282139,-2.218929291461331,0.005270812194794,-1.570736233388082,0.000000000000000,-1.570783917103903,-0.000035587941305,0.000011984225239
285,1774921323539,0.000905220066636,-0.192530215871699,1.001670927850172,-0.004201649149172,2.220398540122245,-2.218941479900093,0.005258827935904,-1.570760075245992,0.000035762786865,-1.570808235798971,-0.000035587941305,0.000011984225239
286,1774921323549,0.000905633969272,-0.192530207100121,1.001670932629954,-0.004174255536386,2.220351159433329,-2.218893953272491,0.005306390114129,-1.570736233388082,0.000000000000000,-1.570772473012106,-0.000047985707418,0.000047936900955
287,1774921323559,0.000880818965188,-0.192530334361247,1.001670923572738,-0.004121696188464,2.220350787483520,-2.218893377257734,0.005270812194794,-1.570724312459127,0.000011920928955,-1.570748154317037,-0.000035587941305,0.000023968450478
288,1774921323570,0.000935872341790,-0.192530040254203,1.001670942285232,-0.004160512643709,2.220416426701894,-2.218959558919897,0.005282421596348,-1.570783917103903,0.000011920928955,-1.570783917103903,-0.000095669423239,0.000035952674807
289,1774921323581,0.000915509796848,-0.192530159734156,1.001670931354714,-0.004214982316936,2.220416848961632,-2.218959924197187,0.005258827935904,-1.570772473012106,0.000035762786865,-1.570808235798971,-0.000047985707418,0.000000000000000
290,1774921323592,0.000905907960691,-0.192530197303314,1.001670936548993,-0.004173751421463,2.220386623927942,-2.218929591863462,0.005294405855238,-1.570736233388082,-0.000011746083395,-1.570760075245992,-0.000071827565328,0.000011984225239
291,1774921323602,0.000921358521412,-0.192530135409224,1.001670932569603,-0.004281412925100,2.220386769154627,-2.218929876897374,0.005306390114129,-1.570760075245992,0.000023841857910,-1.570820633565084,-0.000035587941305,0.000011984225239
292,1774921323612,0.000882942242460,-0.192530333298515,1.001670920884897,-0.004200961605449,2.220362757168087,-2.218905493409475,0.005294405855238,-1.570724312459127,0.000023841857910,-1.570783917103903,-0.000035587941305,0.000000000000000
293,1774921323623,0.000905843797546,-0.192530204312856,1.001670926294034,-0.004094264484807,2.220351068450627,-2.218893653938099,0.005306390114129,-1.570760075245992,0.000035762786865,-1.570760075245992,-0.000083748494283,0.000059921127104
294,1774921323634,0.000886003275967,-0.192530317172985,1.001670921473455,-0.004161060424070,2.220381133406936,-2.218923862413756,0.005282421596348,-1.570736233388082,0.000035762786865,-1.570808235798971,-0.000059906636373,0.000023968450478
295,1774921323644,0.000917936322551,-0.192530141059682,1.001670936788666,-0.004226997963172,2.220386559065314,-2.218929627959717,0.005318374373019,-1.570748154317037,0.000000000000000,-1.570783917103903,-0.000071827565328,0.000011984225239
296,1774921323654,0.000916765656453,-0.192530150333073,1.001670930484060,-0.004174301420664,2.220386996327071,-2.218929895630183,0.005282421596348,-1.570772473012106,0.000035762786865,-1.570783917103903,-0.000059906636373,0.000023968450478
297,1774921323664,0.000929969241302,-0.192530070408066,1.001670942900216,-0.004186886518906,2.220380519760223,-2.218923580297359,0.005306390114129,-1.570760075245992,-0.000011746083395,-1.570760075245992,-0.000071827565328,0.000035952674807
298,1774921323675,0.000925801162485,-0.192530103573897,1.001670933796233,-0.004215100845063,2.220369017423190,-2.218911972778804,0.005294405855238,-1.570772473012106,0.000023841857910,-1.570772473012106,-0.000035587941305,0.000023968450478
299,1774921323685,0.000931094764824,-0.192530068495593,1.001670944480162,-0.004240459573013,2.220416452894123,-2.218959744235811,0.005294405855238,-1.570760075245992,-0.000011746083395,-1.570796314870016,-0.000071827565328,0.000011984225239
300,1774921323695,0.000911990385263,-0.192530175613626,1.001670929818459,-0.004227181140493,2.220374490117706,-2.218917434961172,0.005282421596348,-1.570760075245992,0.000023841857910,-1.570760075245992,-0.000023667012350,-0.000011746083395
301,1774921323706,0.000938608417408,-0.192530038828953,1.001670938370229,-0.004240447312461,2.220392724165039,-2.218935862320655,0.005294405855238,-1.570783917103903,0.000023841857910,-1.570808235798971,-0.000047985707418,0.000035952674807
302,1774921323717,0.000875832246898,-0.192530362638327,1.001670911504968,-0.004041143058623,2.220327163242112,-2.218869400672094,0.005270812194794,-1.570748154317037,0.000060081481934,-1.570724312459127,-0.000047985707418,0.000035952674807
303,1774921323727,0.000888523547346,-0.192530296839302,1.001670924878064,-0.004160714000349,2.220392825258407,-2.218935641286389,0.005282421596348,-1.570736233388082,0.000023841857910,-1.570783917103903,-0.000071827565328,0.000000000000000
304,1774921323738,0.000917384677155,-0.192530141243775,1.001670936379968,-0.004148707297659,2.220434726824839,-2.218977809043155,0.005258827935904,-1.570772473012106,0.000023841857910,-1.570808235798971,-0.000095669423239,0.000023968450478
305,1774921323749,0.000912633705308,-0.192530168070919,1.001670930454946,-0.004147357513882,2.220362906912751,-2.218905679168515,0.005306390114129,-1.570760075245992,0.000023841857910,-1.570760075245992,-0.000071827565328,0.000035952674807
306,1774921323759,0.000911482394495,-0.192530183510702,1.001670932851333,-0.004267602989079,2.220392593196422,-2.218935693087913,0.005282421596348,-1.570748154317037,0.000011920928955,-1.570808235798971,-0.000023667012350,0.000000000000000
307,1774921323769,0.000926693652542,-0.192530095424671,1.001670941739086,-0.004241191118057,2.220428702443669,-2.218971997399673,0.005294405855238,-1.570760075245992,0.000000000000000,-1.570820633565084,-0.000083748494283,0.000011984225239
308,1774921323780,0.000908839083611,-0.192530188288581,1.001670932759057,-0.004187242471521,2.220392637389870,-2.218935603661427,0.005306390114129,-1.570748154317037,0.000011920928955,-1.570783917103903,-0.000083748494283,0.000011984225239
309,1774921323790,0.000890827172979,-0.192530288114001,1.001670926034003,-0.004161080785822,2.220393005694628,-2.218935830463281,0.005282421596348,-1.570736233388082,0.000023841857910,-1.570808235798971,-0.000071827565328,0.000023968450478
310,1774921323801,0.000908740233038,-0.192530198142018,1.001670928051068,-0.004187438684226,2.220381017980487,-2.218923878507881,0.005282421596348,-1.570760075245992,0.000035762786865,-1.570808235798971,-0.000047985707418,0.000035952674807
311,1774921323811,0.000909661120988,-0.192530181573496,1.001670935901171,-0.004187975545922,2.220392758574596,-2.218935760413886,0.005270812194794,-1.570748154317037,0.000000000000000,-1.570772473012106,-0.000047985707418,0.000011984225239
312,1774921323822,0.000918971934142,-0.192530139912069,1.001670929788113,-0.004174794357186,2.220363373681269,-2.218906187515698,0.005294405855238,-1.570772473012106,0.000035762786865,-1.570772473012106,-0.000047985707418,0.000035952674807
313,1774921323832,0.000876300697722,-0.192530370476419,1.001670918477120,-0.004201271409323,2.220399138933547,-2.218941963019667,0.005282421596348,-1.570724312459127,0.000035762786865,-1.570820633565084,-0.000059906636373,-0.000011746083395
314,1774921323843,0.000932780933937,-0.192530070881938,1.001670940064389,-0.004307351881276,2.220386432270948,-2.218929682266594,0.005306390114129,-1.570760075245992,0.000000000000000,-1.570808235798971,-0.000023667012350,0.000011984225239
315,1774921323853,0.000924666949581,-0.192530115972566,1.001670931354714,-0.004267740627351,2.220393013583984,-2.218936112202663,0.005306390114129,-1.570772473012106,0.000035762786865,-1.570808235798971,-0.000047985707418,0.000000000000000
316,1774921323863,0.000912447558056,-0.192530186259591,1.001670928945468,-0.004281300407506,2.220362964030862,-2.218905938233917,0.005306390114129,-1.570748154317037,0.000023841857910,-1.570820633565084,-0.000011746083395,0.000023968450478
317,1774921323874,0.000878698040934,-0.192530352563865,1.001670922341882,-0.004134871019659,2.220380989341978,-2.218923676745824,0.005270812194794,-1.570724312459127,0.000023841857910,-1.570808235798971,-0.000059906636373,0.000035952674807
318,1774921323884,0.000887285291254,-0.192530308810809,1.001670919062029,-0.004120554982579,2.220362701262795,-2.218905272248057,0.005270812194794,-1.570748154317037,0.000048160552979,-1.570783917103903,-0.000047985707418,0.000035952674807
319,1774921323895,0.000900478673532,-0.192530227908159,1.001670933868916,-0.004147416258037,2.220398653689847,-2.218941577554734,0.005294405855238,-1.570736233388082,0.000000000000000,-1.570783917103903,-0.000095669423239,0.000023968450478
320,1774921323907,0.000893815510317,-0.192530277389147,1.001670925482386,-0.004227903996114,2.220386759831259,-2.218929675800646,0.005282421596348,-1.570736233388082,0.000023841857910,-1.570808235798971,-0.000035587941305,0.000000000000000
321,1774921323917,0.000894312610204,-0.192530271010906,1.001670925474367,-0.004161117334449,2.220369113114743,-2.218911855104723,0.005306390114129,-1.570736233388082,0.000023841857910,-1.570796314870016,-0.000071827565328,0.000035952674807
322,1774921323928,0.000890841072765,-0.192530293299207,1.001670920367983,-0.004187158514333,2.220392813854489,-2.218935620618089,0.005282421596348,-1.570748154317037,0.000048160552979,-1.570808235798971,-0.000059906636373,0.000000000000000
323,1774921323939,0.000908678115243,-0.192530185089776,1.001670936082624,-0.004148122660662,2.220386820232999,-2.218929732340824,0.005270812194794,-1.570748154317037,0.000000000000000,-1.570772473012106,-0.000059906636373,0.000035952674807
324,1774921323949,0.000923604439314,-0.192530111729641,1.001670933428061,-0.004160955531498,2.220357154422101,-2.218899969470127,0.005294405855238,-1.570772473012106,0.000023841857910,-1.570760075245992,-0.000047985707418,0.000047936900955
325,1774921323960,0.000900112563319,-0.192530243524640,1.001670922941094,-0.004188150226719,2.220345064105103,-2.218887748835413,0.005306390114129,-1.570748154317037,0.000035762786865,-1.570772473012106,-0.000035587941305,0.000023968450478
326,1774921323971,0.000901415410204,-0.192530229809150,1.001670926845848,-0.004160584533960,2.220357016416735,-2.218899741843443,0.005294405855238,-1.570748154317037,0.000023841857910,-1.570760075245992,-0.000047985707418,0.000023968450478
327,1774921323981,0.000906322519153,-0.192530206627253,1.001670928298244,-0.004213831551044,2.220380714901079,-2.218923635440299,0.005318374373019,-1.570748154317037,0.000023841857910,-1.570783917103903,-0.000071827565328,0.000000000000000
328,1774921323991,0.000916510943679,-0.192530149087765,1.001670935901171,-0.004227440220657,2.220374930021014,-2.218917947918610,0.005306390114129,-1.570748154317037,0.000000000000000,-1.570772473012106,-0.000047985707418,0.000011984225239
329,1774921324002,0.000921660521017,-0.192530131634642,1.001670933012438,-0.004281052833820,2.220398901678644,-2.218942060550263,0.005318374373019,-1.570760075245992,0.000023841857910,-1.570820633565084,-0.000059906636373,0.000000000000000
330,1774921324012,0.000929969241302,-0.192530070408066,1.001670942900216,-0.004239886665390,2.220404221611775,-2.218947461004102,0.005306390114129,-1.570760075245992,-0.000011746083395,-1.570760075245992,-0.000071827565328,-0.000011746083395
331,1774921324023,0.000898945114947,-0.192530242773050,1.001670929227112,-0.004187226335507,2.220380759299418,-2.218923637449127,0.005306390114129,-1.570736233388082,0.000011920928955,-1.570783917103903,-0.000071827565328,0.000011984225239
332,1774921324033,0.000886397182141,-0.192530309728832,1.001670919367606,-0.004107716522761,2.220345163048981,-2.218887664837742,0.005318374373019,-1.570736233388082,0.000035762786865,-1.570760075245992,-0.000083748494283,0.000035952674807
333,1774921324044,0.000900755885162,-0.192530236314399,1.001670923532143,-0.004161326048599,2.220357182968800,-2.218899874003663,0.005330358631909,-1.570748154317037,0.000035762786865,-1.570772473012106,-0.000083748494283,0.000023968450478
334,1774921324055,0.000881898370699,-0.192530345866283,1.001670918306916,-0.004174763557323,2.220351498834307,-2.218894109658630,0.005306390114129,-1.570724312459127,0.000035762786865,-1.570820633565084,-0.000047985707418,0.000047936900955
335,1774921324065,0.000942982018263,-0.192530008014848,1.001670944126034,-0.004241276029120,2.220440552043731,-2.218983934965573,0.005306390114129,-1.570783917103903,0.000011920928955,-1.570820633565084,-0.000107590352194,0.000011984225239
336,1774921324075,0.000907003524335,-0.192530206678437,1.001670927783676,-0.004200780547420,2.220350699137275,-2.218893480484764,0.005306390114129,-1.570748154317037,0.000023841857910,-1.570783917103903,-0.000035587941305,0.000035952674807
337,1774921324086,0.000899872295608,-0.192530246615697,1.001670923312708,-0.004240465992623,2.220368532758401,-2.218911394509473,0.005294405855238,-1.570748154317037,0.000035762786865,-1.570783917103903,-0.000023667012350,-0.000011746083395
338,1774921324096,0.000918946044320,-0.192530129185195,1.001670939059968,-0.004186951685148,2.220368669990605,-2.218911638998946,0.005306390114129,-1.570748154317037,-0.000011746083395,-1.570748154317037,-0.000059906636373,0.000023968450478
339,1774921324107,0.000950222222682,-0.192529973539702,1.001670946343506,-0.004280246682205,2.220410478495243,-2.218953853934851,0.005294405855238,-1.570783917103903,0.000000000000000,-1.570808235798971,-0.000047985707418,0.000023968450478
340,1774921324118,0.000876256810755,-0.192530371365254,1.001670910175840,-0.004133891901159,2.220309163813991,-2.218851485713146,0.005354327149689,-1.570724312459127,0.000048160552979,-1.570748154317037,-0.000071827565328,0.000023968450478
341,1774921324128,0.000908360776448,-0.192530210066200,1.001670921228115,-0.004268026292720,2.220320906215520,-2.218863640486139,0.005414622835815,-1.570736233388082,0.000035762786865,-1.570796314870016,-0.000083748494283,0.000023968450478
342,1774921324139,0.000990347034121,-0.192529758315376,1.001670950396779,-0.004427352250328,2.220320044977102,-2.218863481371148,0.005438591353595,-1.570796314870016,-0.000011746083395,-1.570748154317037,-0.000035587941305,0.000011984225239
343,1774921324150,0.000972491996649,-0.192529867966934,1.001670932532529,-0.004413568670550,2.220254527500067,-2.218797474170545,0.005534464959055,-1.570783917103903,0.000035762786865,-1.570760075245992,-0.000071827565328,0.000035952674807
344,1774921324160,0.000984983382379,-0.192529816940156,1.001670924688831,-0.004586021769933,2.220129026263466,-2.218671753156209,0.005713853985071,-1.570760075245992,0.000035762786865,-1.570736233388082,-0.000047985707418,0.000035952674807
345,1774921324171,0.001009541234537,-0.192529684319431,1.001670930454946,-0.004732252820858,2.220122564372879,-2.218665640133796,0.005809727590531,-1.570760075245992,0.000023841857910,-1.570760075245992,-0.000071827565328,0.000011984225239
346,1774921324182,0.001037176463413,-0.192529541719450,1.001670932689775,-0.004918622530104,2.220086413028922,-2.218629768252986,0.005929569713771,-1.570760075245992,0.000023841857910,-1.570808235798971,-0.000071827565328,0.000011984225239
347,1774921324192,0.001080858871731,-0.192529307606344,1.001670927774716,-0.005263101170217,2.219894390274986,-2.218437677385164,0.006252769380808,-1.570736233388082,0.000011920928955,-1.570760075245992,-0.000047985707418,-0.000011746083395
348,1774921324202,0.001109685015932,-0.192529151194328,1.001670924562966,-0.005423082343541,2.219798308690106,-2.218341504945688,0.006420923396945,-1.570736233388082,0.000023841857910,-1.570783917103903,-0.000047985707418,0.000023968450478
349,1774921324213,0.001173506001609,-0.192528749304040,1.001670939239767,-0.005675282196732,2.219707773501895,-2.218251362615186,0.006612296216190,-1.570748154317037,-0.000011746083395,-1.570760075245992,-0.000035587941305,0.000023968450478
350,1774921324223,0.001200862018308,-0.192528585172504,1.001670931759362,-0.005834819268761,2.219612024294105,-2.218155478777948,0.006839996669441,-1.570748154317037,0.000011920928955,-1.570760075245992,-0.000095669423239,0.000023968450478
351,1774921324234,0.001327129056966,-0.192527755449656,1.001670933796233,-0.006539543692304,2.219329786612395,-2.217873729465351,0.007378912065178,-1.570772473012106,0.000023841857910,-1.570772473012106,-0.000035587941305,0.000011984225239
352,1774921324245,0.001330899587806,-0.192527759437338,1.001670915599216,-0.006777281453924,2.219173609027731,-2.217717141956409,0.007678517606109,-1.570724312459127,0.000035762786865,-1.570760075245992,-0.000071827565328,-0.000011746083395
353,1774921324256,0.001503926597652,-0.192526481988531,1.001670920754058,-0.007719468555672,2.218759199124869,-2.217303203203346,0.008492696098983,-1.570736233388082,0.000035762786865,-1.570796314870016,-0.000047985707418,0.000023968450478
354,1774921324267,0.001617934124843,-0.192525532179238,1.001670937342969,-0.008290085987221,2.218583640955955,-2.217128680088416,0.008948097005486,-1.570748154317037,0.000000000000000,-1.570796314870016,-0.000071827565328,-0.000011746083395
355,1774921324277,0.001688454047584,-0.192524945353489,1.001670924562966,-0.008740391383261,2.218283864466269,-2.216828197803026,0.009427091106772,-1.570736233388082,0.000023841857910,-1.570783917103903,-0.000047985707418,0.000035952674807
356,1774921324288,0.001970528521994,-0.192522233106467,1.001670946329724,-0.010186604956296,2.217722809287386,-2.216268830325114,0.010625138878822,-1.570772473012106,-0.000011746083395,-1.570783917103903,-0.000035587941305,0.000011984225239
357,1774921324298,0.002076896316012,-0.192521139366256,1.001670927528329,-0.010915206473124,2.217332568007852,-2.215878088865217,0.011355802416801,-1.570760075245992,0.000035762786865,-1.570796314870016,-0.000047985707418,0.000023968450478
358,1774921324309,0.002213167941145,-0.192519624857940,1.001670929969245,-0.011789727297185,2.216970697974904,-2.215516974899821,0.012110434472561,-1.570736233388082,0.000011920928955,-1.570808235798971,-0.000047985707418,0.000000000000000
359,1774921324319,0.002339594514997,-0.192518146535181,1.001670916706607,-0.012543993529240,2.216531877495491,-2.215077210268261,0.012901018373668,-1.570724312459127,0.000035762786865,-1.570783917103903,-0.000059906636373,0.000035952674807
360,1774921324330,0.002753610119545,-0.192512634568624,1.001670938370229,-0.014688937013791,2.215661884914897,-2.214209701333531,0.014721871353686,-1.570783917103903,0.000023841857910,-1.570808235798971,-0.000047985707418,0.000023968450478
361,1774921324340,0.002864697801530,-0.192511072075681,1.001670904875964,-0.015693646382242,2.215120256145258,-2.213666872194428,0.015739781782031,-1.570712391530172,0.000060081481934,-1.570808235798971,-0.000071827565328,0.000000000000000
362,1774921324351,0.003140553177534,-0.192506718086976,1.001670936720103,-0.017016337894056,2.214575609560160,-2.213124044463268,0.016841581091285,-1.570748154317037,0.000000000000000,-1.570796314870016,-0.000035587941305,0.000023968450478
363,1774921324362,0.003596012676047,-0.192498760432162,1.001670922493314,-0.019670704422923,2.213301470378284,-2.211849741901042,0.019321192055941,-1.570748154317037,0.000035762786865,-1.570760075245992,-0.000047985707418,0.000011984225239
364,1774921324373,0.003866973380790,-0.192493505293785,1.001670925962111,-0.021189303824664,2.212617565113351,-2.211166672654958,0.020650692284107,-1.570760075245992,0.000035762786865,-1.570772473012106,-0.000011746083395,0.000023968450478
365,1774921324383,0.004139489587708,-0.192487833418993,1.001670925856539,-0.022705177780920,2.211897502212367,-2.210446655501699,0.022088050842285,-1.570760075245992,0.000035762786865,-1.570760075245992,-0.000047985707418,0.000035952674807
366,1774921324394,0.004702942885142,-0.192474883010411,1.001670936595961,-0.025934161539134,2.210471281068361,-2.209023189683640,0.024974750354886,-1.570748154317037,0.000000000000000,-1.570783917103903,-0.000059906636373,0.000023968450478
367,1774921324404,0.004979378952577,-0.192467933653747,1.001670926439870,-0.027447604346641,2.209690661506225,-2.208240861990820,0.026472030207515,-1.570760075245992,0.000035762786865,-1.570760075245992,-0.000095669423239,0.000059921127104
368,1774921324414,0.005294512174634,-0.192459504503225,1.001670949459410,-0.029264645868819,2.208994005036819,-2.207549147452356,0.027957325801253,-1.570748154317037,-0.000035587941305,-1.570796314870016,-0.000071827565328,0.000011984225239
369,1774921324425,0.005875742135511,-0.192442657059538,1.001670933229518,-0.032655747637743,2.207413592164630,-2.205969779959684,0.031059367582202,-1.570760075245992,0.000023841857910,-1.570820633565084,-0.000071827565328,0.000000000000000
370,1774921324436,0.006186925254790,-0.192432889772190,1.001670939768774,-0.034309697054383,2.206622630993476,-2.205178881590778,0.032604582607746,-1.570772473012106,0.000011920928955,-1.570796314870016,-0.000083748494283,0.000023968450478
371,1774921324447,0.006455313001716,-0.192424104710647,1.001670918368259,-0.036026553459270,2.205753547741158,-2.204307738575030,0.034197360277176,-1.570748154317037,0.000048160552979,-1.570772473012106,-0.000035587941305,0.000011984225239
372,1774921324458,0.007091936923784,-0.192401675853025,1.001670924909372,-0.039564642711629,2.204153111423276,-2.202710537377970,0.037407260388136,-1.570772473012106,0.000048160552979,-1.570760075245992,-0.000059906636373,-0.000023667012350
373,1774921324468,0.007395435022024,-0.192390245473991,1.001670932210297,-0.041253606149583,2.203329913698952,-2.201886697213717,0.039012398570776,-1.570748154317037,0.000011920928955,-1.570772473012106,-0.000083748494283,0.000035952674807
374,1774921324479,0.007713069470448,-0.192377777767331,1.001670926215939,-0.043071654541003,2.202515120525373,-2.201074025465962,0.040629144757986,-1.570772473012106,0.000048160552979,-1.570783917103903,-0.000071827565328,0.000000000000000
375,1774921324491,0.008360618193385,-0.192350698456379,1.001670950475512,-0.046640283682474,2.200913574765262,-2.199477544917486,0.043803468346596,-1.570772473012106,-0.000023667012350,-1.570783917103903,-0.000047985707418,0.000000000000000
376,1774921324502,0.008614721102016,-0.192339513770947,1.001670926129252,-0.048230603664105,2.200048872426016,-2.198607665297153,0.045372277498245,-1.570748154317037,0.000023841857910,-1.570748154317037,-0.000035587941305,0.000011984225239
377,1774921324513,0.009281565558552,-0.192308475600538,1.001670943322444,-0.051910320546102,2.198423459921269,-2.196989347626906,0.048618130385876,-1.570772473012106,0.000000000000000,-1.570820633565084,-0.000011746083395,0.000023968450478
378,1774921324523,0.009559503164977,-0.192294858055436,1.001670932878399,-0.053483433784000,2.197609927887155,-2.196172673849078,0.050174955278635,-1.570772473012106,0.000023841857910,-1.570748154317037,-0.000047985707418,0.000000000000000
379,1774921324533,0.009827476339194,-0.192281389014894,1.001670917571213,-0.055253993747055,2.196773272820089,-2.195336529291377,0.051792077720165,-1.570724312459127,0.000035762786865,-1.570808235798971,-0.000035587941305,0.000000000000000
380,1774921324543,0.010152769746545,-0.192264460800793,1.001670932956743,-0.056956994398793,2.195978282709111,-2.194543062102510,0.053348902612925,-1.570736233388082,0.000000000000000,-1.570783917103903,-0.000035587941305,0.000011984225239
381,1774921324554,0.010743529665777,-0.192232368073282,1.001670917766446,-0.060293516881277,2.194324728108336,-2.192886462949179,0.056498881429434,-1.570748154317037,0.000048160552979,-1.570760075245992,-0.000035587941305,0.000023968450478
382,1774921324565,0.011058452717519,-0.192214500712821,1.001670923385840,-0.062019735798177,2.193516538654201,-2.192079729539037,0.058115255087614,-1.570748154317037,0.000035762786865,-1.570772473012106,-0.000071827565328,0.000035952674807
383,1774921324576,0.011707524472591,-0.192176040145609,1.001670932878399,-0.065571563437539,2.191847182528213,-2.190413336028344,0.061348747462034,-1.570772473012106,0.000023841857910,-1.570748154317037,-0.000047985707418,0.000023968450478
384,1774921324586,0.012007456324974,-0.192157524887926,1.001670937139854,-0.067268025697856,2.191048090836138,-2.189615729929715,0.062929913401604,-1.570760075245992,0.000000000000000,-1.570724312459127,-0.000071827565328,0.000000000000000
385,1774921324597,0.012302977230282,-0.192138850074863,1.001670926758502,-0.068975473955739,2.190208184980443,-2.188774763731918,0.064534679055214,-1.570760075245992,0.000035762786865,-1.570772473012106,-0.000071827565328,0.000035952674807
386,1774921324607,0.012915371225134,-0.192098658193820,1.001670925349471,-0.072413726866177,2.188571186749642,-2.187139903895718,0.067684657871723,-1.570772473012106,0.000048160552979,-1.570772473012106,-0.000047985707418,0.000023968450478
387,1774921324617,0.013202815343781,-0.192079117581649,1.001670928066377,-0.074130896200546,2.187768658225064,-2.186339781979076,0.069277435541153,-1.570736233388082,0.000011920928955,-1.570760075245992,-0.000071827565328,-0.000011746083395
388,1774921324628,0.013498303119815,-0.192058594612668,1.001670914769194,-0.075765694453541,2.186888038005395,-2.185452498386854,0.070917777717113,-1.570736233388082,0.000048160552979,-1.570760075245992,-0.000095669423239,0.000047936900955
389,1774921324639,0.013822057343439,-0.192035552802919,1.001670928788972,-0.077625357840566,2.186073698246693,-2.184645371591400,0.072522915899754,-1.570724312459127,0.000000000000000,-1.570760075245992,-0.000059906636373,0.000000000000000
390,1774921324649,0.014457571097034,-0.191988750112385,1.001670926991677,-0.081127312380227,2.184381368516211,-2.182954438759413,0.075780004262924,-1.570748154317037,0.000023841857910,-1.570760075245992,-0.000059906636373,0.000000000000000
391,1774921324659,0.014783164634510,-0.191963949394674,1.001670929976001,-0.082889662403266,2.183515930727704,-2.182088758987777,0.077409103512764,-1.570760075245992,0.000023841857910,-1.570760075245992,-0.000035587941305,0.000023968450478
392,1774921324670,0.015095823695407,-0.191939619399737,1.001670925856539,-0.084688863214925,2.182666270926456,-2.181241753677606,0.079073414206505,-1.570760075245992,0.000035762786865,-1.570760075245992,-0.000047985707418,-0.000011746083395
393,1774921324680,0.015693853357742,-0.191891644876930,1.001670932799688,-0.088066597721666,2.181047408247043,-2.179626492388662,0.082211032509804,-1.570736233388082,0.000000000000000,-1.570772473012106,-0.000059906636373,-0.000011746083395
394,1774921324691,0.016014131731325,-0.191865180796378,1.001670938297359,-0.089836993198662,2.180207641929418,-2.178789675198079,0.083827786147594,-1.570736233388082,-0.000011746083395,-1.570808235798971,-0.000047985707418,0.000011984225239
395,1774921324701,0.016337685057783,-0.191837893570884,1.001670939114874,-0.091566611827271,2.179351396616773,-2.177933147496625,0.085432544350624,-1.570760075245992,0.000000000000000,-1.570783917103903,-0.000023667012350,0.000011984225239
396,1774921324712,0.016901695023691,-0.191789058194029,1.001670916128655,-0.094905572745027,2.177660335712905,-2.176237772072919,0.088654056191444,-1.570724312459127,0.000035762786865,-1.570772473012106,-0.000059906636373,-0.000011746083395
397,1774921324723,0.017270220811648,-0.191756187855888,1.001670943558421,-0.096750087557746,2.176836683680795,-2.175423156287340,0.090258814394474,-1.570760075245992,-0.000011746083395,-1.570796314870016,-0.000023667012350,0.000011984225239
398,1774921324734,0.017540429961420,-0.191731673203132,1.001670933144964,-0.098370652653916,2.176017260611645,-2.174602025473295,0.091827251017094,-1.570736233388082,0.000000000000000,-1.570783917103903,-0.000047985707418,-0.000011746083395
399,1774921324745,0.018122429123488,-0.191677557183859,1.001670913907289,-0.101620936985888,2.174313135671153,-2.172888333581740,0.095012813806534,-1.570736233388082,0.000048160552979,-1.570748154317037,-0.000071827565328,0.000011984225239
400,1774921324755,0.018454427799740,-0.191645862102868,1.001670933558912,-0.103398554835836,2.173529909485218,-2.172115842229752,0.096545666456223,-1.570748154317037,0.000011920928955,-1.570820633565084,-0.000035587941305,0.000035952674807
401,1774921324766,0.018779371855919,-0.191614271028016,1.001670940420034,-0.105068210764637,2.172728194167056,-2.171317489911643,0.098174020648003,-1.570772473012106,0.000011920928955,-1.570796314870016,-0.000119511281149,0.000011984225239
402,1774921324778,0.019393444652037,-0.191553097075346,1.001670937751605,-0.108502651368637,2.171004059634695,-2.169592327826086,0.101371563971043,-1.570772473012106,0.000011920928955,-1.570760075245992,-0.000059906636373,0.000000000000000
403,1774921324788,0.019670755656204,-0.191524837012112,1.001670925704879,-0.110127193277451,2.170151241058442,-2.168734817398461,0.102928020060062,-1.570760075245992,0.000035762786865,-1.570760075245992,-0.000035587941305,0.000011984225239
404,1774921324798,0.019946907769355,-0.191496279534092,1.001670915544238,-0.111646513861703,2.169303443957606,-2.167876889786379,0.104496829211712,-1.570748154317037,0.000048160552979,-1.570712391530172,-0.000071827565328,0.000035952674807
405,1774921324810,0.020563188351630,-0.191431083251992,1.001670923556292,-0.115100769981229,2.167641139498996,-2.166222582140295,0.107682012021542,-1.570736233388082,0.000023841857910,-1.570760075245992,-0.000059906636373,0.000035952674807
406,1774921324820,0.020895936672824,-0.191395029914510,1.001670930770053,-0.116878828585660,2.166822575423339,-2.165413066424150,0.109322726726532,-1.570760075245992,0.000023841857910,-1.570760075245992,-0.000095669423239,-0.000011746083395
407,1774921324830,0.021214662957475,-0.191359970910714,1.001670939105849,-0.118707615204001,2.165989742652592,-2.164591054191331,0.110927484929562,-1.570748154317037,0.000000000000000,-1.570844475422994,-0.000059906636373,0.000000000000000
408,1774921324841,0.021806714394578,-0.191293417494381,1.001670921777291,-0.121951480163329,2.164236650037329,-2.162823478144098,0.114112295210361,-1.570760075245992,0.000048160552979,-1.570772473012106,-0.000035587941305,0.000023968450478
409,1774921324852,0.022143511162080,-0.191254709804546,1.001670937645611,-0.123800511686619,2.163388812618556,-2.161986862629870,0.115800574421883,-1.570748154317037,0.000000000000000,-1.570808235798971,-0.000059906636373,0.000011984225239
410,1774921324862,0.022445816841517,-0.191219466622425,1.001670937645611,-0.125467467731846,2.162550235058918,-2.161149079068625,0.117381364107132,-1.570748154317037,0.000000000000000,-1.570808235798971,-0.000059906636373,0.000011984225239
411,1774921324873,0.023048606046933,-0.191147748525372,1.001670932215573,-0.128793238487891,2.160804168093129,-2.159395330277249,0.120614483952522,-1.570736233388082,0.000000000000000,-1.570760075245992,-0.000059906636373,0.000023968450478
