YU-l2025/UR5-MoveDataCollecting/upload/数据集/3.31test4.csv
global_index,timestamp_ms,tcp_x,tcp_y,tcp_z,tcp_rx,tcp_ry,tcp_rz,joint_q1,joint_q2,joint_q3,joint_q4,joint_q5,joint_q6
0,1774923134493,-0.000074584750506,-0.192532289904303,1.001670948176728,-0.001184761604896,-2.221095782668540,2.219637090060079,0.000012358732420,-1.570772473012106,-0.000023667012350,-1.570724312459127,-0.000059906636373,-0.000419441853658
1,1774923134503,-0.000093345523598,-0.192532295799145,1.001670933971658,-0.001251048471829,-2.221113962868864,2.219655163293935,-0.000023667012350,-1.570783917103903,0.000023841857910,-1.570712391530172,-0.000035587941305,-0.000419441853658
2,1774923134513,-0.000071100433186,-0.192532290787286,1.001670940972601,-0.001237445203354,-2.221119553411982,2.219660860618831,0.000024342956749,-1.570796314870016,0.000011920928955,-1.570700470601217,-0.000071827565328,-0.000407520924703
3,1774923134524,-0.000090338058268,-0.192532287130639,1.001670939298455,-0.001263970663988,-2.221107620885480,2.219648890470807,0.000012358732420,-1.570772473012106,0.000000000000000,-1.570700470601217,-0.000083748494283,-0.000419441853658
4,1774923134535,-0.000073674992704,-0.192532292364032,1.001670941401142,-0.001224766399557,-2.221101446371436,2.219642715163435,0.000000000000000,-1.570796314870016,0.000011920928955,-1.570712391530172,-0.000059906636373,-0.000419441853658
5,1774923134545,-0.000085545139514,-0.192532298557026,1.001670932918965,-0.001237287962992,-2.221119686910036,2.219660883024167,-0.000011746083395,-1.570796314870016,0.000035762786865,-1.570712391530172,-0.000035587941305,-0.000419441853658
6,1774923134556,-0.000124097008180,-0.192532292188218,1.001670916920792,-0.001370875630068,-2.221131537548623,2.219672645248906,0.000000000000000,-1.570772473012106,0.000060081481934,-1.570688549672262,-0.000095669423239,-0.000419441853658
7,1774923134566,-0.000075416391187,-0.192532289255478,1.001670932996349,-0.001317924443897,-2.221167672391924,2.219709027201183,0.000024342956749,-1.570808235798971,0.000035762786865,-1.570652310048239,-0.000059906636373,-0.000383202229635
8,1774923134577,-0.000138451392880,-0.192532287289169,1.001670918412598,-0.001357658106031,-2.221149873487357,2.219691017362891,0.000012358732420,-1.570736233388082,0.000023841857910,-1.570664230977194,-0.000083748494283,-0.000431362782614
9,1774923134587,-0.000075111270890,-0.192532300993071,1.001670938834623,-0.001225333713813,-2.221113602636940,2.219654845992304,0.000000000000000,-1.570796314870016,0.000023841857910,-1.570748154317037,-0.000047985707418,-0.000383202229635
10,1774923134597,-0.000077904753413,-0.192532292469298,1.001670943749779,-0.001332301890367,-2.221137802157847,2.219679211760704,0.000000000000000,-1.570783917103903,0.000000000000000,-1.570736233388082,-0.000071827565328,-0.000311199818746
11,1774923134608,-0.000089479062737,-0.192532293401998,1.001670941483188,-0.001571009580851,-2.221233252938557,2.219774926469138,-0.000011746083395,-1.570772473012106,0.000000000000000,-1.570748154317037,-0.000071827565328,-0.000107590352194
12,1774923134619,-0.000114288610684,-0.192532313515960,1.001670924375761,-0.001650506660227,-2.221328958531148,2.219870580763309,0.000036327182897,-1.570748154317037,0.000035762786865,-1.570796314870016,-0.000059906636373,0.000011984225239
13,1774923134629,-0.000086747929024,-0.192532292224910,1.001670941376477,-0.002117029164055,-2.221526393688454,2.220068845529973,0.000048311409046,-1.570760075245992,-0.000011746083395,-1.570724312459127,-0.000083748494283,0.000407463667216
14,1774923134640,-0.000104255685731,-0.192532287659493,1.001670929533957,-0.002396005517165,-2.221615739905213,2.220158409510748,0.000012358732420,-1.570772473012106,0.000023841857910,-1.570676151906149,-0.000083748494283,0.000551274337340
15,1774923134650,-0.000073861050804,-0.192532300232563,1.001670938298423,-0.002276431765210,-2.221597712053890,2.220140339970715,0.000012358732420,-1.570796314870016,0.000023841857910,-1.570736233388082,-0.000047985707418,0.000563258596230
16,1774923134661,-0.000115927117802,-0.192532296562343,1.001670922267395,-0.002476031852714,-2.221687473762076,2.220230168338139,0.000024342956749,-1.570760075245992,0.000035762786865,-1.570688549672262,-0.000059906636373,0.000647148175631
17,1774923134671,-0.000077058920838,-0.192532299644035,1.001670939354474,-0.002210378724415,-2.221580051283338,2.220122607495037,0.000024342956749,-1.570783917103903,0.000011920928955,-1.570736233388082,-0.000047985707418,0.000515321677085
18,1774923134681,-0.000096802568017,-0.192532297274611,1.001670929824768,-0.002422022309799,-2.221687483811444,2.220230210344903,0.000024342956749,-1.570772473012106,0.000023841857910,-1.570688549672262,-0.000035587941305,0.000647148175631
19,1774923134692,-0.000098564340928,-0.192532296096490,1.001670932754177,-0.002276017913218,-2.221561856798576,2.220104386032363,0.000012358732420,-1.570772473012106,0.000023841857910,-1.570736233388082,-0.000083748494283,0.000503337476403
20,1774923134703,-0.000049294182713,-0.192532302061011,1.001670950164360,-0.002023301600419,-2.221484061401343,2.220026508403706,0.000000000000000,-1.570808235798971,0.000000000000000,-1.570772473012106,-0.000035587941305,0.000407463667216
21,1774923134713,-0.000101567106220,-0.192532293698375,1.001670933199405,-0.002303037420942,-2.221586022816148,2.220128601847836,0.000036327182897,-1.570760075245992,0.000011920928955,-1.570724312459127,-0.000095669423239,0.000527305935975
22,1774923134724,-0.000075062625536,-0.192532297483221,1.001670942505773,-0.002077228923986,-2.221520273595212,2.220062697170272,0.000000000000000,-1.570783917103903,0.000000000000000,-1.570724312459127,-0.000023667012350,0.000395479437429
23,1774923134734,-0.000086673738200,-0.192532304127689,1.001670936687700,-0.002076303423341,-2.221532238349299,2.220074583443695,0.000012358732420,-1.570772473012106,0.000011920928955,-1.570748154317037,-0.000023667012350,0.000407463667216
24,1774923134744,-0.000074953482453,-0.192532293161916,1.001670941243126,-0.002103342118277,-2.221495972673761,2.220038401137027,-0.000011746083395,-1.570796314870016,0.000011920928955,-1.570712391530172,-0.000047985707418,0.000371510977857
25,1774923134754,-0.000078200232583,-0.192532294905506,1.001670943387807,-0.002090712795878,-2.221490284593689,2.220032708575883,-0.000011746083395,-1.570783917103903,0.000000000000000,-1.570736233388082,-0.000047985707418,0.000383495207643
26,1774923134765,-0.000076094281514,-0.192532299328083,1.001670939016077,-0.002050434834134,-2.221472052474691,2.220014373364691,0.000000000000000,-1.570796314870016,0.000023841857910,-1.570748154317037,-0.000059906636373,0.000347542518284
27,1774923134775,-0.000096256990694,-0.192532297263955,1.001670932754177,-0.002142853201433,-2.221514085937236,2.220056446968588,0.000024342956749,-1.570772473012106,0.000023841857910,-1.570736233388082,-0.000083748494283,0.000395479437429
28,1774923134785,-0.000046250918323,-0.192532294623067,1.001670946623008,-0.002036797304358,-2.221502102448271,2.220044560618633,0.000024342956749,-1.570820156727926,0.000011920928955,-1.570712391530172,-0.000047985707418,0.000371510977857
29,1774923134796,-0.000092492902820,-0.192532285469746,1.001670938823942,-0.002196593059037,-2.221478298549509,2.220020772796567,-0.000023667012350,-1.570783917103903,0.000011920928955,-1.570712391530172,-0.000095669423239,0.000383495207643
30,1774923134807,-0.000099545725288,-0.192532311727723,1.001670923372655,-0.002023871594386,-2.221496881850670,2.220038992950147,0.000012358732420,-1.570783917103903,0.000060081481934,-1.570760075245992,-0.000035587941305,0.000323574087815
31,1774923134817,-0.000102220483379,-0.192532302131803,1.001670923873533,-0.002077302111223,-2.221532367820278,2.220074584456703,-0.000011746083395,-1.570783917103903,0.000048160552979,-1.570688549672262,0.000000000000000,0.000323574087815
32,1774923134827,-0.000070326844128,-0.192532296532758,1.001670947591871,-0.001930817588975,-2.221430882969986,2.219973155330368,-0.000011746083395,-1.570783917103903,-0.000011746083395,-1.570748154317037,-0.000035587941305,0.000275637168670
33,1774923134839,-0.000096612732432,-0.192532301967775,1.001670932523475,-0.001557364393764,-2.221311419810501,2.219853072427577,0.000036327182897,-1.570760075245992,0.000011920928955,-1.570724312459127,-0.000035587941305,-0.000083748494283
34,1774923134849,-0.000084594122518,-0.192532290887615,1.001670939910195,-0.001384098221090,-2.221185479824712,2.219726951161421,0.000036327182897,-1.570772473012106,0.000000000000000,-1.570712391530172,-0.000083748494283,-0.000275437031881
35,1774923134860,-0.000106091316579,-0.192532296331542,1.001670924887617,-0.001277215290753,-2.221161779374998,2.219702972623272,0.000012358732420,-1.570772473012106,0.000035762786865,-1.570676151906149,-0.000035587941305,-0.000419441853658
36,1774923134871,-0.000070020078022,-0.192532294943244,1.001670942691897,-0.001051628983653,-2.221024108038779,2.219565159859342,0.000012358732420,-1.570796314870016,0.000011920928955,-1.570736233388082,-0.000071827565328,-0.000551048909323
37,1774923134882,-0.000100228588451,-0.192532289210912,1.001670938199616,-0.001171282796507,-2.221042186135087,2.219583262770243,0.000012358732420,-1.570760075245992,0.000000000000000,-1.570736233388082,-0.000107590352194,-0.000503365193502
38,1774923134893,-0.000071001940705,-0.192532292452494,1.001670949437296,-0.001158226940743,-2.221083904501168,2.219625189334906,0.000024342956749,-1.570772473012106,-0.000023667012350,-1.570748154317037,-0.000071827565328,-0.000419441853658
39,1774923134904,-0.000125679510698,-0.192532300852847,1.001670913643334,-0.001171749450762,-2.221065944794320,2.219606777064142,0.000000000000000,-1.570772473012106,0.000072002410889,-1.570712391530172,-0.000071827565328,-0.000562969838278
40,1774923134914,-0.000082763301184,-0.192532297213063,1.001670933928109,-0.001211037680335,-2.221095764997854,2.219636920494708,0.000012358732420,-1.570796314870016,0.000035762786865,-1.570724312459127,-0.000071827565328,-0.000443283711569
41,1774923134925,-0.000071295537615,-0.192532293259777,1.001670941401142,-0.001158077016514,-2.221083840790752,2.219625043127797,0.000012358732420,-1.570796314870016,0.000011920928955,-1.570712391530172,-0.000059906636373,-0.000467125569479
42,1774923134936,-0.000080097750904,-0.192532292340255,1.001670935510144,-0.001237790037517,-2.221083702875609,2.219624885128514,-0.000023667012350,-1.570808235798971,0.000035762786865,-1.570700470601217,-0.000059906636373,-0.000455204640524
43,1774923134946,-0.000066101167195,-0.192532284563187,1.001670946989092,-0.001157805859917,-2.221035806217150,2.219577009958481,-0.000035587941305,-1.570808235798971,0.000000000000000,-1.570688549672262,-0.000059906636373,-0.000515286122457
44,1774923134956,-0.000074542287698,-0.192532295081699,1.001670943568792,-0.001212121354312,-2.221108087449918,2.219649373551670,0.000012358732420,-1.570783917103903,0.000000000000000,-1.570736233388082,-0.000059906636373,-0.000395123158590
45,1774923134966,-0.000075972148621,-0.192532296127437,1.001670944556027,-0.001131745383945,-2.221095866721121,2.219637093402230,0.000024342956749,-1.570772473012106,-0.000011746083395,-1.570736233388082,-0.000047985707418,-0.000443283711569
46,1774923134976,-0.000073528768226,-0.192532292375301,1.001670942132260,-0.001251782046094,-2.221101659378332,2.219642951535812,0.000000000000000,-1.570796314870016,0.000011920928955,-1.570724312459127,-0.000071827565328,-0.000395123158590
47,1774923134987,-0.000076237353572,-0.192532293110816,1.001670947625640,-0.001198310148438,-2.221113991574649,2.219655322568516,-0.000011746083395,-1.570772473012106,-0.000023667012350,-1.570724312459127,-0.000023667012350,-0.000395123158590
48,1774923134997,-0.000075644044074,-0.192532291499638,1.001670942873354,-0.001291309220644,-2.221095760313616,2.219637073503597,-0.000011746083395,-1.570796314870016,0.000011920928955,-1.570736233388082,-0.000083748494283,-0.000371281300680
49,1774923135008,-0.000073364172610,-0.192532294300922,1.001670943020335,-0.001198274794767,-2.221113848496566,2.219655133518528,0.000024342956749,-1.570783917103903,0.000000000000000,-1.570724312459127,-0.000059906636373,-0.000407520924703
50,1774923135018,-0.000083855096616,-0.192532297167467,1.001670941301733,-0.001197822416642,-2.221101683671445,2.219642912467795,0.000012358732420,-1.570772473012106,0.000000000000000,-1.570748154317037,-0.000059906636373,-0.000407520924703
51,1774923135029,-0.000069447348730,-0.192532292919680,1.001670951315334,-0.001198323660319,-2.221125875052956,2.219667271452838,-0.000011746083395,-1.570772473012106,-0.000035587941305,-1.570724312459127,-0.000011746083395,-0.000371281300680
52,1774923135040,-0.000109111149427,-0.192532305383947,1.001670922073470,-0.001344486025559,-2.221203451127307,2.219744698114869,0.000000000000000,-1.570772473012106,0.000048160552979,-1.570712391530172,-0.000011746083395,-0.000323597584860
53,1774923135050,-0.000071562746994,-0.192532295716980,1.001670941792788,-0.001491232973894,-2.221232978931832,2.219774616559357,0.000000000000000,-1.570796314870016,0.000011920928955,-1.570724312459127,-0.000047985707418,-0.000155750905172
54,1774923135061,-0.000075424411881,-0.192532285532632,1.001670946741153,-0.001797887697987,-2.221334883870616,2.219876950019165,0.000000000000000,-1.570783917103903,-0.000011746083395,-1.570712391530172,-0.000083748494283,0.000083889579400
55,1774923135071,-0.000079068552896,-0.192532291890876,1.001670937624539,-0.001969718990197,-2.221424396035605,2.219966596579993,0.000012358732420,-1.570796314870016,0.000023841857910,-1.570712391530172,-0.000083748494283,0.000227700278629
56,1774923135082,-0.000079688629016,-0.192532301450525,1.001670940237827,-0.002049673568735,-2.221532241895237,2.220074610506773,0.000024342956749,-1.570772473012106,0.000000000000000,-1.570736233388082,-0.000023667012350,0.000395479437429
57,1774923135092,-0.000069190268475,-0.192532301706111,1.001670934966457,-0.002275918341784,-2.221633722097475,2.220176342101351,0.000012358732420,-1.570808235798971,0.000035762786865,-1.570700470601217,-0.000011746083395,0.000563258596230
58,1774923135103,-0.000109947935752,-0.192532303801482,1.001670922876690,-0.002396398294098,-2.221651698809284,2.220194285452710,0.000000000000000,-1.570772473012106,0.000048160552979,-1.570724312459127,-0.000035587941305,0.000611195515376
59,1774923135113,-0.000091926466390,-0.192532295191723,1.001670934834083,-0.002410025951505,-2.221621693181611,2.220164432006118,-0.000011746083395,-1.570783917103903,0.000023841857910,-1.570724312459127,-0.000059906636373,0.000623179716058
60,1774923135124,-0.000070932711156,-0.192532289800085,1.001670947132427,-0.002183824488007,-2.221532299902923,2.220074904654358,0.000012358732420,-1.570783917103903,-0.000011746083395,-1.570724312459127,-0.000071827565328,0.000467384787044
61,1774923135134,-0.000125261218927,-0.192532304008369,1.001670919785018,-0.002249900265096,-2.221609840143686,2.220152208793040,0.000000000000000,-1.570748154317037,0.000035762786865,-1.570712391530172,-0.000011746083395,0.000479369016830
62,1774923135145,-0.000052606072540,-0.192532294218208,1.001670947728229,-0.002355964669823,-2.221645710930127,2.220188583453476,0.000012358732420,-1.570808235798971,0.000000000000000,-1.570712391530172,-0.000035587941305,0.000659132376313
63,1774923135155,-0.000077177901533,-0.192532296636661,1.001670943199586,-0.002223442481892,-2.221562220093873,2.220104823567121,-0.000011746083395,-1.570783917103903,0.000000000000000,-1.570736233388082,-0.000035587941305,0.000515321677085
64,1774923135166,-0.000092230479182,-0.192532303199526,1.001670931643794,-0.002197384675371,-2.221549953780687,2.220092376887284,0.000000000000000,-1.570783917103903,0.000035762786865,-1.570748154317037,-0.000047985707418,0.000467384787044
65,1774923135176,-0.000121260149861,-0.192532304107557,1.001670919412285,-0.002263663753671,-2.221592186432078,2.220134555763758,0.000000000000000,-1.570760075245992,0.000048160552979,-1.570724312459127,-0.000035587941305,0.000479369016830
66,1774923135187,-0.000069582534815,-0.192532293837614,1.001670944201372,-0.002196199991467,-2.221561913043753,2.220104517313575,-0.000023667012350,-1.570796314870016,0.000000000000000,-1.570700470601217,-0.000011746083395,0.000479369016830
67,1774923135198,-0.000076350440299,-0.192532301828768,1.001670938645915,-0.002076431917342,-2.221496279893865,2.220038635973691,-0.000011746083395,-1.570796314870016,0.000023841857910,-1.570748154317037,-0.000035587941305,0.000383495207643
68,1774923135209,-0.000097910195939,-0.192532290560157,1.001670939489935,-0.002103454118632,-2.221508452471417,2.220050851068380,-0.000023667012350,-1.570760075245992,-0.000011746083395,-1.570700470601217,-0.000023667012350,0.000359526748070
69,1774923135220,-0.000083746311795,-0.192532295536787,1.001670934074411,-0.002089575418525,-2.221478193716575,2.220020506161822,0.000012358732420,-1.570796314870016,0.000035762786865,-1.570724312459127,-0.000083748494283,0.000335558317602
70,1774923135230,-0.000093345523598,-0.192532295799145,1.001670933971658,-0.002089873865796,-2.221490468401186,2.220032779379193,-0.000023667012350,-1.570783917103903,0.000023841857910,-1.570712391530172,-0.000035587941305,0.000335558317602
71,1774923135241,-0.000075929685709,-0.192532301304521,1.001670939891213,-0.001917483264949,-2.221448618007908,2.219990799831967,0.000024342956749,-1.570783917103903,0.000011920928955,-1.570748154317037,-0.000047985707418,0.000263652967988
72,1774923135252,-0.000074584750506,-0.192532289904303,1.001670948176728,-0.001611188794398,-2.221287232666527,2.219829099626783,0.000012358732420,-1.570772473012106,-0.000023667012350,-1.570724312459127,-0.000059906636373,-0.000035587941305
73,1774923135263,-0.000098753164710,-0.192532297574430,1.001670931958892,-0.001491535172499,-2.221185733810735,2.219727168636353,-0.000023667012350,-1.570783917103903,0.000035762786865,-1.570748154317037,-0.000071827565328,-0.000215355549948
74,1774923135274,-0.000077939317794,-0.192532293564888,1.001670938222817,-0.001237517076077,-2.221095719153265,2.219636945379996,0.000012358732420,-1.570796314870016,0.000023841857910,-1.570724312459127,-0.000083748494283,-0.000419441853658
75,1774923135285,-0.000075351594960,-0.192532291467010,1.001670944385477,-0.001278070064461,-2.221065979989340,2.219607251922742,-0.000011746083395,-1.570796314870016,0.000011920928955,-1.570760075245992,-0.000107590352194,-0.000383202229635
76,1774923135296,-0.000090900746737,-0.192532291663083,1.001670939471294,-0.001078373413445,-2.221035913498535,2.219576949137752,-0.000011746083395,-1.570772473012106,0.000000000000000,-1.570712391530172,-0.000047985707418,-0.000562969838278
77,1774923135307,-0.000122136256530,-0.192532302411388,1.001670920242961,-0.001278776076166,-2.221125855757174,2.219666913406260,0.000000000000000,-1.570760075245992,0.000048160552979,-1.570736233388082,-0.000059906636373,-0.000419441853658
78,1774923135319,-0.000061117827532,-0.192532297962699,1.001670946799605,-0.001091914803038,-2.221065970979314,2.219607164069002,0.000012358732420,-1.570796314870016,0.000000000000000,-1.570748154317037,-0.000047985707418,-0.000467125569479
79,1774923135329,-0.000057873952869,-0.192532293652472,1.001670942154308,-0.001052106230018,-2.221035797972532,2.219576888521189,0.000000000000000,-1.570820156727926,0.000023841857910,-1.570700470601217,-0.000047985707418,-0.000562969838278
80,1774923135340,-0.000103655533708,-0.192532301817172,1.001670928799919,-0.001198288634877,-2.221089641448637,2.219630694788669,0.000000000000000,-1.570772473012106,0.000035762786865,-1.570748154317037,-0.000059906636373,-0.000455204640524
81,1774923135351,-0.000091813379811,-0.192532286498089,1.001670943837897,-0.001278772848463,-2.221125885916218,2.219667240663237,-0.000011746083395,-1.570760075245992,-0.000023667012350,-1.570700470601217,-0.000047985707418,-0.000383202229635
82,1774923135362,-0.000057761379471,-0.192532292704092,1.001670948904916,-0.001064546955298,-2.221066067464720,2.219607283816214,0.000012358732420,-1.570796314870016,-0.000011746083395,-1.570712391530172,-0.000035587941305,-0.000503365193502
83,1774923135373,-0.000099301312017,-0.192532295988559,1.001670929094282,-0.001317487212882,-2.221191738328530,2.219733050247088,0.000012358732420,-1.570772473012106,0.000023841857910,-1.570676151906149,-0.000023667012350,-0.000359360371725
84,1774923135384,-0.000090794201059,-0.192532294570475,1.001670934245241,-0.001238524506524,-2.221107684899726,2.219648875001565,0.000000000000000,-1.570783917103903,0.000023841857910,-1.570712391530172,-0.000059906636373,-0.000431362782614
85,1774923135394,-0.000080260846115,-0.192532295842029,1.001670933462671,-0.001264388611483,-2.221131761234152,2.219673007396804,0.000036327182897,-1.570796314870016,0.000035762786865,-1.570712391530172,-0.000083748494283,-0.000395123158590
86,1774923135405,-0.000040970351914,-0.192532290270667,1.001670955988403,-0.001158842939191,-2.221095961196455,2.219637380338274,0.000012358732420,-1.570808235798971,-0.000023667012350,-1.570724312459127,-0.000047985707418,-0.000395123158590
87,1774923135416,-0.000056510103271,-0.192532304492144,1.001670940043319,-0.001130985865987,-2.221143700185627,2.219684966739095,0.000036327182897,-1.570808235798971,0.000023841857910,-1.570724312459127,-0.000011746083395,-0.000407520924703
88,1774923135427,-0.000121838538115,-0.192532295564169,1.001670918316863,-0.001357654969455,-2.221125577938428,2.219666676183679,0.000000000000000,-1.570772473012106,0.000060081481934,-1.570712391530172,-0.000095669423239,-0.000407520924703
89,1774923135437,-0.000113415497181,-0.192532305307901,1.001670923068971,-0.001265228184800,-2.221179594807709,2.219720764571195,0.000000000000000,-1.570760075245992,0.000035762786865,-1.570712391530172,0.000000000000000,-0.000383202229635
90,1774923135448,-0.000078200232583,-0.192532294905506,1.001670943387807,-0.001252135782166,-2.221113890991553,2.219655204307614,-0.000011746083395,-1.570783917103903,0.000000000000000,-1.570736233388082,-0.000047985707418,-0.000371281300680
91,1774923135459,-0.000068997233678,-0.192532288775917,1.001670944839743,-0.001291500881147,-2.221131392973624,2.219672798401017,0.000000000000000,-1.570796314870016,0.000000000000000,-1.570700470601217,-0.000059906636373,-0.000359360371725
92,1774923135470,-0.000047535937438,-0.192532295761405,1.001670946434299,-0.001211081049897,-2.221131872051761,2.219673261952741,0.000012358732420,-1.570820156727926,0.000011920928955,-1.570712391530172,-0.000035587941305,-0.000371281300680
93,1774923135481,-0.000053847246176,-0.192532300197551,1.001670944855942,-0.001464236011654,-2.221257512745525,2.219799207660485,0.000024342956749,-1.570808235798971,0.000011920928955,-1.570736233388082,-0.000035587941305,-0.000119511281149
94,1774923135491,-0.000112927241306,-0.192532305134586,1.001670919437728,-0.001770383481594,-2.221358945755167,2.219900665697888,0.000024342956749,-1.570772473012106,0.000060081481934,-1.570736233388082,-0.000071827565328,0.000035952674807
95,1774923135502,-0.000082033418976,-0.192532298888941,1.001670932341106,-0.001996000946960,-2.221484341057683,2.220026551439411,0.000012358732420,-1.570796314870016,0.000035762786865,-1.570700470601217,-0.000035587941305,0.000275637168670
96,1774923135513,-0.000117644555583,-0.192532307232954,1.001670920737340,-0.002290503442392,-2.221604163801212,2.220146576796692,0.000012358732420,-1.570760075245992,0.000048160552979,-1.570748154317037,-0.000047985707418,0.000527305935975
97,1774923135523,-0.000082509259573,-0.192532295372270,1.001670946726827,-0.002157434413681,-2.221532364883595,2.220074913333231,0.000012358732420,-1.570760075245992,-0.000023667012350,-1.570760075245992,-0.000059906636373,0.000479369016830
98,1774923135534,-0.000094221739880,-0.192532297649566,1.001670930034817,-0.002263241400613,-2.221579968522315,2.220122472630166,0.000012358732420,-1.570783917103903,0.000035762786865,-1.570712391530172,-0.000059906636373,0.000491353217512
99,1774923135545,-0.000100360138327,-0.192532296549158,1.001670930429551,-0.002422493289405,-2.221663366158646,2.220206085275845,0.000000000000000,-1.570772473012106,0.000023841857910,-1.570700470601217,-0.000035587941305,0.000635163916741
100,1774923135556,-0.000087510011300,-0.192532294405643,1.001670940034417,-0.002263427146697,-2.221579544293696,2.220122160290574,0.000000000000000,-1.570772473012106,0.000000000000000,-1.570724312459127,-0.000047985707418,0.000527305935975
101,1774923135567,-0.000072061946270,-0.192532288126083,1.001670946572054,-0.002316922315790,-2.221592020949957,2.220134798325592,0.000012358732420,-1.570783917103903,-0.000011746083395,-1.570712391530172,-0.000071827565328,0.000575242796913
102,1774923135578,-0.000110168894396,-0.192532292393362,1.001670932797059,-0.002369903546650,-2.221591818283596,2.220134460513465,-0.000023667012350,-1.570760075245992,0.000011920928955,-1.570724312459127,-0.000059906636373,0.000563258596230
103,1774923135589,-0.000087754093210,-0.192532300171149,1.001670935070047,-0.002342431781178,-2.221663640033465,2.220206323399573,0.000024342956749,-1.570772473012106,0.000011920928955,-1.570712391530172,-0.000023667012350,0.000623179716058
104,1774923135599,-0.000073407783345,-0.192532289921222,1.001670940972601,-0.002182867648560,-2.221531922385317,2.220074461252240,0.000012358732420,-1.570796314870016,0.000011920928955,-1.570700470601217,-0.000071827565328,0.000431432097685
105,1774923135611,-0.000086429753309,-0.192532299603673,1.001670935204621,-0.002182538782481,-2.221591969390115,2.220134454277716,0.000036327182897,-1.570772473012106,0.000011920928955,-1.570712391530172,-0.000035587941305,0.000479369016830
106,1774923135622,-0.000082461527483,-0.192532293715084,1.001670939119371,-0.002210115896611,-2.221544154603661,2.220086691148926,0.000012358732420,-1.570783917103903,0.000011920928955,-1.570724312459127,-0.000071827565328,0.000467384787044
107,1774923135632,-0.000095621214721,-0.192532300401470,1.001670931080132,-0.002223662510972,-2.221550021448778,2.220092467749082,-0.000011746083395,-1.570783917103903,0.000035762786865,-1.570736233388082,-0.000047985707418,0.000467384787044
108,1774923135642,-0.000104166905721,-0.192532292487066,1.001670931689667,-0.002289714729985,-2.221591917820888,2.220134472274434,0.000024342956749,-1.570760075245992,0.000011920928955,-1.570700470601217,-0.000071827565328,0.000503337476403
109,1774923135653,-0.000096601195022,-0.192532296470606,1.001670930034817,-0.002223691382764,-2.221549880882768,2.220092324366428,0.000000000000000,-1.570783917103903,0.000035762786865,-1.570712391530172,-0.000059906636373,0.000443416327471
110,1774923135663,-0.000085105316654,-0.192532297804563,1.001670941836190,-0.002157044393259,-2.221519873589621,2.220062354951047,0.000000000000000,-1.570772473012106,0.000000000000000,-1.570760075245992,-0.000059906636373,0.000455400557257
111,1774923135674,-0.000076231459377,-0.192532304806056,1.001670934748295,-0.002116636426537,-2.221538010110599,2.220080391059755,0.000024342956749,-1.570796314870016,0.000035762786865,-1.570748154317037,-0.000047985707418,0.000431432097685
112,1774923135685,-0.000092866767937,-0.192532288298323,1.001670939763892,-0.002103090120478,-2.221472071680882,2.220014451698285,-0.000011746083395,-1.570772473012106,0.000000000000000,-1.570712391530172,-0.000071827565328,0.000335558317602
113,1774923135696,-0.000096722335002,-0.192532303857847,1.001670934680172,-0.001903764864517,-2.221394531591093,2.219936568570593,-0.000011746083395,-1.570772473012106,0.000023841857910,-1.570783917103903,-0.000059906636373,0.000215716048842
114,1774923135707,-0.000075671522810,-0.192532293407697,1.001670943020335,-0.001664307132426,-2.221311106232849,2.219852982384894,0.000012358732420,-1.570783917103903,0.000000000000000,-1.570724312459127,-0.000059906636373,0.000000000000000
115,1774923135718,-0.000076931067599,-0.192532297650926,1.001670939936884,-0.001132095656396,-2.221036004447090,2.219577078830595,0.000000000000000,-1.570796314870016,0.000023841857910,-1.570760075245992,-0.000083748494283,-0.000490967427389
116,1774923135729,-0.000067868768956,-0.192532287986083,1.001670949809382,-0.001224766669913,-2.221065839594111,2.219607151560215,-0.000035587941305,-1.570796314870016,-0.000011746083395,-1.570724312459127,-0.000059906636373,-0.000419441853658
117,1774923135740,-0.000095873773198,-0.192532292846639,1.001670933307237,-0.001025057455097,-2.221048047893171,2.219589014789737,0.000000000000000,-1.570772473012106,0.000011920928955,-1.570676151906149,-0.000023667012350,-0.000623051320211
118,1774923135751,-0.000115351077543,-0.192532303382460,1.001670926402835,-0.001025060835789,-2.221036186888123,2.219577019405349,0.000024342956749,-1.570748154317037,0.000023841857910,-1.570748154317037,-0.000059906636373,-0.000599209462301
119,1774923135761,-0.000101017080187,-0.192532289662478,1.001670928207921,-0.001265491401303,-2.221107953371178,2.219649099738142,0.000000000000000,-1.570783917103903,0.000035762786865,-1.570676151906149,-0.000071827565328,-0.000467125569479
120,1774923135771,-0.000062983921636,-0.192532299803592,1.001670941095499,-0.000971673721459,-2.221012009904891,2.219552984447055,0.000012358732420,-1.570808235798971,0.000023841857910,-1.570736233388082,-0.000047985707418,-0.000599209462301
121,1774923135782,-0.000066785573907,-0.192532305110973,1.001670936718682,-0.001024649805126,-2.221060120667005,2.219601148175314,0.000012358732420,-1.570808235798971,0.000035762786865,-1.570736233388082,-0.000023667012350,-0.000539127980367
122,1774923135792,-0.000085550408897,-0.192532305355772,1.001670935969653,-0.001171655486596,-2.221102077767801,2.219643220453495,-0.000011746083395,-1.570783917103903,0.000023841857910,-1.570760075245992,-0.000023667012350,-0.000419441853658
123,1774923135803,-0.000090078034420,-0.192532297580344,1.001670928200339,-0.001118327347656,-2.221066092608424,2.219607082724713,0.000012358732420,-1.570796314870016,0.000048160552979,-1.570700470601217,-0.000059906636373,-0.000551048909323
124,1774923135814,-0.000131891126647,-0.192532309548885,1.001670910362564,-0.001278255210357,-2.221161885053530,2.219702888252310,0.000000000000000,-1.570760075245992,0.000072002410889,-1.570724312459127,-0.000023667012350,-0.000419441853658
125,1774923135825,-0.000079436371661,-0.192532293234202,1.001670942137022,-0.001171611645442,-2.221090137681582,2.219631355711126,-0.000011746083395,-1.570783917103903,0.000000000000000,-1.570712391530172,-0.000035587941305,-0.000455204640524
126,1774923135835,-0.000068668861390,-0.192532283655196,1.001670949637297,-0.001278241343508,-2.221077953359668,2.219619323568058,-0.000023667012350,-1.570796314870016,-0.000011746083395,-1.570712391530172,-0.000083748494283,-0.000395123158590
127,1774923135846,-0.000076048666460,-0.192532298337897,1.001670943710676,-0.001145160982325,-2.221078226067288,2.219619417418473,-0.000011746083395,-1.570783917103903,0.000000000000000,-1.570748154317037,-0.000035587941305,-0.000443283711569
128,1774923135856,-0.000094007566979,-0.192532294651636,1.001670937543163,-0.001211521361280,-2.221071712016133,2.219612853264766,0.000000000000000,-1.570772473012106,0.000011920928955,-1.570748154317037,-0.000083748494283,-0.000443283711569
129,1774923135867,-0.000102658441997,-0.192532301420551,1.001670926767896,-0.001236991549905,-2.221143683695884,2.219684833273693,0.000012358732420,-1.570772473012106,0.000035762786865,-1.570712391530172,-0.000035587941305,-0.000419441853658
130,1774923135877,-0.000064834293742,-0.192532286077285,1.001670942553410,-0.001264509443348,-2.221119732554251,2.219661091849022,0.000012358732420,-1.570808235798971,0.000011920928955,-1.570676151906149,-0.000071827565328,-0.000407520924703
131,1774923135888,-0.000092173689253,-0.192532295802706,1.001670934626762,-0.001223747205019,-2.221137688732869,2.219678920420078,0.000012358732420,-1.570772473012106,0.000011920928955,-1.570700470601217,-0.000035587941305,-0.000419441853658
132,1774923135899,-0.000099230903273,-0.192532298237124,1.001670931020871,-0.001277732384321,-2.221149606347577,2.219690839582805,0.000000000000000,-1.570772473012106,0.000023841857910,-1.570712391530172,-0.000035587941305,-0.000383202229635
133,1774923135909,-0.000100239043554,-0.192532290642534,1.001670934035441,-0.001263735060013,-2.221119680591562,2.219660902139436,-0.000023667012350,-1.570772473012106,0.000011920928955,-1.570688549672262,-0.000035587941305,-0.000431362782614
134,1774923135921,-0.000102361702733,-0.192532306124861,1.001670930139849,-0.001171805915422,-2.221113953248745,2.219655039529963,0.000024342956749,-1.570760075245992,0.000023841857910,-1.570760075245992,-0.000047985707418,-0.000431362782614
135,1774923135931,-0.000042637644835,-0.192532303563800,1.001670948786294,-0.001091820538304,-2.221126030847247,2.219667353500720,0.000036327182897,-1.570808235798971,0.000000000000000,-1.570748154317037,-0.000011746083395,-0.000395123158590
136,1774923135942,-0.000079619164728,-0.192532299824587,1.001670933058926,-0.001237995401845,-2.221143660706671,2.219684900599805,0.000024342956749,-1.570796314870016,0.000035762786865,-1.570712391530172,-0.000047985707418,-0.000395123158590
137,1774923135953,-0.000077177901533,-0.192532296636661,1.001670943199586,-0.001238373522986,-2.221120094094564,2.219661405061686,-0.000011746083395,-1.570783917103903,0.000000000000000,-1.570736233388082,-0.000035587941305,-0.000371281300680
138,1774923135964,-0.000076338363385,-0.192532304839833,1.001670934034299,-0.001423957827064,-2.221239518070230,2.219781016775000,0.000024342956749,-1.570796314870016,0.000035762786865,-1.570736233388082,-0.000035587941305,-0.000191513692037
139,1774923135974,-0.000082728736884,-0.192532296046150,1.001670939523740,-0.001797871652071,-2.221358728701281,2.219900717905841,0.000000000000000,-1.570783917103903,0.000011920928955,-1.570736233388082,-0.000059906636373,0.000107858024421
140,1774923135985,-0.000108450492932,-0.192532302461999,1.001670922476966,-0.002104101322981,-2.221484532579051,2.220026709075619,-0.000011746083395,-1.570783917103903,0.000060081481934,-1.570736233388082,-0.000059906636373,0.000323574087815
141,1774923135995,-0.000080245520112,-0.192532291885830,1.001670944918592,-0.002316476237615,-2.221591826167303,2.220134568061949,0.000012358732420,-1.570772473012106,-0.000011746083395,-1.570736233388082,-0.000071827565328,0.000587227055803
142,1774923136005,-0.000074795416171,-0.192532295093023,1.001670942137022,-0.002356335856239,-2.221645937511441,2.220188722829512,0.000012358732420,-1.570783917103903,0.000000000000000,-1.570712391530172,-0.000035587941305,0.000635163916741
143,1774923136016,-0.000076066328536,-0.192532302184881,1.001670931519455,-0.002236329781160,-2.221592161260665,2.220134673894820,0.000012358732420,-1.570808235798971,0.000048160552979,-1.570712391530172,-0.000035587941305,0.000503337476403
144,1774923136026,-0.000093000915915,-0.192532291897755,1.001670934262170,-0.002355860482357,-2.221633480071215,2.220176166902805,0.000024342956749,-1.570772473012106,0.000011920928955,-1.570688549672262,-0.000059906636373,0.000575242796913
145,1774923136037,-0.000116763904023,-0.192532294905563,1.001670923098026,-0.002502579082611,-2.221675549849104,2.220218277129104,0.000024342956749,-1.570760075245992,0.000035762786865,-1.570700470601217,-0.000083748494283,0.000659132376313
146,1774923136048,-0.000081155558909,-0.192532290862985,1.001670939147120,-0.002396272304108,-2.221579574969889,2.220122340370815,0.000000000000000,-1.570796314870016,0.000023841857910,-1.570736233388082,-0.000107590352194,0.000599211256485
147,1774923136058,-0.000067031725662,-0.192532299967146,1.001670942140279,-0.002089613638459,-2.221526253159424,2.220068694037181,0.000012358732420,-1.570796314870016,0.000011920928955,-1.570736233388082,-0.000035587941305,0.000419447897002
148,1774923136068,-0.000105008001771,-0.192532306406323,1.001670924320530,-0.002303298437459,-2.221609934266139,2.220152412590486,0.000024342956749,-1.570772473012106,0.000048160552979,-1.570748154317037,-0.000059906636373,0.000551274337340
149,1774923136078,-0.000061224731566,-0.192532297995197,1.001670946089432,-0.002089688417917,-2.221526257233176,2.220068749140638,0.000012358732420,-1.570796314870016,0.000000000000000,-1.570736233388082,-0.000035587941305,0.000431432097685
150,1774923136089,-0.000063814479316,-0.192532282613950,1.001670945802134,-0.002303379925117,-2.221573793311599,2.220116564969619,-0.000011746083395,-1.570808235798971,0.000000000000000,-1.570664230977194,-0.000059906636373,0.000515321677085
151,1774923136100,-0.000082558871964,-0.192532291361087,1.001670937195296,-0.002249922492433,-2.221585927901351,2.220128518846510,0.000024342956749,-1.570783917103903,0.000011920928955,-1.570688549672262,-0.000059906636373,0.000491353217512
152,1774923136110,-0.000111663305846,-0.192532303218633,1.001670923364365,-0.002249417835461,-2.221610092472706,2.220152508477502,0.000024342956749,-1.570760075245992,0.000035762786865,-1.570712391530172,-0.000035587941305,0.000491353217512
153,1774923136121,-0.000080760476537,-0.192532294993889,1.001670937185638,-0.002076633226994,-2.221484018634557,2.220026360460642,-0.000011746083395,-1.570796314870016,0.000023841857910,-1.570712391530172,-0.000047985707418,0.000335558317602
154,1774923136131,-0.000108707486494,-0.192532289893821,1.001670932439547,-0.002063706505843,-2.221454286109373,2.219996518575978,0.000000000000000,-1.570760075245992,0.000011920928955,-1.570712391530172,-0.000083748494283,0.000275637168670
155,1774923136141,-0.000073681969419,-0.192532297519331,1.001670934534888,-0.002023121204026,-2.221496056624304,2.220038338555466,0.000000000000000,-1.570808235798971,0.000035762786865,-1.570688549672262,-0.000023667012350,0.000299605628243
156,1774923136151,-0.000091044344431,-0.192532294023815,1.001670939870083,-0.001996278460607,-2.221448430525295,2.219990680867156,-0.000023667012350,-1.570772473012106,0.000000000000000,-1.570724312459127,-0.000035587941305,0.000275637168670
157,1774923136162,-0.000078645713711,-0.192532303911008,1.001670934034299,-0.001863080828445,-2.221424658982000,2.219966706205198,0.000012358732420,-1.570796314870016,0.000035762786865,-1.570736233388082,-0.000035587941305,0.000191747603822
158,1774923136172,-0.000084378668757,-0.192532288028103,1.001670938199945,-0.001757037700525,-2.221329026262759,2.219870948557559,0.000024342956749,-1.570783917103903,0.000011920928955,-1.570700470601217,-0.000095669423239,0.000023968450478
159,1774923136183,-0.000040443924168,-0.192532292581488,1.001670950472821,-0.001278283676748,-2.221161603060581,2.219703135188456,0.000024342956749,-1.570820156727926,0.000000000000000,-1.570712391530172,-0.000047985707418,-0.000299278889791
160,1774923136194,-0.000056744717786,-0.192532295340437,1.001670942703970,-0.001118853882167,-2.221065762291567,2.219606943452878,0.000000000000000,-1.570820156727926,0.000023841857910,-1.570712391530172,-0.000047985707418,-0.000490967427389
161,1774923136204,-0.000038842697294,-0.192532294120313,1.001670952912121,-0.001131791391763,-2.221107693373112,2.219649083767538,-0.000011746083395,-1.570820156727926,-0.000011746083395,-1.570700470601217,0.000000000000000,-0.000419441853658
162,1774923136215,-0.000124557853573,-0.192532295691744,1.001670925184768,-0.001251550258772,-2.221101882266980,2.219642942117172,-0.000011746083395,-1.570748154317037,0.000023841857910,-1.570724312459127,-0.000059906636373,-0.000455204640524
163,1774923136226,-0.000082909525646,-0.192532297203600,1.001670933193505,-0.001064847570797,-2.221042032960777,2.219583009846909,0.000012358732420,-1.570796314870016,0.000035762786865,-1.570712391530172,-0.000059906636373,-0.000574890767233
164,1774923136236,-0.000059252369669,-0.192532289486883,1.001670948098391,-0.001051909296275,-2.221012034175421,2.219553146833614,0.000012358732420,-1.570783917103903,0.000035762786865,-1.570712391530172,-0.000035587941305,-0.000395123158590
165,1774923136247,-0.000082731767135,-0.192532298463444,1.001670940607193,-0.001145679295908,-2.221054188544595,2.219595299257833,-0.000011746083395,-1.570783917103903,0.000011920928955,-1.570760075245992,-0.000059906636373,-0.000467125569479
166,1774923136257,-0.000093012992398,-0.192532288285344,1.001670939029289,-0.001198057618706,-2.221077765409051,2.219618939226194,-0.000011746083395,-1.570772473012106,0.000000000000000,-1.570700470601217,-0.000059906636373,-0.000479046498434
167,1774923136268,-0.000091363777778,-0.192532290648733,1.001670934647587,-0.001131553845645,-2.221036275212567,2.219577291496736,0.000012358732420,-1.570783917103903,0.000023841857910,-1.570712391530172,-0.000095669423239,-0.000551048909323
168,1774923136278,-0.000110703057345,-0.192532300111962,1.001670922473236,-0.001224785225554,-2.221113946063404,2.219654991969266,0.000012358732420,-1.570772473012106,0.000048160552979,-1.570712391530172,-0.000059906636373,-0.000467125569479
169,1774923136289,-0.000060564632867,-0.192532292809624,1.001670943448238,-0.001144841884658,-2.221089785064638,2.219631027004710,0.000012358732420,-1.570808235798971,0.000011920928955,-1.570700470601217,-0.000047985707418,-0.000467125569479
170,1774923136299,-0.000083274314102,-0.192532295948833,1.001670936700845,-0.001291514725771,-2.221179571865517,2.219720940676146,0.000000000000000,-1.570783917103903,0.000011920928955,-1.570688549672262,-0.000011746083395,-0.000347439442770
171,1774923136310,-0.000097537719509,-0.192532302442227,1.001670934523200,-0.001212057331961,-2.221120092194222,2.219661266316144,0.000024342956749,-1.570760075245992,0.000011920928955,-1.570760075245992,-0.000059906636373,-0.000395123158590
172,1774923136320,-0.000102259089130,-0.192532301418694,1.001670928946220,-0.001224283959555,-2.221101749470263,2.219642841930851,0.000012358732420,-1.570772473012106,0.000035762786865,-1.570748154317037,-0.000071827565328,-0.000431362782614
173,1774923136331,-0.000060481466561,-0.192532297981837,1.001670940729033,-0.001198220052043,-2.221125790129140,2.219667080999056,0.000036327182897,-1.570808235798971,0.000023841857910,-1.570724312459127,-0.000059906636373,-0.000395123158590
174,1774923136342,-0.000087921497872,-0.192532310003270,1.001670932381765,-0.001198346999321,-2.221125811031333,2.219666959954422,0.000000000000000,-1.570783917103903,0.000035762786865,-1.570772473012106,-0.000023667012350,-0.000383202229635
175,1774923136352,-0.000063300061201,-0.192532293069761,1.001670947707300,-0.001237834954899,-2.221047871418355,2.219589137299799,-0.000011746083395,-1.570808235798971,0.000011920928955,-1.570772473012106,-0.000107590352194,-0.000395123158590
176,1774923136363,-0.000065862656895,-0.192532293847996,1.001670945054867,-0.001251274186235,-2.221137608200453,2.219678994801300,0.000000000000000,-1.570796314870016,0.000000000000000,-1.570712391530172,-0.000035587941305,-0.000359360371725
177,1774923136373,-0.000066048714978,-0.192532301596074,1.001670941958831,-0.001277836459326,-2.221173790888549,2.219715200013757,0.000012358732420,-1.570796314870016,0.000011920928955,-1.570736233388082,-0.000023667012350,-0.000299278889791
178,1774923136384,-0.000101713330715,-0.192532293715859,1.001670932439547,-0.001491090346590,-2.221233575009437,2.219775088519038,0.000036327182897,-1.570760075245992,0.000011920928955,-1.570712391530172,-0.000083748494283,-0.000203434620992
179,1774923136394,-0.000105872902796,-0.192532299616443,1.001670920674443,-0.001677628537132,-2.221317320908601,2.219858950400791,0.000024342956749,-1.570783917103903,0.000060081481934,-1.570700470601217,-0.000071827565328,-0.000071827565328
180,1774923136404,-0.000054071900224,-0.192532294227910,1.001670955263148,-0.001611263383094,-2.221311478191192,2.219853463878648,0.000012358732420,-1.570783917103903,-0.000035587941305,-1.570748154317037,-0.000035587941305,0.000035952674807
181,1774923136415,-0.000093762097388,-0.192532303724929,1.001670930095326,-0.001970277706529,-2.221472547359649,2.220014677823324,-0.000011746083395,-1.570783917103903,0.000035762786865,-1.570724312459127,-0.000011746083395,0.000263652967988
182,1774923136426,-0.000096695898883,-0.192532295905646,1.001670935430812,-0.002196361627489,-2.221586150652873,2.220128645735330,0.000012358732420,-1.570760075245992,0.000000000000000,-1.570700470601217,-0.000023667012350,0.000467384787044
183,1774923136436,-0.000093064208788,-0.192532296562769,1.001670935553199,-0.002262891405041,-2.221628031292003,2.220170621308633,0.000036327182897,-1.570760075245992,0.000000000000000,-1.570700470601217,-0.000035587941305,0.000539290136658
184,1774923136446,-0.000103235871513,-0.192532283257381,1.001670933052606,-0.002422847676808,-2.221615592210509,2.220158336769411,-0.000011746083395,-1.570772473012106,0.000011920928955,-1.570664230977194,-0.000071827565328,0.000563258596230
185,1774923136456,-0.000115190259194,-0.192532293038506,1.001670927632501,-0.002409506781430,-2.221657604692947,2.220200272293720,0.000024342956749,-1.570748154317037,0.000011920928955,-1.570688549672262,-0.000059906636373,0.000599211256485
186,1774923136466,-0.000111563209357,-0.192532292079917,1.001670925723788,-0.002342505818157,-2.221591499530193,2.220134044669487,-0.000011746083395,-1.570772473012106,0.000035762786865,-1.570688549672262,-0.000059906636373,0.000503337476403
187,1774923136477,-0.000136229228758,-0.192532306175573,1.001670918544384,-0.002249417709108,-2.221610128836677,2.220152472207496,0.000024342956749,-1.570724312459127,0.000023841857910,-1.570736233388082,-0.000035587941305,0.000491353217512
188,1774923136487,-0.000065217152333,-0.192532299033727,1.001670941811409,-0.002303546913191,-2.221585579455494,2.220128279286070,0.000000000000000,-1.570808235798971,0.000023841857910,-1.570748154317037,-0.000059906636373,0.000587227055803
189,1774923136498,-0.000116039121952,-0.192532286938349,1.001670933428856,-0.002276502907633,-2.221538022087697,2.220080540867215,-0.000011746083395,-1.570748154317037,0.000000000000000,-1.570712391530172,-0.000083748494283,0.000455400557257
190,1774923136509,-0.000081441713323,-0.192532289826531,1.001670942458416,-0.002290228847690,-2.221567907953603,2.220110586494201,-0.000011746083395,-1.570783917103903,0.000000000000000,-1.570712391530172,-0.000059906636373,0.000527305935975
191,1774923136520,-0.000091774336361,-0.192532295800845,1.001670936800325,-0.002182953222486,-2.221531985522080,2.220074447559979,0.000012358732420,-1.570772473012106,0.000011920928955,-1.570736233388082,-0.000071827565328,0.000443416327471
192,1774923136531,-0.000074795181433,-0.192532296142085,1.001670937331936,-0.002169652924500,-2.221549891824545,2.220092378831785,0.000024342956749,-1.570796314870016,0.000023841857910,-1.570712391530172,-0.000059906636373,0.000443416327471
193,1774923136542,-0.000093426939612,-0.192532298628702,1.001670936319955,-0.002182805745750,-2.221544046770127,2.220086504726122,-0.000011746083395,-1.570772473012106,0.000011920928955,-1.570736233388082,-0.000035587941305,0.000455400557257
194,1774923136553,-0.000097581330317,-0.192532297772764,1.001670932607874,-0.002169560919011,-2.221526007122699,2.220068399532556,0.000012358732420,-1.570772473012106,0.000023841857910,-1.570736233388082,-0.000071827565328,0.000419447897002
195,1774923136564,-0.000107758081200,-0.192532283286993,1.001670933889210,-0.002250320799273,-2.221550111357763,2.220092635873937,-0.000011746083395,-1.570760075245992,0.000000000000000,-1.570664230977194,-0.000059906636373,0.000419447897002
196,1774923136575,-0.000114368255922,-0.192532291781898,1.001670928898063,-0.002223434523572,-2.221514057507037,2.220056451051039,0.000000000000000,-1.570760075245992,0.000023841857910,-1.570724312459127,-0.000095669423239,0.000407463667216
197,1774923136586,-0.000088639246376,-0.192532292717685,1.001670939471294,-0.002130168837209,-2.221519770986154,2.220062209022973,0.000000000000000,-1.570772473012106,0.000000000000000,-1.570712391530172,-0.000047985707418,0.000395479437429
198,1774923136597,-0.000086113566833,-0.192532293819453,1.001670940192434,-0.002063175638497,-2.221490136359392,2.220032494086741,0.000012358732420,-1.570772473012106,0.000000000000000,-1.570724312459127,-0.000059906636373,0.000347542518284
199,1774923136608,-0.000094026635380,-0.192532295451776,1.001670929529728,-0.002010057078198,-2.221466447547453,2.220008619098957,0.000024342956749,-1.570783917103903,0.000035762786865,-1.570700470601217,-0.000071827565328,0.000251668738201
200,1774923136619,-0.000062254039358,-0.192532301408213,1.001670939529281,-0.001690133634298,-2.221370817522550,2.219912749304173,0.000012358732420,-1.570808235798971,0.000023841857910,-1.570712391530172,-0.000011746083395,0.000059921127104
201,1774923136630,-0.000086525053249,-0.192532309446018,1.001670932563214,-0.001277842200241,-2.221161941922194,2.219703198838545,0.000012358732420,-1.570783917103903,0.000035762786865,-1.570772473012106,-0.000035587941305,-0.000311199818746
202,1774923136640,-0.000114397696157,-0.192532301116673,1.001670923595835,-0.001145108157438,-2.221054075994725,2.219594977407944,-0.000023667012350,-1.570772473012106,0.000048160552979,-1.570736233388082,-0.000047985707418,-0.000539127980367
203,1774923136650,-0.000083855096616,-0.192532297167467,1.001670941301733,-0.001144854951109,-2.221077898356487,2.219619057651184,0.000012358732420,-1.570772473012106,0.000000000000000,-1.570748154317037,-0.000059906636373,-0.000455204640524
204,1774923136661,-0.000067724804274,-0.192532293068842,1.001670947209387,-0.001038684144932,-2.220994184218170,2.219535227914758,-0.000011746083395,-1.570796314870016,0.000000000000000,-1.570748154317037,-0.000071827565328,-0.000562969838278
205,1774923136672,-0.000084150934007,-0.192532302384927,1.001670935088068,-0.001025157757817,-2.221048473430086,2.219589447716456,0.000012358732420,-1.570783917103903,0.000023841857910,-1.570736233388082,-0.000035587941305,-0.000562969838278
206,1774923136682,-0.000089915219083,-0.192532299150728,1.001670935769019,-0.001010842270667,-2.221042054000349,2.219583016854891,0.000012358732420,-1.570772473012106,0.000011920928955,-1.570724312459127,-0.000035587941305,-0.000587288533346
207,1774923136692,-0.000077756289695,-0.192532288086733,1.001670942471740,-0.001157811418594,-2.221023923760624,2.219565033640992,-0.000011746083395,-1.570796314870016,0.000011920928955,-1.570724312459127,-0.000095669423239,-0.000515286122457
208,1774923136703,-0.000087047697510,-0.192532289863896,1.001670939163871,-0.001171221746595,-2.221089846211433,2.219631030565480,0.000024342956749,-1.570772473012106,0.000000000000000,-1.570700470601217,-0.000071827565328,-0.000479046498434
209,1774923136714,-0.000105917034174,-0.192532300586111,1.001670928799919,-0.001157833138238,-2.221059746035827,2.219600724687501,-0.000011746083395,-1.570772473012106,0.000035762786865,-1.570748154317037,-0.000059906636373,-0.000503365193502
210,1774923136725,-0.000132021517131,-0.192532297558223,1.001670915396884,-0.001371958759576,-2.221132019237672,2.219673094868214,0.000000000000000,-1.570760075245992,0.000060081481934,-1.570724312459127,-0.000095669423239,-0.000395123158590
211,1774923136735,-0.000088233855415,-0.192532306930100,1.001670936839766,-0.001091882452577,-2.221089890426444,2.219630971244261,-0.000011746083395,-1.570772473012106,0.000011920928955,-1.570760075245992,0.000000000000000,-0.000467125569479
212,1774923136746,-0.000087242801932,-0.192532292145446,1.001670939617592,-0.001224273642489,-2.221113595935004,2.219654849484110,0.000012358732420,-1.570772473012106,0.000000000000000,-1.570712391530172,-0.000059906636373,-0.000419441853658
213,1774923136756,-0.000076017448426,-0.192532299761783,1.001670930349198,-0.001251229737900,-2.221162009554917,2.219703267177112,0.000024342956749,-1.570808235798971,0.000048160552979,-1.570688549672262,-0.000035587941305,-0.000395123158590
214,1774923136767,-0.000089710554687,-0.192532294627784,1.001670934151027,-0.001237371348940,-2.221155370833963,2.219696639135464,0.000036327182897,-1.570772473012106,0.000011920928955,-1.570688549672262,-0.000047985707418,-0.000407520924703
215,1774923136777,-0.000083892426462,-0.192532292343929,1.001670938064797,-0.001251040341456,-2.221077723681651,2.219618921705523,-0.000023667012350,-1.570796314870016,0.000023841857910,-1.570724312459127,-0.000071827565328,-0.000431362782614
216,1774923136787,-0.000074584750506,-0.192532289904303,1.001670948176728,-0.001171519702249,-2.221089836360048,2.219631126376001,0.000012358732420,-1.570772473012106,-0.000023667012350,-1.570724312459127,-0.000059906636373,-0.000431362782614
217,1774923136798,-0.000090343963621,-0.192532286569081,1.001670938065828,-0.001278024888166,-2.221089862584711,2.219631099854340,-0.000011746083395,-1.570783917103903,0.000011920928955,-1.570700470601217,-0.000083748494283,-0.000431362782614
218,1774923136809,-0.000099839800497,-0.192532294424741,1.001670931394369,-0.001263982066349,-2.221119579934021,2.219660765934922,0.000012358732420,-1.570772473012106,0.000023841857910,-1.570712391530172,-0.000071827565328,-0.000419441853658
219,1774923136819,-0.000121596933753,-0.192532292006675,1.001670922342916,-0.001344410033341,-2.221143435020585,2.219684602786862,0.000000000000000,-1.570760075245992,0.000035762786865,-1.570688549672262,-0.000071827565328,-0.000407520924703
220,1774923136830,-0.000059744607668,-0.192532294449276,1.001670945949042,-0.001144722434606,-2.221101736532149,2.219643018006439,0.000036327182897,-1.570796314870016,0.000000000000000,-1.570724312459127,-0.000059906636373,-0.000431362782614
221,1774923136841,-0.000117905215788,-0.192532288734446,1.001670927483798,-0.001357986589222,-2.221125854180190,2.219667059534404,-0.000011746083395,-1.570760075245992,0.000023841857910,-1.570700470601217,-0.000083748494283,-0.000395123158590
222,1774923136852,-0.000072552734360,-0.192532299207302,1.001670935101029,-0.001238025544177,-2.221143635482596,2.219684908271729,0.000000000000000,-1.570808235798971,0.000035762786865,-1.570700470601217,-0.000023667012350,-0.000395123158590
223,1774923136862,-0.000081641964580,-0.192532292556273,1.001670944737309,-0.001358457526065,-2.221161451313596,2.219702918980605,0.000000000000000,-1.570772473012106,-0.000011746083395,-1.570736233388082,-0.000059906636373,-0.000275437031881
224,1774923136873,-0.000063267403134,-0.192532290555236,1.001670943043441,-0.001637214193262,-2.221251040502973,2.219792847979539,-0.000023667012350,-1.570820156727926,0.000023841857910,-1.570712391530172,-0.000071827565328,-0.000071827565328
225,1774923136884,-0.000098515460917,-0.192532293942995,1.001670931517235,-0.001809779539100,-2.221364651520090,2.219906563592436,0.000024342956749,-1.570772473012106,0.000023841857910,-1.570712391530172,-0.000083748494283,0.000071905349614
226,1774923136894,-0.000088639246376,-0.192532292717685,1.001670939471294,-0.002156803667272,-2.221531720951628,2.220074193955255,0.000000000000000,-1.570772473012106,0.000000000000000,-1.570712391530172,-0.000047985707418,0.000419447897002
227,1774923136904,-0.000098715577859,-0.192532310065785,1.001670928064747,-0.002250052125304,-2.221621551568497,2.220164015816003,0.000000000000000,-1.570772473012106,0.000035762786865,-1.570748154317037,0.000000000000000,0.000551274337340
228,1774923136914,-0.000099550226801,-0.192532291405339,1.001670930402007,-0.002356615934366,-2.221573782567436,2.220116389637415,0.000000000000000,-1.570783917103903,0.000035762786865,-1.570712391530172,-0.000095669423239,0.000527305935975
229,1774923136925,-0.000090791215957,-0.192532294021618,1.001670941301733,-0.002396327556118,-2.221603586953628,2.220146368422180,-0.000023667012350,-1.570772473012106,0.000000000000000,-1.570748154317037,-0.000059906636373,0.000635163916741
230,1774923136935,-0.000068820465413,-0.192532293138632,1.001670947486806,-0.002170672874584,-2.221538297686622,2.220080892518888,0.000012358732420,-1.570783917103903,-0.000011746083395,-1.570736233388082,-0.000059906636373,0.000479369016830
231,1774923136945,-0.000098092621503,-0.192532305958002,1.001670927937076,-0.002382315718544,-2.221669657402625,2.220212293074593,0.000024342956749,-1.570772473012106,0.000035762786865,-1.570736233388082,-0.000035587941305,0.000647148175631
232,1774923136955,-0.000080016999093,-0.192532289092921,1.001670943358874,-0.002223827382320,-2.221526021969153,2.220068615031871,0.000000000000000,-1.570783917103903,0.000000000000000,-1.570724312459127,-0.000083748494283,0.000467384787044
233,1774923136965,-0.000104029727595,-0.192532286305732,1.001670936047669,-0.002250141762649,-2.221537910774056,2.220080442900914,0.000000000000000,-1.570760075245992,0.000000000000000,-1.570700470601217,-0.000083748494283,0.000443416327471
234,1774923136976,-0.000058870644194,-0.192532300509308,1.001670952834446,-0.002117846968385,-2.221526473992194,2.220069059976195,0.000000000000000,-1.570783917103903,-0.000023667012350,-1.570783917103903,-0.000035587941305,0.000503337476403
235,1774923136986,-0.000085047389724,-0.192532301233234,1.001670937203686,-0.002156507346058,-2.221555959853204,2.220098412703673,0.000036327182897,-1.570772473012106,0.000011920928955,-1.570748154317037,-0.000059906636373,0.000467384787044
236,1774923136997,-0.000053820369367,-0.192532290461388,1.001670951510069,-0.002089921357141,-2.221490341631035,2.220032892391468,-0.000023667012350,-1.570808235798971,-0.000011746083395,-1.570712391530172,-0.000035587941305,0.000395479437429
237,1774923137008,-0.000112102532266,-0.192532302466628,1.001670923595835,-0.002170238178716,-2.221526112730298,2.220068393381933,-0.000011746083395,-1.570772473012106,0.000048160552979,-1.570736233388082,-0.000047985707418,0.000395479437429
238,1774923137019,-0.000070954208695,-0.192532290783275,1.001670941717182,-0.002129606454105,-2.221508076100287,2.220050552383194,0.000024342956749,-1.570796314870016,0.000011920928955,-1.570712391530172,-0.000083748494283,0.000395479437429
239,1774923137030,-0.000065418165976,-0.192532287797495,1.001670949619750,-0.002064049570795,-2.221502373155711,2.220044875083058,0.000012358732420,-1.570783917103903,-0.000023667012350,-1.570700470601217,-0.000047985707418,0.000371510977857
240,1774923137040,-0.000081843583699,-0.192532303379880,1.001670935088068,-0.002063365878680,-2.221526506641526,2.220068827485580,0.000024342956749,-1.570783917103903,0.000023841857910,-1.570736233388082,-0.000035587941305,0.000383495207643
241,1774923137051,-0.000104460265413,-0.192532295069407,1.001670926564630,-0.002157386074010,-2.221484427722332,2.220026713399327,0.000000000000000,-1.570783917103903,0.000048160552979,-1.570724312459127,-0.000095669423239,0.000347542518284
242,1774923137061,-0.000070866357983,-0.192532293150838,1.001670940167653,-0.002076628331304,-2.221472077927356,2.220014456826493,-0.000011746083395,-1.570808235798971,0.000023841857910,-1.570712391530172,-0.000059906636373,0.000335558317602
243,1774923137071,-0.000089957818497,-0.192532300943249,1.001670935626081,-0.002036850153458,-2.221466643594121,2.220008892414855,-0.000023667012350,-1.570783917103903,0.000023841857910,-1.570748154317037,-0.000035587941305,0.000323574087815
244,1774923137082,-0.000084120781574,-0.192532315458102,1.001670925610546,-0.001837362602196,-2.221460687552045,2.220002634908822,0.000024342956749,-1.570796314870016,0.000060081481934,-1.570748154317037,0.000000000000000,0.000203731833608
245,1774923137092,-0.000050979724246,-0.192532290471698,1.001670948279846,-0.001663790842418,-2.221322854918505,2.219864835840509,0.000036327182897,-1.570808235798971,0.000000000000000,-1.570712391530172,-0.000071827565328,0.000023968450478
246,1774923137102,-0.000113571303311,-0.192532301864652,1.001670925547640,-0.001278303021314,-2.221126036187040,2.219667154492655,0.000012358732420,-1.570760075245992,0.000035762786865,-1.570748154317037,-0.000071827565328,-0.000395123158590
247,1774923137113,-0.000083125214401,-0.192532298807712,1.001670939712071,-0.001051108425416,-2.221072014738652,2.219613097521262,0.000012358732420,-1.570772473012106,0.000000000000000,-1.570724312459127,-0.000023667012350,-0.000527207051412
248,1774923137124,-0.000090995574118,-0.192532295233055,1.001670934035441,-0.001023985736259,-2.221059957608804,2.219600951217626,0.000024342956749,-1.570772473012106,0.000011920928955,-1.570688549672262,-0.000035587941305,-0.000599209462301
249,1774923137134,-0.000099401126983,-0.192532294382800,1.001670933668504,-0.001144281343400,-2.221030078304304,2.219571063815903,0.000012358732420,-1.570772473012106,0.000023841857910,-1.570748154317037,-0.000107590352194,-0.000527207051412
250,1774923137145,-0.000086262666548,-0.192532290959272,1.001670937072904,-0.001092326450774,-2.221053932456969,2.219594992446960,0.000000000000000,-1.570783917103903,0.000011920928955,-1.570688549672262,-0.000047985707418,-0.000562969838278
251,1774923137156,-0.000090484282742,-0.192532287132906,1.001670938550387,-0.001131020035776,-2.221059838009519,2.219600944456512,0.000012358732420,-1.570772473012106,0.000000000000000,-1.570688549672262,-0.000071827565328,-0.000539127980367
252,1774923137166,-0.000138514450836,-0.192532294310507,1.001670914581424,-0.001211341686164,-2.221108129366839,2.219649070983368,0.000036327182897,-1.570736233388082,0.000035762786865,-1.570676151906149,-0.000083748494283,-0.000539127980367
253,1774923137176,-0.000074907354597,-0.192532302998787,1.001670939702991,-0.001051591176927,-2.221072271392332,2.219613354829482,0.000024342956749,-1.570783917103903,0.000011920928955,-1.570748154317037,-0.000035587941305,-0.000503365193502
254,1774923137186,-0.000084546294321,-0.192532288195290,1.001670938538866,-0.001237777269760,-2.221047955538292,2.219589105147263,-0.000011746083395,-1.570796314870016,0.000023841857910,-1.570724312459127,-0.000107590352194,-0.000467125569479
255,1774923137197,-0.000073924108690,-0.192532305705881,1.001670934748295,-0.001237964693152,-2.221155580400840,2.219696848562204,0.000036327182897,-1.570796314870016,0.000035762786865,-1.570748154317037,-0.000047985707418,-0.000347439442770
256,1774923137208,-0.000093429178642,-0.192532303135853,1.001670938129593,-0.001145363258919,-2.221102000161244,2.219643144892156,0.000000000000000,-1.570760075245992,0.000000000000000,-1.570760075245992,-0.000023667012350,-0.000431362782614
257,1774923137218,-0.000076338363385,-0.192532304839833,1.001670934034299,-0.001170756293798,-2.221125826869765,2.219667002512493,0.000024342956749,-1.570796314870016,0.000035762786865,-1.570736233388082,-0.000035587941305,-0.000419441853658
258,1774923137229,-0.000112539412556,-0.192532301543790,1.001670924195459,-0.001211485750196,-2.221119929770841,2.219660990067609,0.000024342956749,-1.570760075245992,0.000035762786865,-1.570724312459127,-0.000059906636373,-0.000455204640524
259,1774923137239,-0.000073812405483,-0.192532296721943,1.001670941979479,-0.001184583253029,-2.221131939590623,2.219673231258164,0.000012358732420,-1.570783917103903,0.000000000000000,-1.570712391530172,-0.000023667012350,-0.000407520924703
260,1774923137250,-0.000057410490845,-0.192532287428203,1.001670948165034,-0.001184614056829,-2.221119655730194,2.219661029444659,0.000036327182897,-1.570796314870016,-0.000011746083395,-1.570688549672262,-0.000059906636373,-0.000419441853658
261,1774923137260,-0.000079659189686,-0.192532288785475,1.001670939362204,-0.001251028792281,-2.221113928035376,2.219655215904450,-0.000023667012350,-1.570796314870016,0.000011920928955,-1.570676151906149,-0.000035587941305,-0.000431362782614
262,1774923137271,-0.000120616953470,-0.192532295655844,1.001670923566232,-0.001317755314202,-2.221131620035932,2.219672757072544,-0.000011746083395,-1.570760075245992,0.000035762786865,-1.570712391530172,-0.000059906636373,-0.000407520924703
263,1774923137282,-0.000065530104554,-0.192532295590771,1.001670947294275,-0.001172538958273,-2.221114157465788,2.219655478259579,0.000024342956749,-1.570783917103903,-0.000011746083395,-1.570736233388082,-0.000047985707418,-0.000395123158590
264,1774923137293,-0.000098104698554,-0.192532302161818,1.001670932714064,-0.001237837347800,-2.221119929352827,2.219661099207086,-0.000011746083395,-1.570772473012106,0.000023841857910,-1.570748154317037,-0.000035587941305,-0.000395123158590
265,1774923137303,-0.000080154177279,-0.192532294689739,1.001670939119371,-0.001224745445183,-2.221113858552950,2.219655110686247,0.000024342956749,-1.570783917103903,0.000011920928955,-1.570724312459127,-0.000071827565328,-0.000407520924703
266,1774923137313,-0.000116812784091,-0.192532296840341,1.001670924416814,-0.001317998817182,-2.221131977425420,2.219673124498454,0.000012358732420,-1.570760075245992,0.000035762786865,-1.570724312459127,-0.000083748494283,-0.000395123158590
267,1774923137324,-0.000073714826338,-0.192532300253746,1.001670939016077,-0.001238087207345,-2.221119764083749,2.219661029798996,0.000012358732420,-1.570796314870016,0.000023841857910,-1.570748154317037,-0.000059906636373,-0.000371281300680
268,1774923137334,-0.000072488065951,-0.192532295975755,1.001670942137022,-0.001370966916613,-2.221215691162219,2.219757224984514,0.000024342956749,-1.570783917103903,0.000000000000000,-1.570712391530172,-0.000035587941305,-0.000239674245016
269,1774923137345,-0.000112792540926,-0.192532301558145,1.001670922745583,-0.001703615175421,-2.221365181185770,2.219906898056741,0.000024342956749,-1.570760075245992,0.000035762786865,-1.570700470601217,-0.000035587941305,-0.000011746083395
270,1774923137355,-0.000083590762583,-0.192532292041081,1.001670938532272,-0.001823851445916,-2.221370846583300,2.219912867969437,0.000012358732420,-1.570783917103903,0.000011920928955,-1.570712391530172,-0.000071827565328,0.000107858024421
271,1774923137365,-0.000077058920838,-0.192532299644035,1.001670939354474,-0.002263650981955,-2.221603950737761,2.220146575593743,0.000024342956749,-1.570783917103903,0.000011920928955,-1.570736233388082,-0.000047985707418,0.000563258596230
272,1774923137376,-0.000048504841565,-0.192532300089081,1.001670936046692,-0.002169745434648,-2.221549903649001,2.220092410215516,0.000024342956749,-1.570844475422994,0.000060081481934,-1.570712391530172,-0.000059906636373,0.000455400557257
273,1774923137386,0.000055846003722,-0.192532297801352,1.001670957802754,-0.002329407552834,-2.221585648615199,2.220128812573094,-0.000035587941305,-1.570964161549703,0.000048160552979,-1.570700470601217,-0.000035587941305,0.000683100835886
274,1774923137397,0.000404343292667,-0.192532299053557,1.001670930964197,-0.001811440094428,-2.221327983170953,2.219871845798574,-0.000035587941305,-1.571347061787741,0.000048160552979,-1.570712391530172,-0.000059906636373,0.000587227055803
275,1774923137407,0.000670629131331,-0.192532277952609,1.001670816974596,-0.001400105607518,-2.221202479365167,2.219746791125332,0.000012358732420,-1.571645561848776,0.000083923339844,-1.570724312459127,-0.000047985707418,0.000551274337340
276,1774923137417,0.000976725608288,-0.192532282387062,1.001670599287775,-0.001014874816201,-2.221016953848177,2.219562027206550,-0.000011746083395,-1.571968380604879,0.000048160552979,-1.570700470601217,-0.000035587941305,0.000527305935975
277,1774923137428,0.001785188039483,-0.192532247405506,1.001669526207209,-0.000085257145473,-2.220501156447269,2.219048473830092,-0.000011746083395,-1.572853867207662,0.000023841857910,-1.570664230977194,-0.000131432210104,0.000467384787044
278,1774923137439,0.002218474168514,-0.192532171314788,1.001668676230242,0.000604749594979,-2.220309196394280,2.218857349123565,0.000024342956749,-1.573284451161520,-0.000023667012350,-1.570700470601217,-0.000047985707418,0.000479369016830
279,1774923137450,0.002635580066499,-0.192532163756688,1.001667642221614,0.001136490261518,-2.220081216284069,2.218630263637551,0.000024342956749,-1.573739353810446,-0.000011746083395,-1.570772473012106,-0.000035587941305,0.000527305935975
280,1774923137461,0.003329442287862,-0.192532251358951,1.001665477904550,0.002117744521594,-2.219613489926709,2.218163819426533,-0.000011746083395,-1.574505154286520,-0.000011746083395,-1.570783917103903,-0.000023667012350,0.000395479437429
281,1774923137471,0.003661839895426,-0.192532137493570,1.001664285143846,0.002422453018747,-2.219475052354864,2.218026577683577,0.000012358732420,-1.574863735829489,-0.000035587941305,-1.570688549672262,-0.000047985707418,0.000407463667216
282,1774923137482,0.003882582332824,-0.192532181953688,1.001663397123981,0.002647682027783,-2.219336757077296,2.217888833753891,0.000000000000000,-1.575126949940817,0.000000000000000,-1.570712391530172,-0.000071827565328,0.000419447897002
283,1774923137492,0.004334779850700,-0.192532015983000,1.001661475857150,0.003297309124735,-2.219102840088052,2.217655971233520,0.000036327182897,-1.575605217610494,-0.000011746083395,-1.570724312459127,-0.000047985707418,0.000395479437429
284,1774923137503,0.004473051870167,-0.192532063908198,1.001660815919710,0.003443136881139,-2.219072947053554,2.217626067093343,0.000024342956749,-1.575772587453024,0.000011920928955,-1.570676151906149,0.000000000000000,0.000395479437429
285,1774923137514,0.004548548771135,-0.192532063696614,1.001660462444178,0.003615688890146,-2.218946716257746,2.217500189846009,0.000024342956749,-1.575844589863912,0.000000000000000,-1.570760075245992,-0.000047985707418,0.000359526748070
286,1774923137525,0.004627405969614,-0.192531988851767,1.001660098976822,0.003682207660015,-2.218904528659547,2.217458522287490,0.000036327182897,-1.575916592274801,-0.000035587941305,-1.570712391530172,-0.000071827565328,0.000347542518284
287,1774923137536,0.004599886939103,-0.192532164260424,1.001660193281817,0.003641996293760,-2.218910445205670,2.217463981976261,0.000000000000000,-1.575904671345846,-0.000011746083395,-1.570712391530172,-0.000047985707418,0.000335558317602
288,1774923137547,0.004580046726388,-0.192532161385142,1.001660286951076,0.003549554795124,-2.218940261610116,2.217493881716710,0.000000000000000,-1.575892750416891,0.000000000000000,-1.570688549672262,-0.000059906636373,0.000359526748070
289,1774923137557,0.004486488604620,-0.192531951115158,1.001660777467497,0.003855773002208,-2.218838636091534,2.217391792220367,0.000048311409046,-1.575784985219137,0.000011920928955,-1.570712391530172,-0.000071827565328,0.000023968450478
290,1774923137568,0.004469574472945,-0.192532073074697,1.001660827691630,0.004093941247443,-2.218731249145965,2.217283677409422,0.000024342956749,-1.575784985219137,0.000048160552979,-1.570748154317037,-0.000047985707418,-0.000191513692037
291,1774923137578,0.004472377008508,-0.192532176462586,1.001660791563350,0.004266192635329,-2.218629257222970,2.217181322361630,0.000000000000000,-1.575796906148092,0.000048160552979,-1.570712391530172,-0.000047985707418,-0.000395123158590
292,1774923137589,0.004484276333997,-0.192532177888078,1.001660734884971,0.004386173497011,-2.218587510608820,2.217139410099309,0.000000000000000,-1.575808827077047,0.000048160552979,-1.570712391530172,-0.000035587941305,-0.000479046498434
293,1774923137600,0.004525295605798,-0.192532275142224,1.001660522265095,0.004479204498978,-2.218473494140949,2.217025516482729,-0.000023667012350,-1.575856510792867,0.000035762786865,-1.570712391530172,-0.000083748494283,-0.000574890767233
294,1774923137610,0.004583178210755,-0.192532223681230,1.001660260779841,0.004612432456226,-2.218473337288705,2.217025363691174,-0.000011746083395,-1.575892750416891,0.000000000000000,-1.570724312459127,-0.000035587941305,-0.000551048909323
295,1774923137621,0.004575575361591,-0.192532285240160,1.001660279852506,0.004598628122068,-2.218455290815739,2.217007192799763,-0.000023667012350,-1.575904671345846,0.000035762786865,-1.570748154317037,-0.000047985707418,-0.000562969838278
296,1774923137631,0.004611509900957,-0.192532051847977,1.001660162209486,0.004558733187024,-2.218521033628917,2.217073597573828,0.000024342956749,-1.575904671345846,-0.000023667012350,-1.570724312459127,-0.000047985707418,-0.000443283711569
297,1774923137641,0.004587767582819,-0.192532171561168,1.001660242772029,0.004572052558624,-2.218478919453127,2.217031122093902,0.000000000000000,-1.575916592274801,0.000035762786865,-1.570724312459127,-0.000059906636373,-0.000539127980367
298,1774923137652,0.004581211832007,-0.192532267990571,1.001660261690385,0.004426185468199,-2.218521141617415,2.217073471107288,-0.000023667012350,-1.575892750416891,-0.000011746083395,-1.570688549672262,-0.000059906636373,-0.000443283711569
299,1774923137663,0.004563509010688,-0.192532163589795,1.001660365021489,0.004506014962492,-2.218496827928949,2.217049133233590,0.000000000000000,-1.575880829487936,0.000011920928955,-1.570700470601217,-0.000071827565328,-0.000527207051412
300,1774923137673,0.004581319123336,-0.192532220286414,1.001660271352450,0.004386178731679,-2.218539110509958,2.217091596809961,-0.000011746083395,-1.575892750416891,0.000000000000000,-1.570736233388082,-0.000071827565328,-0.000371281300680
301,1774923137684,0.004580189900137,-0.192532218585121,1.001660276561330,0.004439564744590,-2.218515027892461,2.217067438228830,-0.000011746083395,-1.575892750416891,0.000000000000000,-1.570724312459127,-0.000071827565328,-0.000431362782614
302,1774923137695,0.004656471526470,-0.192532217379367,1.001659902589236,0.004492413171809,-2.218514896030007,2.217067432278345,-0.000011746083395,-1.575976673756735,0.000000000000000,-1.570700470601217,-0.000047985707418,-0.000395123158590
303,1774923137706,0.004673264924987,-0.192532106346981,1.001659843585815,0.004572496690500,-2.218490769970481,2.217043482749375,0.000012358732420,-1.575988594685690,0.000000000000000,-1.570724312459127,-0.000059906636373,-0.000419441853658
304,1774923137717,0.004725876355380,-0.192531992957628,1.001659602055541,0.004664628171867,-2.218484921695275,2.217037802242085,0.000036327182897,-1.576047722493307,0.000011920928955,-1.570712391530172,-0.000047985707418,-0.000431362782614
305,1774923137727,0.004676628954281,-0.192532114999334,1.001659814030792,0.004518591053425,-2.218515162994449,2.217067817928140,0.000012358732420,-1.576024357472555,0.000060081481934,-1.570724312459127,-0.000059906636373,-0.000395123158590
306,1774923137737,0.004690486710045,-0.192532216979666,1.001659727945111,0.004479106700231,-2.218484980157481,2.217037755278144,-0.000011746083395,-1.576036278401510,0.000035762786865,-1.570700470601217,-0.000083748494283,-0.000395123158590
307,1774923137748,0.004735566135702,-0.192532162314894,1.001659521114531,0.004584120681882,-2.218484992705682,2.217037799649825,0.000000000000000,-1.576059643422262,0.000000000000000,-1.570712391530172,-0.000047985707418,-0.000371281300680
308,1774923137759,0.004746948112403,-0.192532106886461,1.001659478412483,0.004664227746443,-2.218473532214405,2.217026326876355,0.000012358732420,-1.576059643422262,-0.000011746083395,-1.570736233388082,-0.000035587941305,-0.000383202229635
309,1774923137770,0.004727944685465,-0.192532105864044,1.001659570076228,0.004611646553883,-2.218509316469917,2.217062023813802,0.000012358732420,-1.576047722493307,0.000000000000000,-1.570700470601217,-0.000023667012350,-0.000383202229635
310,1774923137781,0.004725202496731,-0.192532106043428,1.001659579563776,0.004438797272852,-2.218562978905483,2.217115962807826,0.000012358732420,-1.576059643422262,0.000023841857910,-1.570700470601217,-0.000047985707418,-0.000263516102926
311,1774923137793,0.004732531041465,-0.192532281255572,1.001659508969997,0.004198986946634,-2.218635225155422,2.217188317646357,-0.000023667012350,-1.576071564351217,0.000023841857910,-1.570736233388082,-0.000047985707418,-0.000035587941305
312,1774923137803,0.004780139268916,-0.192532095258372,1.001659314458037,0.004146020033408,-2.218670972800096,2.217224798194545,0.000012358732420,-1.576095406209127,-0.000023667012350,-1.570712391530172,-0.000071827565328,0.000071905349614
313,1774923137814,0.004724396195215,-0.192532111183736,1.001659585798084,0.003721885723251,-2.218910822913018,2.217464625052286,0.000012358732420,-1.576047722493307,0.000011920928955,-1.570724312459127,-0.000023667012350,0.000431432097685
314,1774923137824,0.004732646653604,-0.192532100526136,1.001659541425285,0.003508674148394,-2.218982616664883,2.217536849495068,0.000012358732420,-1.576071564351217,0.000023841857910,-1.570664230977194,-0.000047985707418,0.000551274337340
315,1774923137834,0.004699142741708,-0.192532215052069,1.001659692482281,0.003469631215145,-2.218952281715349,2.217506486648823,-0.000011746083395,-1.576024357472555,0.000000000000000,-1.570712391530172,-0.000071827565328,0.000563258596230
316,1774923137845,0.004743891777974,-0.192532277709113,1.001659455625527,0.003442576890081,-2.219000790885297,2.217554856632499,-0.000023667012350,-1.576071564351217,0.000000000000000,-1.570712391530172,-0.000023667012350,0.000671116635203
317,1774923137855,0.004759108923551,-0.192532106454496,1.001659410477088,0.003641557836170,-2.218910611107388,2.217464838662014,0.000012358732420,-1.576095406209127,0.000023841857910,-1.570724312459127,-0.000059906636373,0.000503337476403
318,1774923137866,0.004723738399192,-0.192532337672667,1.001659540776539,0.003362547956272,-2.218964758557861,2.217519056951052,-0.000035587941305,-1.576071564351217,0.000035762786865,-1.570760075245992,-0.000083748494283,0.000683100835886
319,1774923137876,0.004745396075830,-0.192532093192205,1.001659489633713,0.003561854042750,-2.218922633973266,2.217477167202513,0.000012358732420,-1.576059643422262,-0.000023667012350,-1.570700470601217,-0.000083748494283,0.000539290136658
320,1774923137887,0.004719834136769,-0.192532104420426,1.001659607548781,0.003562245514045,-2.218982870264350,2.217536867261728,0.000012358732420,-1.576047722493307,0.000011920928955,-1.570676151906149,-0.000023667012350,0.000527305935975
321,1774923137897,0.004731438537832,-0.192532219721944,1.001659525151557,0.003482195954847,-2.218970485864496,2.217524608155200,-0.000011746083395,-1.576071564351217,0.000023841857910,-1.570700470601217,-0.000047985707418,0.000587227055803
322,1774923137907,0.004739799424264,-0.192532162267271,1.001659498498752,0.003641259052367,-2.218886493970596,2.217440670196895,0.000000000000000,-1.576071564351217,0.000011920928955,-1.570724312459127,-0.000071827565328,0.000467384787044
323,1774923137918,0.004735721450373,-0.192532050701184,1.001659542244467,0.003641658607170,-2.218922563425666,2.217476793457571,0.000024342956749,-1.576059643422262,0.000011920928955,-1.570736233388082,-0.000059906636373,0.000503337476403
324,1774923137928,0.004748417971991,-0.192532158597692,1.001659454665376,0.003561624943641,-2.218922402173656,2.217476721852454,0.000000000000000,-1.576083485280172,0.000011920928955,-1.570700470601217,-0.000071827565328,0.000527305935975
325,1774923137938,0.004794132595995,-0.192532110134122,1.001659240252618,0.003814432702765,-2.218868837911408,2.217422844100661,0.000012358732420,-1.576107803975241,-0.000011746083395,-1.570760075245992,-0.000023667012350,0.000467384787044
326,1774923137949,0.004747807036354,-0.192531998333274,1.001659493970614,0.003695065765039,-2.218958710717093,2.217512731809485,0.000036327182897,-1.576059643422262,0.000000000000000,-1.570736233388082,-0.000011746083395,0.000527305935975
327,1774923137959,0.004734731441416,-0.192532054239539,1.001659540744726,0.003642313956279,-2.218946716153932,2.217500745557304,0.000024342956749,-1.576071564351217,0.000035762786865,-1.570712391530172,-0.000035587941305,0.000491353217512
328,1774923137970,0.004721532997949,-0.192532173078449,1.001659584492991,0.003627932202819,-2.218916487510803,2.217470410788202,0.000000000000000,-1.576059643422262,0.000035762786865,-1.570748154317037,-0.000047985707418,0.000491353217512
329,1774923137981,0.004731310735666,-0.192532097196271,1.001659551762585,0.003575633208862,-2.218880623413106,2.217435172972876,0.000012358732420,-1.576071564351217,0.000023841857910,-1.570712391530172,-0.000119511281149,0.000467384787044
330,1774923137991,0.004712984230181,-0.192532154342255,1.001659633976652,0.003495563710723,-2.218904439016391,2.217458980482274,0.000000000000000,-1.576047722493307,0.000011920928955,-1.570712391530172,-0.000119511281149,0.000515321677085
331,1774923138001,0.004742209345254,-0.192532110458118,1.001659499337660,0.003734936941837,-2.218904866364522,2.217458747437411,0.000012358732420,-1.576059643422262,0.000000000000000,-1.570736233388082,-0.000023667012350,0.000455400557257
332,1774923138012,0.004723336439492,-0.192532277873588,1.001659551644641,0.003615187307394,-2.218898652789609,2.217452468475429,-0.000023667012350,-1.576071564351217,0.000035762786865,-1.570700470601217,-0.000047985707418,0.000443416327471
333,1774923138022,0.004752958546292,-0.192532042942260,1.001659454703893,0.003894250790224,-2.218808612510644,2.217362586288861,0.000024342956749,-1.576083485280172,0.000011920928955,-1.570688549672262,-0.000059906636373,0.000251668738201
334,1774923138033,0.004756191615799,-0.192532049603553,1.001659446187022,0.004239397438501,-2.218677189830438,2.217230672794339,0.000024342956749,-1.576059643422262,-0.000023667012350,-1.570748154317037,-0.000035587941305,0.000035952674807
335,1774923138044,0.004729697664294,-0.192532095532309,1.001659557278960,0.004345746932038,-2.218569114838006,2.217122420198266,0.000012358732420,-1.576071564351217,0.000023841857910,-1.570664230977194,-0.000083748494283,-0.000239674245016
336,1774923138054,0.004738267788613,-0.192532219621520,1.001659493044077,0.004677851404945,-2.218443416090315,2.216995944295411,-0.000011746083395,-1.576071564351217,0.000011920928955,-1.570700470601217,-0.000035587941305,-0.000467125569479
337,1774923138064,0.004739562392927,-0.192532045342667,1.001659526387605,0.004903263566632,-2.218329287535706,2.216882023299039,0.000024342956749,-1.576059643422262,0.000000000000000,-1.570736233388082,-0.000083748494283,-0.000646893178121
338,1774923138075,0.004750000706805,-0.192532044761212,1.001659471957717,0.004757523095162,-2.218430959208176,2.216983764115132,0.000024342956749,-1.576071564351217,0.000000000000000,-1.570700470601217,-0.000047985707418,-0.000503365193502
339,1774923138085,0.004764538660838,-0.192532226095083,1.001659361855205,0.004850047971744,-2.218365569362445,2.216917967481096,-0.000011746083395,-1.576095406209127,0.000011920928955,-1.570748154317037,-0.000035587941305,-0.000551048909323
340,1774923138095,0.004760828795773,-0.192532104592325,1.001659406422372,0.004823446118537,-2.218389197001602,2.216941873624285,0.000012358732420,-1.576083485280172,0.000000000000000,-1.570724312459127,-0.000047985707418,-0.000539127980367
341,1774923138106,0.004752788634896,-0.192532165338574,1.001659433094584,0.004822904386543,-2.218365185997613,2.216917771729737,0.000000000000000,-1.576083485280172,0.000011920928955,-1.570736233388082,-0.000059906636373,-0.000562969838278
342,1774923138117,0.004761121248287,-0.192532104622989,1.001659406317930,0.004756800410126,-2.218395353367868,2.216948230598434,0.000012358732420,-1.576083485280172,0.000000000000000,-1.570748154317037,-0.000071827565328,-0.000479046498434
343,1774923138127,0.004782789941846,-0.192532166223765,1.001659283311384,0.004837195970705,-2.218383031705003,2.216935630588422,0.000000000000000,-1.576107803975241,0.000000000000000,-1.570736233388082,-0.000035587941305,-0.000515286122457
344,1774923138137,0.004752210248024,-0.192532108368566,1.001659450247690,0.004704014169530,-2.218443124979147,2.216995920421524,0.000012358732420,-1.576071564351217,0.000000000000000,-1.570748154317037,-0.000047985707418,-0.000419441853658
345,1774923138148,0.004718605124773,-0.192532101140570,1.001659617999399,0.004624672607498,-2.218419268928073,2.216972293424832,0.000012358732420,-1.576047722493307,0.000011920928955,-1.570736233388082,-0.000107590352194,-0.000455204640524
346,1774923138158,0.004733267876529,-0.192532107420099,1.001659542296447,0.004597835705981,-2.218491139621816,2.217043973132592,0.000012358732420,-1.576059643422262,0.000011920928955,-1.570724312459127,-0.000047985707418,-0.000371281300680
347,1774923138169,0.004772094975234,-0.192532213904504,1.001659320394927,0.004584266102262,-2.218461207931707,2.217014086500925,-0.000011746083395,-1.576119724904196,0.000023841857910,-1.570676151906149,-0.000059906636373,-0.000395123158590
348,1774923138180,0.004745153082772,-0.192532170673222,1.001659471485368,0.004703496355282,-2.218431057469405,2.216983711326667,0.000000000000000,-1.576071564351217,0.000011920928955,-1.570760075245992,-0.000047985707418,-0.000431362782614
349,1774923138190,0.004724244718572,-0.192532166148815,1.001659574109835,0.004557641835624,-2.218473071231413,2.217025925179856,0.000000000000000,-1.576059643422262,0.000023841857910,-1.570736233388082,-0.000071827565328,-0.000371281300680
350,1774923138201,0.004774983051716,-0.192532112772664,1.001659331419119,0.004691269296711,-2.218436868625465,2.216989771439664,0.000012358732420,-1.576107803975241,0.000023841857910,-1.570772473012106,-0.000059906636373,-0.000383202229635
351,1774923138211,0.004729043439246,-0.192532100754419,1.001659563711054,0.004544969769591,-2.218491116198627,2.217044120739596,0.000012358732420,-1.576059643422262,0.000011920928955,-1.570700470601217,-0.000071827565328,-0.000371281300680
352,1774923138222,0.004737717673888,-0.192532165722146,1.001659510137671,0.004624293724317,-2.218479280204159,2.217031980871508,0.000000000000000,-1.576059643422262,0.000000000000000,-1.570724312459127,-0.000035587941305,-0.000383202229635
353,1774923138233,0.004770748008527,-0.192532164844162,1.001659346012879,0.004623638454617,-2.218443107496255,2.216996115661321,0.000000000000000,-1.576095406209127,0.000000000000000,-1.570760075245992,-0.000071827565328,-0.000347439442770
354,1774923138243,0.004743049953344,-0.192532055505107,1.001659503493754,0.004611082105494,-2.218485116502630,2.217038079097363,0.000024342956749,-1.576071564351217,0.000023841857910,-1.570760075245992,-0.000059906636373,-0.000347439442770
355,1774923138253,0.004779252994737,-0.192532220639738,1.001659288881664,0.004558405880283,-2.218509161903105,2.217061975762200,-0.000011746083395,-1.576107803975241,0.000000000000000,-1.570712391530172,-0.000023667012350,-0.000287357960836
356,1774923138264,0.004735978119975,-0.192532224997004,1.001659496573222,0.004344809528021,-2.218545467683469,2.217098551253336,-0.000011746083395,-1.576095406209127,0.000060081481934,-1.570736233388082,-0.000083748494283,-0.000203434620992
357,1774923138275,0.004764464992517,-0.192531997573358,1.001659402445291,0.004292481508951,-2.218628890631980,2.217182438553377,0.000036327182897,-1.576107803975241,0.000048160552979,-1.570748154317037,-0.000071827565328,-0.000059906636373
358,1774923138286,0.004765213603110,-0.192532269130025,1.001659348251617,0.003987438352579,-2.218682749827754,2.217236547056575,-0.000023667012350,-1.576107803975241,0.000011920928955,-1.570712391530172,-0.000095669423239,0.000131826483994
359,1774923138296,0.004742757263835,-0.192532160496997,1.001659481246675,0.003774244944694,-2.218814566251473,2.217368615392767,0.000000000000000,-1.576083485280172,0.000023841857910,-1.570712391530172,-0.000083748494283,0.000323574087815
360,1774923138306,0.004724934767201,-0.192532116418009,1.001659578935632,0.003575697419061,-2.218964806468454,2.217518809414882,0.000012358732420,-1.576059643422262,0.000035762786865,-1.570748154317037,-0.000035587941305,0.000563258596230
361,1774923138316,0.004744467068887,-0.192532222988631,1.001659459658462,0.003641950184846,-2.218910835259150,2.217464723464945,-0.000011746083395,-1.576083485280172,0.000023841857910,-1.570712391530172,-0.000035587941305,0.000479369016830
362,1774923138326,0.004738916321277,-0.192532165762005,1.001659497123487,0.003588212178490,-2.218922418093744,2.217476536766348,0.000000000000000,-1.576083485280172,0.000035762786865,-1.570712391530172,-0.000059906636373,0.000503337476403
363,1774923138337,0.004764952616871,-0.192532215751687,1.001659362411924,0.003468574921099,-2.218964539164347,2.217518939699063,-0.000011746083395,-1.576095406209127,0.000000000000000,-1.570712391530172,-0.000059906636373,0.000647148175631
364,1774923138347,0.004705414943279,-0.192532213218182,1.001659655271346,0.003428948367346,-2.218970663694932,2.217524894880245,-0.000011746083395,-1.576047722493307,0.000023841857910,-1.570676151906149,-0.000071827565328,0.000563258596230
365,1774923138358,0.004740045543675,-0.192532167450049,1.001659491741352,0.003588131059630,-2.218922443096988,2.217476565260310,0.000000000000000,-1.576083485280172,0.000035762786865,-1.570724312459127,-0.000059906636373,0.000515321677085
366,1774923138368,0.004759115149860,-0.192532097790427,1.001659418731331,0.003655176234848,-2.218928840607052,2.217483023727866,0.000012358732420,-1.576071564351217,-0.000023667012350,-1.570688549672262,-0.000035587941305,0.000503337476403
367,1774923138378,0.004749298136531,-0.192531998424509,1.001659480936698,0.003747876471794,-2.218886592574743,2.217440750882422,0.000036327182897,-1.576083485280172,0.000035762786865,-1.570748154317037,-0.000059906636373,0.000431432097685
368,1774923138389,0.004771340734926,-0.192532053978598,1.001659361938067,0.003734794736443,-2.218916822059093,2.217470859401368,0.000024342956749,-1.576095406209127,0.000011920928955,-1.570736233388082,-0.000023667012350,0.000491353217512
369,1774923138400,0.004773020794885,-0.192532048829536,1.001659353384179,0.003695114752070,-2.218874432691286,2.217428853770260,0.000024342956749,-1.576107803975241,0.000023841857910,-1.570748154317037,-0.000083748494283,0.000479369016830
370,1774923138411,0.004774762161864,-0.192532104047358,1.001659342127424,0.003733902748833,-2.218868836584993,2.217423114334458,0.000012358732420,-1.576083485280172,-0.000023667012350,-1.570760075245992,-0.000059906636373,0.000491353217512
371,1774923138422,0.004745666437507,-0.192532113855165,1.001659475569645,0.003814210880995,-2.218844729845698,2.217398577213199,0.000012358732420,-1.576083485280172,0.000035762786865,-1.570748154317037,-0.000047985707418,0.000359526748070
372,1774923138432,0.004798974969687,-0.192532038856468,1.001659228983184,0.003840920122943,-2.218808568767939,2.217362987851547,0.000024342956749,-1.576119724904196,-0.000011746083395,-1.570724312459127,-0.000083748494283,0.000371510977857
373,1774923138442,0.004736950328977,-0.192532162396747,1.001659507787290,0.003721178031390,-2.218838532202718,2.217392601054238,0.000000000000000,-1.576083485280172,0.000035762786865,-1.570712391530172,-0.000083748494283,0.000359526748070
374,1774923138452,0.004752252139151,-0.192532053202054,1.001659454400717,0.003841424838537,-2.218880772159882,2.217434509369327,0.000024342956749,-1.576083485280172,0.000023841857910,-1.570700470601217,-0.000011746083395,0.000347542518284
375,1774923138463,0.004764653874651,-0.192532159886984,1.001659369694109,0.003947376308016,-2.218760343880940,2.217314118397592,0.000000000000000,-1.576107803975241,0.000023841857910,-1.570688549672262,-0.000059906636373,0.000191747603822
376,1774923138474,0.004766386435584,-0.192532045708540,1.001659389106132,0.004159631353717,-2.218664887414278,2.217218692745173,0.000024342956749,-1.576095406209127,0.000011920928955,-1.570736233388082,-0.000083748494283,0.000047936900955
377,1774923138484,0.004746336222142,-0.192532162052444,1.001659466400358,0.004318854393281,-2.218617136881086,2.217170273972268,0.000000000000000,-1.576071564351217,0.000000000000000,-1.570700470601217,-0.000035587941305,-0.000119511281149
378,1774923138495,0.004764915897801,-0.192532275970023,1.001659351526501,0.004756985585326,-2.218371297268183,2.216923882765479,-0.000023667012350,-1.576095406209127,0.000000000000000,-1.570736233388082,-0.000059906636373,-0.000503365193502
379,1774923138505,0.004744154933983,-0.192532041670808,1.001659505540913,0.004571240119695,-2.218479166163262,2.217032390880374,0.000024342956749,-1.576059643422262,-0.000011746083395,-1.570724312459127,-0.000083748494283,-0.000347439442770
380,1774923138516,0.004762104244084,-0.192532106287605,1.001659400915720,0.004876238934913,-2.218353382303329,2.216906048542698,0.000012358732420,-1.576083485280172,0.000000000000000,-1.570748154317037,-0.000059906636373,-0.000574890767233
381,1774923138526,0.004774417514747,-0.192532175040696,1.001659320655626,0.004956619199109,-2.218341099277787,2.216893393743877,0.000000000000000,-1.576107803975241,0.000023841857910,-1.570760075245992,-0.000023667012350,-0.000611130391256
382,1774923138537,0.004775191259823,-0.192531988091843,1.001659357033153,0.004743851587202,-2.218449007341003,2.217002010664713,0.000036327182897,-1.576095406209127,0.000000000000000,-1.570712391530172,-0.000047985707418,-0.000443283711569
383,1774923138547,0.004762153147398,-0.192532045882789,1.001659411801143,0.004890095030019,-2.218359094521904,2.216911829241956,0.000024342956749,-1.576083485280172,0.000000000000000,-1.570724312459127,-0.000059906636373,-0.000599209462301
384,1774923138558,0.004764798019035,-0.192532217425736,1.001659370028741,0.004836655666618,-2.218371568991040,2.216924098895006,-0.000011746083395,-1.576071564351217,-0.000035587941305,-1.570736233388082,-0.000035587941305,-0.000527207051412
385,1774923138569,0.004766084638609,-0.192532049210085,1.001659385519477,0.004664936575707,-2.218436856703828,2.216989931644918,0.000024342956749,-1.576107803975241,0.000035762786865,-1.570736233388082,-0.000083748494283,-0.000419441853658
386,1774923138579,0.004741442000736,-0.192532107189442,1.001659497084971,0.004584571955591,-2.218473216597758,2.217026159994086,0.000012358732420,-1.576083485280172,0.000035762786865,-1.570724312459127,-0.000071827565328,-0.000383202229635
387,1774923138589,0.004751328121841,-0.192532158495540,1.001659445551665,0.004597069560926,-2.218455166423700,2.217008162437951,0.000000000000000,-1.576071564351217,-0.000011746083395,-1.570724312459127,-0.000071827565328,-0.000371281300680
388,1774923138599,0.004740907162245,-0.192532041773707,1.001659514858962,0.004557782478082,-2.218509228149110,2.217062288137955,0.000024342956749,-1.576071564351217,0.000011920928955,-1.570676151906149,-0.000059906636373,-0.000371281300680
389,1774923138610,0.004755168128474,-0.192532277721161,1.001659400915720,0.004623825073289,-2.218431428965963,2.216984154543703,-0.000023667012350,-1.576083485280172,0.000000000000000,-1.570748154317037,-0.000059906636373,-0.000383202229635
390,1774923138620,0.004754816877539,-0.192532061844249,1.001659437645012,0.004677206298207,-2.218491623683663,2.217044312905314,0.000024342956749,-1.576095406209127,0.000048160552979,-1.570748154317037,-0.000023667012350,-0.000383202229635
391,1774923138630,0.004734192114327,-0.192532064621767,1.001659541300828,0.004677212930060,-2.218491668090500,2.217044274430441,0.000024342956749,-1.576071564351217,0.000048160552979,-1.570760075245992,-0.000023667012350,-0.000395123158590
392,1774923138641,0.004776164672454,-0.192532050320245,1.001659340506001,0.004690915990702,-2.218473371063819,2.217026300390776,0.000024342956749,-1.576095406209127,0.000000000000000,-1.570736233388082,-0.000035587941305,-0.000371281300680
393,1774923138652,0.004757222303156,-0.192532049598798,1.001659433001281,0.004598475356015,-2.218515183751558,2.217068132259360,0.000024342956749,-1.576083485280172,0.000011920928955,-1.570712391530172,-0.000035587941305,-0.000335518513815
394,1774923138663,0.004784394174963,-0.192532157602731,1.001659278703444,0.004584360484029,-2.218460812448640,2.217013959028692,0.000000000000000,-1.576107803975241,-0.000011746083395,-1.570724312459127,-0.000071827565328,-0.000323597584860
395,1774923138673,0.004736987810489,-0.192532164037205,1.001659515609747,0.004557622040877,-2.218473008659065,2.217025970005138,0.000000000000000,-1.576059643422262,0.000000000000000,-1.570748154317037,-0.000071827565328,-0.000335518513815
396,1774923138684,0.004765421336375,-0.192532100975593,1.001659385466504,0.004610837452906,-2.218485164000586,2.217038165716021,0.000012358732420,-1.576083485280172,-0.000011746083395,-1.570712391530172,-0.000047985707418,-0.000347439442770
397,1774923138694,0.004737093057950,-0.192532117698516,1.001659519023487,0.004585108864970,-2.218496868081969,2.217049671433248,0.000012358732420,-1.576071564351217,0.000035762786865,-1.570772473012106,-0.000047985707418,-0.000323597584860
398,1774923138704,0.004751930671654,-0.192532063456049,1.001659453965494,0.004544949189703,-2.218575064795854,2.217127818937683,0.000024342956749,-1.576083485280172,0.000035762786865,-1.570748154317037,0.000000000000000,-0.000239674245016
399,1774923138714,0.004792434334501,-0.192532096477799,1.001659251771315,0.004371930232440,-2.218580952591958,2.217134464688915,0.000012358732420,-1.576107803975241,-0.000023667012350,-1.570712391530172,-0.000059906636373,-0.000107590352194
400,1774923138725,0.004745319703284,-0.192532212649099,1.001659459992178,0.004026870753709,-2.218676906090598,2.217230642226971,-0.000011746083395,-1.576083485280172,0.000011920928955,-1.570712391530172,-0.000095669423239,0.000083889579400
401,1774923138736,0.004796281670243,-0.192531995468969,1.001659249501907,0.004093789371663,-2.218730363954236,2.217284317093520,0.000036327182897,-1.576119724904196,0.000011920928955,-1.570772473012106,-0.000059906636373,0.000203731833608
402,1774923138747,0.004779393527521,-0.192532171535996,1.001659299138481,0.003894071714757,-2.218796238720675,2.217350094677433,0.000000000000000,-1.576107803975241,0.000011920928955,-1.570772473012106,-0.000047985707418,0.000347542518284
403,1774923138757,0.004779685993381,-0.192532105569765,1.001659314151566,0.003733926751844,-2.218880796725616,2.217434996420401,0.000012358732420,-1.576095406209127,-0.000011746083395,-1.570748154317037,-0.000047985707418,0.000491353217512
404,1774923138767,0.004788618610095,-0.192532164320601,1.001659256884687,0.003614366280844,-2.218922368590681,2.217476688854744,0.000000000000000,-1.576107803975241,-0.000011746083395,-1.570748154317037,-0.000047985707418,0.000599211256485
405,1774923138778,0.004775098706113,-0.192532102363610,1.001659332113885,0.003642013760152,-2.218910356419944,2.217464676892770,0.000012358732420,-1.576107803975241,0.000011920928955,-1.570712391530172,-0.000059906636373,0.000515321677085
406,1774923138788,0.004774222868414,-0.192532208712787,1.001659319941028,0.003481681237570,-2.218958593105720,2.217513071603717,-0.000011746083395,-1.576095406209127,-0.000023667012350,-1.570688549672262,-0.000059906636373,0.000635163916741
407,1774923138798,0.004744630191491,-0.192532169140110,1.001659464660522,0.003495175308465,-2.218988783919774,2.217542877238556,0.000000000000000,-1.576095406209127,0.000048160552979,-1.570700470601217,-0.000035587941305,0.000599211256485
408,1774923138809,0.004790356423961,-0.192532042735971,1.001659273197670,0.003707983030088,-2.218868538909253,2.217423098615267,0.000024342956749,-1.576107803975241,-0.000011746083395,-1.570748154317037,-0.000083748494283,0.000503337476403
409,1774923138819,0.004724219500404,-0.192532104390531,1.001659584872238,0.003442656541340,-2.219000423606016,2.217554775751271,0.000012358732420,-1.576059643422262,0.000023841857910,-1.570700470601217,-0.000059906636373,0.000623179716058
410,1774923138830,0.004771113058576,-0.192532213950845,1.001659335853467,0.003534658482511,-2.218898796081592,2.217453372314948,-0.000011746083395,-1.576095406209127,-0.000011746083395,-1.570748154317037,-0.000095669423239,0.000599211256485
411,1774923138841,0.004792792919156,-0.192532056363351,1.001659248416193,0.003801664099230,-2.218886627878639,2.217440608813500,0.000024342956749,-1.576131645833151,0.000035762786865,-1.570736233388082,-0.000023667012350,0.000443416327471
