YU-l2025/UR5-MoveDataCollecting/upload/数据集/robot_data4.22_2.csv
global_index,timestamp_ms,tcp_x,tcp_y,tcp_z,tcp_rx,tcp_ry,tcp_rz,joint_q1,joint_q2,joint_q3,joint_q4,joint_q5,joint_q6
0,1776828905059,0.118504809164334,-0.151740903956130,1.001670956053593,-0.632386128906586,1.840868846754067,-1.839737647652903,0.663182675838470,-1.570808235798971,-0.000023667012350,-1.570783917103903,0.000047936900955,0.000095873801911
1,1776828905070,0.118481215747233,-0.151759329471238,1.001670946205776,-0.632335529340477,1.840899439597813,-1.839760858475324,0.663170695304871,-1.570796314870016,0.000000000000000,-1.570760075245992,0.000011984225239,0.000047936900955
2,1776828905080,0.118479362867536,-0.151760767857354,1.001670950102719,-0.632300204030534,1.840868263381538,-1.839684320064946,0.663194656372070,-1.570772473012106,-0.000035587941305,-1.570712391530172,0.000035952674807,0.000083889579400
3,1776828905091,0.118456742487881,-0.151778443507344,1.001670940025086,-0.632257513307562,1.840921878611827,-1.839753037293084,0.663123130798340,-1.570772473012106,0.000000000000000,-1.570748154317037,0.000023968450478,0.000059921127104
4,1776828905102,0.118450468162447,-0.151783344282522,1.001670929986052,-0.632150802626299,1.840898249844277,-1.839646295524077,0.663170695304871,-1.570772473012106,0.000023841857910,-1.570700470601217,0.000011984225239,0.000119842254207
5,1776828905113,0.118444337767808,-0.151788140242074,1.001670928989199,-0.632226916953579,1.840906517912058,-1.839707111871894,0.663170695304871,-1.570760075245992,0.000023841857910,-1.570748154317037,0.000000000000000,0.000071905349614
6,1776828905123,0.118462179767893,-0.151774196695053,1.001670939080687,-0.632246723310383,1.840891138970823,-1.839692110626077,0.663170695304871,-1.570772473012106,0.000000000000000,-1.570724312459127,0.000023968450478,0.000083889579400
7,1776828905133,0.118467249084806,-0.151770256901046,1.001670935702751,-0.632314189980918,1.840906874710560,-1.839760845207543,0.663135111331940,-1.570796314870016,0.000035762786865,-1.570808235798971,0.000035952674807,0.000071905349614
8,1776828905144,0.118436099350636,-0.151794592409552,1.001670920462447,-0.632256315025113,1.840883368792461,-1.839683868287403,0.663135111331940,-1.570760075245992,0.000048160552979,-1.570772473012106,0.000071905349614,0.000071905349614
9,1776828905155,0.118439445402362,-0.151791961297097,1.001670923103188,-0.632158516185269,1.840921294477833,-1.839691623360051,0.663147091865540,-1.570772473012106,0.000048160552979,-1.570736233388082,0.000000000000000,0.000095873801911
10,1776828905166,0.118461584194491,-0.151774681100059,1.001670930059436,-0.632235594178951,1.840860237486051,-1.839630531654403,0.663170695304871,-1.570783917103903,0.000035762786865,-1.570748154317037,0.000071905349614,0.000131826483994
11,1776828905176,0.118483643645221,-0.151757424536357,1.001670948124227,-0.632282069865098,1.840921993899500,-1.839768329792810,0.663147091865540,-1.570808235798971,0.000000000000000,-1.570736233388082,0.000000000000000,0.000059921127104
12,1776828905186,0.118470711600474,-0.151767543964196,1.001670937192236,-0.632268924674207,1.840883358523840,-1.839691799455938,0.663147091865540,-1.570796314870016,0.000023841857910,-1.570748154317037,0.000059921127104,0.000095873801911
13,1776828905196,0.118469165379349,-0.151768743092124,1.001670941318998,-0.632280865900249,1.840883399720183,-1.839699196433748,0.663147091865540,-1.570783917103903,0.000000000000000,-1.570724312459127,0.000059921127104,0.000071905349614
14,1776828905207,0.118473860914355,-0.151765079492948,1.001670942981582,-0.632305074157494,1.840883809354821,-1.839714642532944,0.663170695304871,-1.570783917103903,0.000000000000000,-1.570760075245992,0.000035952674807,0.000083889579400
15,1776828905218,0.118454119807170,-0.151780498556293,1.001670937406429,-0.632236391526388,1.840898823797183,-1.839699376127576,0.663158714771271,-1.570760075245992,0.000000000000000,-1.570760075245992,0.000023968450478,0.000107858024421
16,1776828905228,0.118444636166360,-0.151787911382447,1.001670927300702,-0.632216422906736,1.840875547308522,-1.839645929892561,0.663158714771271,-1.570760075245992,0.000023841857910,-1.570724312459127,0.000059921127104,0.000095873801911
17,1776828905238,0.118476721602574,-0.151762842544764,1.001670939193600,-0.632246933194236,1.840890907793284,-1.839691850144272,0.663147091865540,-1.570808235798971,0.000023841857910,-1.570724312459127,0.000047936900955,0.000095873801911
18,1776828905249,0.118446598906090,-0.151786376366994,1.001670927019733,-0.632172822281328,1.840929108833443,-1.839714185406201,0.663123130798340,-1.570783917103903,0.000048160552979,-1.570760075245992,0.000011984225239,0.000107858024421
19,1776828905259,0.118475397877803,-0.151763880973880,1.001670941712426,-0.632296156170722,1.840891247166242,-1.839722364851889,0.663147091865540,-1.570796314870016,0.000011920928955,-1.570760075245992,0.000047936900955,0.000083889579400
20,1776828905269,0.118460862249714,-0.151775246776137,1.001670932932714,-0.632287966838909,1.840868318655168,-1.839676669198536,0.663182675838470,-1.570772473012106,0.000023841857910,-1.570783917103903,0.000047936900955,0.000107858024421
21,1776828905280,0.118464865155444,-0.151772109480454,1.001670932794287,-0.632232298248053,1.840921755987380,-1.839737409139092,0.663123130798340,-1.570808235798971,0.000048160552979,-1.570760075245992,0.000023968450478,0.000083889579400
22,1776828905290,0.118477055142201,-0.151762582366522,1.001670941096821,-0.632279415197526,1.840914306767025,-1.839752990852056,0.663147091865540,-1.570808235798971,0.000023841857910,-1.570760075245992,0.000011984225239,0.000071905349614
23,1776828905300,0.118467481390853,-0.151770059121512,1.001670937273961,-0.632252259145751,1.840906406717316,-1.839722459189750,0.663147091865540,-1.570796314870016,0.000023841857910,-1.570736233388082,0.000023968450478,0.000071905349614
24,1776828905311,0.118457474850081,-0.151777880469182,1.001670936292558,-0.632261892289878,1.840898768659318,-1.839714755103951,0.663147091865540,-1.570772473012106,0.000011920928955,-1.570760075245992,0.000035952674807,0.000083889579400
25,1776828905321,0.118483409247652,-0.151757619888479,1.001670937444301,-0.632253751757667,1.840875740991718,-1.839669154498780,0.663170695304871,-1.570820156727926,0.000035762786865,-1.570712391530172,0.000047936900955,0.000095873801911
26,1776828905332,0.118447665290681,-0.151785532987157,1.001670929874333,-0.632178474725040,1.840905924741881,-1.839676676451770,0.663147091865540,-1.570772473012106,0.000023841857910,-1.570700470601217,0.000023968450478,0.000083889579400
27,1776828905342,0.118442658012573,-0.151789457211908,1.001670922212569,-0.632209458201958,1.840890971588209,-1.839668917462839,0.663158714771271,-1.570772473012106,0.000048160552979,-1.570724312459127,0.000035952674807,0.000071905349614
28,1776828905353,0.118469281800509,-0.151768650534939,1.001670936302640,-0.632271513443492,1.840891310441695,-1.839707451692799,0.663170695304871,-1.570796314870016,0.000023841857910,-1.570712391530172,0.000023968450478,0.000047936900955
29,1776828905364,0.118463819991037,-0.151772926122755,1.001670934610334,-0.632255859317960,1.840883516844727,-1.839684100105131,0.663170695304871,-1.570783917103903,0.000023841857910,-1.570748154317037,0.000035952674807,0.000095873801911
30,1776828905374,0.118457315434607,-0.151778008425621,1.001670929906791,-0.632256010295972,1.840883531407222,-1.839684148604818,0.663158714771271,-1.570783917103903,0.000035762786865,-1.570736233388082,0.000047936900955,0.000071905349614
31,1776828905385,0.118478189163808,-0.151761682930309,1.001670948124227,-0.632265334799145,1.840945048443174,-1.839798937963721,0.663111150264740,-1.570808235798971,0.000000000000000,-1.570736233388082,0.000000000000000,0.000047936900955
32,1776828905395,0.118455132657418,-0.151779716810533,1.001670924541363,-0.632234315513149,1.840890904394193,-1.839683937553425,0.663147091865540,-1.570796314870016,0.000060081481934,-1.570736233388082,0.000047936900955,0.000071905349614
33,1776828905406,0.118435437703916,-0.151795104247778,1.001670914170452,-0.632221896707974,1.840891101880767,-1.839676582597406,0.663170695304871,-1.570772473012106,0.000072002410889,-1.570736233388082,0.000023968450478,0.000047936900955
34,1776828905417,0.118441280566887,-0.151790528235712,1.001670921864282,-0.632185405042218,1.840929202973641,-1.839721931402222,0.663135111331940,-1.570783917103903,0.000060081481934,-1.570736233388082,0.000000000000000,0.000059921127104
35,1776828905427,0.118478128805950,-0.151761755928816,1.001670943715319,-0.632386546667712,1.840868924217204,-1.839737800069324,0.663170695304871,-1.570783917103903,0.000000000000000,-1.570796314870016,0.000059921127104,0.000059921127104
36,1776828905438,0.118452184312126,-0.151782011876038,1.001670925586161,-0.632186826681510,1.840898531032765,-1.839668604602546,0.663182675838470,-1.570783917103903,0.000048160552979,-1.570724312459127,0.000000000000000,0.000095873801911
37,1776828905448,0.118468607997985,-0.151769176768847,1.001670942747989,-0.632301061555310,1.840906711310648,-1.839752716418862,0.663147091865540,-1.570783917103903,0.000000000000000,-1.570748154317037,0.000023968450478,0.000047936900955
38,1776828905458,0.118437833050974,-0.151793222339436,1.001670924073153,-0.632202347627560,1.840906368062064,-1.839691851798337,0.663158714771271,-1.570760075245992,0.000035762786865,-1.570736233388082,0.000011984225239,0.000071905349614
39,1776828905468,0.118473591621167,-0.151765270189562,1.001670950867143,-0.632236203854137,1.840967789022074,-1.839821498860750,0.663111150264740,-1.570796314870016,-0.000011746083395,-1.570760075245992,-0.000035587941305,0.000071905349614
40,1776828905479,0.118462371649991,-0.151774053604361,1.001670935610355,-0.632276127880534,1.840906822647969,-1.839737654327369,0.663170695304871,-1.570783917103903,0.000023841857910,-1.570760075245992,0.000000000000000,0.000059921127104
41,1776828905489,0.118484321300245,-0.151756903315301,1.001670944535423,-0.632286159121359,1.840899112470376,-1.839730275999518,0.663170695304871,-1.570808235798971,0.000011920928955,-1.570748154317037,0.000011984225239,0.000083889579400
42,1776828905500,0.118465030900518,-0.151771967121937,1.001670937112717,-0.632220572628039,1.840921633596929,-1.839730153004653,0.663147091865540,-1.570796314870016,0.000023841857910,-1.570724312459127,0.000000000000000,0.000071905349614
43,1776828905511,0.118476739817726,-0.151762834849741,1.001670933632144,-0.632268576098654,1.840883356859730,-1.839691561453858,0.663147091865540,-1.570820156727926,0.000048160552979,-1.570724312459127,0.000059921127104,0.000071905349614
44,1776828905522,0.118444557248898,-0.151787981860770,1.001670917841524,-0.632208893479196,1.840891007582589,-1.839668569160399,0.663170695304871,-1.570783917103903,0.000072002410889,-1.570748154317037,0.000023968450478,0.000083889579400
45,1776828905533,0.118471695830893,-0.151766774108397,1.001670937374632,-0.632305714650162,1.840883833280019,-1.839714995653523,0.663158714771271,-1.570796314870016,0.000023841857910,-1.570748154317037,0.000047936900955,0.000059921127104
46,1776828905544,0.118445596772059,-0.151787156905243,1.001670925861436,-0.632195029515253,1.840921523823066,-1.839714249747729,0.663123130798340,-1.570783917103903,0.000048160552979,-1.570736233388082,0.000023968450478,0.000071905349614
47,1776828905555,0.118447149301849,-0.151785956651405,1.001670923736786,-0.632243656715951,1.840883496072163,-1.839676472498595,0.663170695304871,-1.570772473012106,0.000048160552979,-1.570760075245992,0.000035952674807,0.000083889579400
48,1776828905566,0.118457265944596,-0.151778052071621,1.001670926479284,-0.632264337740105,1.840906797309404,-1.839730305074144,0.663158714771271,-1.570796314870016,0.000060081481934,-1.570772473012106,0.000011984225239,0.000059921127104
49,1776828905577,0.118467444998112,-0.151770090781715,1.001670938191437,-0.632254774084620,1.840914156876554,-1.839737697360694,0.663135111331940,-1.570796314870016,0.000023841857910,-1.570760075245992,0.000023968450478,0.000083889579400
50,1776828905588,0.118448067081010,-0.151785224754567,1.001670922951694,-0.632206030126794,1.840883188469401,-1.839653111625057,0.663158714771271,-1.570783917103903,0.000048160552979,-1.570676151906149,0.000047936900955,0.000047936900955
51,1776828905599,0.118450714077213,-0.151783178551304,1.001670917842281,-0.632246807890187,1.840891277780932,-1.839692073889656,0.663170695304871,-1.570796314870016,0.000083923339844,-1.570772473012106,0.000023968450478,0.000071905349614
52,1776828905610,0.118481861759715,-0.151758812190134,1.001670947186552,-0.632245135505627,1.840921736583123,-1.839745435065875,0.663147091865540,-1.570808235798971,0.000000000000000,-1.570712391530172,0.000000000000000,0.000071905349614
53,1776828905620,0.118465379466433,-0.151771711856238,1.001670934270044,-0.632275258539676,1.840868202489800,-1.839668785500414,0.663170695304871,-1.570783917103903,0.000023841857910,-1.570748154317037,0.000059921127104,0.000095873801911
54,1776828905630,0.118461636450583,-0.151774638404203,1.001670930255615,-0.632286612238998,1.840898972653624,-1.839730047954591,0.663147091865540,-1.570796314870016,0.000048160552979,-1.570772473012106,0.000035952674807,0.000059921127104
55,1776828905641,0.118469513515806,-0.151768490573307,1.001670933685871,-0.632313465544305,1.840868243778722,-1.839692049537546,0.663147091865540,-1.570796314870016,0.000035762786865,-1.570772473012106,0.000083889579400,0.000083889579400
56,1776828905651,0.118462126537833,-0.151774242495908,1.001670933403745,-0.632242635812981,1.840914084900477,-1.839730136105907,0.663147091865540,-1.570796314870016,0.000035762786865,-1.570736233388082,0.000011984225239,0.000059921127104
57,1776828905662,0.118463894710275,-0.151772870969725,1.001670936138119,-0.632298042429526,1.840899258070992,-1.839737577980228,0.663158714771271,-1.570783917103903,0.000023841857910,-1.570783917103903,0.000023968450478,0.000071905349614
58,1776828905672,0.118466442866075,-0.151770871322695,1.001670937103342,-0.632239900091020,1.840906324110706,-1.839714799645988,0.663135111331940,-1.570796314870016,0.000023841857910,-1.570736233388082,0.000035952674807,0.000083889579400
59,1776828905682,0.118468372333600,-0.151769365294645,1.001670937739430,-0.632252185676272,1.840906412085781,-1.839722425486259,0.663147091865540,-1.570796314870016,0.000023841857910,-1.570748154317037,0.000023968450478,0.000083889579400
60,1776828905693,0.118474280376799,-0.151764749945141,1.001670936211094,-0.632249304591101,1.840898902430726,-1.839707387100986,0.663170695304871,-1.570808235798971,0.000035762786865,-1.570736233388082,0.000011984225239,0.000083889579400
61,1776828905703,0.118480914115110,-0.151759572947634,1.001670935892688,-0.632285743913030,1.840899163251703,-1.839729981958661,0.663182675838470,-1.570820156727926,0.000048160552979,-1.570760075245992,0.000000000000000,0.000071905349614
62,1776828905714,0.118476805647489,-0.151762786869809,1.001670937821576,-0.632323174338590,1.840899416491810,-1.839753170552642,0.663158714771271,-1.570808235798971,0.000035762786865,-1.570783917103903,0.000023968450478,0.000059921127104
63,1776828905724,0.118444189961552,-0.151788258328983,1.001670929347318,-0.632239204922486,1.840906605011011,-1.839714727001761,0.663158714771271,-1.570760075245992,0.000023841857910,-1.570760075245992,0.000011984225239,0.000071905349614
64,1776828905735,0.118436563212667,-0.151794225363254,1.001670921048782,-0.632236623905791,1.840898913300162,-1.839699421361897,0.663158714771271,-1.570760075245992,0.000048160552979,-1.570772473012106,0.000023968450478,0.000071905349614
65,1776828905745,0.118449104440063,-0.151784425924730,1.001670927945339,-0.632222303816002,1.840890823426252,-1.839676521683102,0.663147091865540,-1.570772473012106,0.000035762786865,-1.570760075245992,0.000047936900955,0.000107858024421
66,1776828905755,0.118447675016778,-0.151785532977610,1.001670926868955,-0.632212532608583,1.840898694183196,-1.839684518882758,0.663170695304871,-1.570772473012106,0.000035762786865,-1.570724312459127,0.000011984225239,0.000071905349614
67,1776828905765,0.118481572837816,-0.151759060638033,1.001670939185007,-0.632286453982926,1.840898916846909,-1.839730015726835,0.663135111331940,-1.570820156727926,0.000035762786865,-1.570760075245992,0.000047936900955,0.000083889579400
68,1776828905776,0.118485970834457,-0.151755625054770,1.001670938159181,-0.632312745331117,1.840868423071358,-1.839692045665711,0.663170695304871,-1.570820156727926,0.000035762786865,-1.570736233388082,0.000059921127104,0.000071905349614
69,1776828905786,0.118476628749161,-0.151762921868397,1.001670938853679,-0.632330775796410,1.840884011290492,-1.839730558247560,0.663194656372070,-1.570796314870016,0.000023841857910,-1.570772473012106,0.000011984225239,0.000059921127104
70,1776828905797,0.118433965942814,-0.151796247891646,1.001670920124020,-0.632177138873688,1.840906226511337,-1.839676224395685,0.663158714771271,-1.570760075245992,0.000048160552979,-1.570748154317037,0.000011984225239,0.000095873801911
71,1776828905808,0.118487510982630,-0.151754401866304,1.001670945232968,-0.632239595268429,1.840906487169564,-1.839715079875390,0.663158714771271,-1.570820156727926,0.000011920928955,-1.570700470601217,0.000011984225239,0.000083889579400
72,1776828905818,0.118449233720384,-0.151784318778737,1.001670925861436,-0.632226787090265,1.840906292856857,-1.839706600438547,0.663147091865540,-1.570783917103903,0.000048160552979,-1.570736233388082,0.000023968450478,0.000059921127104
73,1776828905829,0.118479790935676,-0.151760448270410,1.001670938341577,-0.632274240346185,1.840898823357063,-1.839722429615542,0.663135111331940,-1.570820156727926,0.000035762786865,-1.570736233388082,0.000047936900955,0.000071905349614
74,1776828905839,0.118477039305030,-0.151762602660658,1.001670936762109,-0.632344581847789,1.840853198053986,-1.839684417256524,0.663194656372070,-1.570796314870016,0.000023841857910,-1.570736233388082,0.000059921127104,0.000047936900955
75,1776828905850,0.118438371388329,-0.151792808930697,1.001670924683197,-0.632261633259668,1.840898821058845,-1.839714504787369,0.663135111331940,-1.570760075245992,0.000035762786865,-1.570760075245992,0.000047936900955,0.000047936900955
76,1776828905861,0.118440012702244,-0.151791527856995,1.001670918548403,-0.632221820275830,1.840891081109247,-1.839676562724006,0.663170695304871,-1.570772473012106,0.000060081481934,-1.570736233388082,0.000023968450478,0.000059921127104
77,1776828905871,0.118451653159700,-0.151782436735024,1.001670921091325,-0.632224328203843,1.840898817257745,-1.839691814247078,0.663158714771271,-1.570796314870016,0.000072002410889,-1.570748154317037,0.000023968450478,0.000071905349614
78,1776828905881,0.118473353080280,-0.151765475481976,1.001670936688343,-0.632288974120532,1.840906893740685,-1.839745621043199,0.663158714771271,-1.570808235798971,0.000035762786865,-1.570748154317037,0.000011984225239,0.000047936900955
79,1776828905892,0.118452682196168,-0.151781624848290,1.001670924291120,-0.632214989641482,1.840906213946765,-1.839699285074588,0.663147091865540,-1.570796314870016,0.000060081481934,-1.570724312459127,0.000023968450478,0.000059921127104
80,1776828905903,0.118459569004735,-0.151776242599353,1.001670935428421,-0.632266720256420,1.840914251175256,-1.839745071844614,0.663147091865540,-1.570783917103903,0.000023841857910,-1.570760075245992,0.000011984225239,0.000059921127104
81,1776828905914,0.118474008473331,-0.151764961089229,1.001670942747989,-0.632305146191740,1.840883803791490,-1.839714682119760,0.663182675838470,-1.570783917103903,0.000000000000000,-1.570748154317037,0.000023968450478,0.000071905349614
82,1776828905925,0.118458259394365,-0.151777268003162,1.001670929632550,-0.632266868258630,1.840914273337097,-1.839745124798775,0.663147091865540,-1.570796314870016,0.000048160552979,-1.570748154317037,0.000011984225239,0.000035952674807
83,1776828905936,0.118477251822915,-0.151762439886099,1.001670935776353,-0.632312751553757,1.840868442902280,-1.839692026553956,0.663158714771271,-1.570808235798971,0.000035762786865,-1.570748154317037,0.000071905349614,0.000071905349614
84,1776828905946,0.118469263621433,-0.151768674498323,1.001670931690444,-0.632258590633552,1.840891263135787,-1.839699438960605,0.663158714771271,-1.570808235798971,0.000048160552979,-1.570736233388082,0.000035952674807,0.000071905349614
85,1776828905957,0.118463513726566,-0.151773175154139,1.001670930661923,-0.632284959744036,1.840860571669563,-1.839661119874360,0.663182675838470,-1.570783917103903,0.000035762786865,-1.570760075245992,0.000059921127104,0.000095873801911
86,1776828905967,0.118477251822915,-0.151762439886099,1.001670935776353,-0.632325111791990,1.840868524690857,-1.839699680617961,0.663158714771271,-1.570808235798971,0.000035762786865,-1.570748154317037,0.000071905349614,0.000059921127104
87,1776828905978,0.118465614773968,-0.151771526170800,1.001670934659109,-0.632277327430616,1.840906611665074,-1.839737990702309,0.663147091865540,-1.570796314870016,0.000035762786865,-1.570772473012106,0.000023968450478,0.000071905349614
88,1776828905988,0.118485182044252,-0.151756233059441,1.001670941167656,-0.632268988207486,1.840883312860729,-1.839691860413708,0.663147091865540,-1.570820156727926,0.000023841857910,-1.570712391530172,0.000059921127104,0.000083889579400
89,1776828905999,0.118440283504520,-0.151791314291909,1.001670924335172,-0.632234033684535,1.840891140893523,-1.839684158458660,0.663158714771271,-1.570760075245992,0.000035762786865,-1.570748154317037,0.000035952674807,0.000071905349614
90,1776828906010,0.118451902426000,-0.151782231939734,1.001670924414149,-0.632180569433341,1.840913706225844,-1.839691633724418,0.663147091865540,-1.570796314870016,0.000060081481934,-1.570724312459127,0.000011984225239,0.000083889579400
91,1776828906020,0.118470260809926,-0.151767886536556,1.001670942113514,-0.632283162366977,1.840891373515708,-1.839714707810473,0.663158714771271,-1.570783917103903,0.000000000000000,-1.570736233388082,0.000035952674807,0.000071905349614
92,1776828906031,0.118446179836233,-0.151786728949579,1.001670915389999,-0.632253285903813,1.840875904058428,-1.839668758339840,0.663182675838470,-1.570783917103903,0.000083923339844,-1.570796314870016,0.000035952674807,0.000095873801911
93,1776828906041,0.118463141972318,-0.151773446878697,1.001670938332841,-0.632239409449502,1.840906315425213,-1.839714500209143,0.663147091865540,-1.570783917103903,0.000011920928955,-1.570736233388082,0.000023968450478,0.000083889579400
94,1776828906052,0.118455804144516,-0.151779181396796,1.001670936009490,-0.632314068129164,1.840906831432953,-1.839760715768383,0.663147091865540,-1.570772473012106,0.000011920928955,-1.570748154317037,0.000023968450478,0.000011984225239
95,1776828906063,0.118471027261210,-0.151767294500219,1.001670938191437,-0.632286241884724,1.840899153366021,-1.839730276530092,0.663158714771271,-1.570796314870016,0.000023841857910,-1.570760075245992,0.000023968450478,0.000071905349614
96,1776828906073,0.118481901671079,-0.151758802567319,1.001670946944067,-0.632348453592900,1.840899313645551,-1.839768475287952,0.663147091865540,-1.570796314870016,0.000000000000000,-1.570796314870016,0.000035952674807,0.000071905349614
97,1776828906084,0.118467268403238,-0.151770232110926,1.001670933086065,-0.632281142529450,1.840883684475859,-1.839699747051690,0.663170695304871,-1.570796314870016,0.000035762786865,-1.570736233388082,0.000035952674807,0.000059921127104
98,1776828906095,0.118448418169021,-0.151784957257846,1.001670927770623,-0.632249467474570,1.840898951226321,-1.839707408593936,0.663158714771271,-1.570772473012106,0.000035762786865,-1.570748154317037,0.000023968450478,0.000059921127104
99,1776828906105,0.118461582998025,-0.151774676953284,1.001670929315812,-0.632283316095123,1.840891447367659,-1.839714733568929,0.663158714771271,-1.570796314870016,0.000048160552979,-1.570748154317037,0.000035952674807,0.000047936900955
100,1776828906116,0.118455173986024,-0.151779690493829,1.001670927182403,-0.632295301891607,1.840852925155596,-1.839653822731230,0.663182675838470,-1.570772473012106,0.000035762786865,-1.570748154317037,0.000071905349614,0.000071905349614
101,1776828906126,0.118483595336280,-0.151757478251971,1.001670939596927,-0.632286161604079,1.840899145024894,-1.839730255910424,0.663158714771271,-1.570820156727926,0.000035762786865,-1.570760075245992,0.000023968450478,0.000083889579400
102,1776828906136,0.118486963929751,-0.151754845405712,1.001670942014448,-0.632330643106662,1.840883734354038,-1.839730062430691,0.663147091865540,-1.570820156727926,0.000023841857910,-1.570736233388082,0.000059921127104,0.000047936900955
103,1776828906147,0.118486871375218,-0.151754920238584,1.001670940890858,-0.632374397849777,1.840868836293847,-1.839730265716111,0.663206636905670,-1.570808235798971,0.000023841857910,-1.570760075245992,0.000023968450478,0.000035952674807
104,1776828906158,0.118463779415805,-0.151772952347982,1.001670932752512,-0.632224737185843,1.840898746669412,-1.839692127396541,0.663158714771271,-1.570796314870016,0.000035762786865,-1.570724312459127,0.000023968450478,0.000083889579400
105,1776828906168,0.118484832717377,-0.151756499383396,1.001670949533091,-0.632335346201758,1.840899412561805,-1.839760760333115,0.663170695304871,-1.570796314870016,-0.000011746083395,-1.570748154317037,0.000011984225239,0.000047936900955
106,1776828906178,0.118477150495270,-0.151762515948036,1.001670937374632,-0.632310088764165,1.840860697884154,-1.839676732396799,0.663194656372070,-1.570796314870016,0.000023841857910,-1.570748154317037,0.000047936900955,0.000083889579400
107,1776828906189,0.118481407872625,-0.151759179545081,1.001670943696732,-0.632311245754564,1.840899042937785,-1.839745377523085,0.663147091865540,-1.570808235798971,0.000011920928955,-1.570736233388082,0.000035952674807,0.000047936900955
108,1776828906200,0.118470868519215,-0.151767425081792,1.001670934006902,-0.632303054236204,1.840876120340037,-1.839699681778067,0.663182675838470,-1.570796314870016,0.000035762786865,-1.570760075245992,0.000035952674807,0.000071905349614
109,1776828906211,0.118467139004772,-0.151770342749368,1.001670927765594,-0.632327433796848,1.840876302126835,-1.839714727066842,0.663158714771271,-1.570808235798971,0.000060081481934,-1.570748154317037,0.000059921127104,0.000023968450478
110,1776828906222,0.118478263042746,-0.151761652575988,1.001670939880495,-0.632379998665289,1.840884354537607,-1.839761066936838,0.663182675838470,-1.570796314870016,0.000023841857910,-1.570808235798971,0.000023968450478,0.000047936900955
111,1776828906232,0.118481702287967,-0.151758952653833,1.001670938070287,-0.632283721292829,1.840891389351742,-1.839715045853705,0.663158714771271,-1.570820156727926,0.000035762786865,-1.570724312459127,0.000035952674807,0.000059921127104
112,1776828906243,0.118481768154456,-0.151758898628612,1.001670942402803,-0.632254765694090,1.840914117076152,-1.839737718500297,0.663123130798340,-1.570820156727926,0.000023841857910,-1.570736233388082,0.000035952674807,0.000083889579400
113,1776828906254,0.118456424499929,-0.151778702262831,1.001670929423961,-0.632231363342993,1.840883361301177,-1.839668874291071,0.663158714771271,-1.570783917103903,0.000035762786865,-1.570724312459127,0.000047936900955,0.000083889579400
114,1776828906265,0.118454808683583,-0.151779976773252,1.001670919593191,-0.632272971188061,1.840860518453300,-1.839653602937732,0.663170695304871,-1.570796314870016,0.000072002410889,-1.570724312459127,0.000071905349614,0.000047936900955
115,1776828906275,0.118482277644903,-0.151758508386877,1.001670937558442,-0.632278690777842,1.840875681745272,-1.839684189314674,0.663147091865540,-1.570820156727926,0.000035762786865,-1.570724312459127,0.000071905349614,0.000083889579400
116,1776828906286,0.118473928405155,-0.151765031174002,1.001670936141142,-0.632308664315508,1.840891350206697,-1.839730072493267,0.663147091865540,-1.570808235798971,0.000035762786865,-1.570748154317037,0.000047936900955,0.000047936900955
117,1776828906297,0.118476665019685,-0.151762909626460,1.001670927957364,-0.632336908687386,1.840868668330903,-1.839706978656376,0.663182675838470,-1.570820156727926,0.000072002410889,-1.570783917103903,0.000047936900955,0.000059921127104
118,1776828906307,0.118472257706740,-0.151766332111040,1.001670935869853,-0.632237236401631,1.840898591054441,-1.839699493567186,0.663147091865540,-1.570808235798971,0.000035762786865,-1.570736233388082,0.000035952674807,0.000095873801911
119,1776828906318,0.118476833058892,-0.151762758761374,1.001670933321139,-0.632293079233450,1.840883744277529,-1.839707137327907,0.663158714771271,-1.570820156727926,0.000048160552979,-1.570712391530172,0.000047936900955,0.000035952674807
120,1776828906328,0.118484018988660,-0.151757150795733,1.001670935019188,-0.632264101088542,1.840906752998455,-1.839730250578316,0.663170695304871,-1.570832077656881,0.000060081481934,-1.570772473012106,0.000000000000000,0.000095873801911
121,1776828906339,0.118473753932314,-0.151765177558778,1.001670933910541,-0.632320516726598,1.840891704584257,-1.839737844683587,0.663158714771271,-1.570808235798971,0.000048160552979,-1.570796314870016,0.000035952674807,0.000071905349614
122,1776828906349,0.118449568032761,-0.151784058534464,1.001670928580700,-0.632239693042658,1.840906614324684,-1.839715037411134,0.663170695304871,-1.570772473012106,0.000035762786865,-1.570760075245992,0.000000000000000,0.000071905349614
123,1776828906359,0.118465017184453,-0.151771983245787,1.001670938980780,-0.632288486682472,1.840906878611151,-1.839745316436539,0.663158714771271,-1.570783917103903,0.000011920928955,-1.570748154317037,0.000011984225239,0.000047936900955
124,1776828906370,0.118495184040042,-0.151748428878158,1.001670943025131,-0.632371660107709,1.840861083238741,-1.839714927843389,0.663194656372070,-1.570820156727926,0.000023841857910,-1.570760075245992,0.000047936900955,0.000059921127104
125,1776828906381,0.118474948954752,-0.151764229564037,1.001670935402703,-0.632293497914027,1.840883746580225,-1.839707414551483,0.663170695304871,-1.570808235798971,0.000035762786865,-1.570724312459127,0.000035952674807,0.000047936900955
126,1776828906391,0.118451795180161,-0.151782327600894,1.001670928418642,-0.632306292238432,1.840883897110894,-1.839715293647434,0.663158714771271,-1.570772473012106,0.000035762786865,-1.570772473012106,0.000047936900955,0.000047936900955
127,1776828906402,0.118470439456488,-0.151767751461065,1.001670935869853,-0.632264618874127,1.840906494998788,-1.839730107251460,0.663135111331940,-1.570808235798971,0.000035762786865,-1.570736233388082,0.000035952674807,0.000059921127104
128,1776828906412,0.118435650097003,-0.151794930497701,1.001670918659651,-0.632193012962474,1.840913823531803,-1.839699294465116,0.663147091865540,-1.570772473012106,0.000060081481934,-1.570736233388082,0.000011984225239,0.000059921127104
129,1776828906423,0.118453732918495,-0.151780804383471,1.001670929906791,-0.632236902912790,1.840898616611955,-1.839699223634986,0.663135111331940,-1.570783917103903,0.000035762786865,-1.570736233388082,0.000047936900955,0.000071905349614
130,1776828906434,0.118499339688338,-0.151745178839549,1.001670945671180,-0.632354846541800,1.840884123041075,-1.839745522279400,0.663170695304871,-1.570832077656881,0.000023841857910,-1.570760075245992,0.000035952674807,0.000059921127104
131,1776828906444,0.118479158637147,-0.151760936846016,1.001670938240907,-0.632264612700387,1.840906475316025,-1.839730126248805,0.663147091865540,-1.570820156727926,0.000035762786865,-1.570724312459127,0.000023968450478,0.000059921127104
132,1776828906455,0.118463400504791,-0.151773261525374,1.001670930255615,-0.632271300435859,1.840891379782050,-1.839707316721207,0.663158714771271,-1.570796314870016,0.000048160552979,-1.570772473012106,0.000035952674807,0.000083889579400
133,1776828906466,0.118476200116271,-0.151763258079339,1.001670942365125,-0.632371253791487,1.840861082761697,-1.839714631956608,0.663170695304871,-1.570783917103903,0.000000000000000,-1.570760075245992,0.000071905349614,0.000047936900955
134,1776828906477,0.118474368634981,-0.151764692596734,1.001670938619584,-0.632342575674857,1.840884095883112,-1.839737855789173,0.663158714771271,-1.570796314870016,0.000023841857910,-1.570783917103903,0.000047936900955,0.000059921127104
135,1776828906488,0.118474966172725,-0.151764222877382,1.001670937207322,-0.632336390729443,1.840899268180548,-1.839760928652120,0.663147091865540,-1.570808235798971,0.000035762786865,-1.570772473012106,0.000035952674807,0.000035952674807
136,1776828906498,0.118496224349134,-0.151747606589326,1.001670942294964,-0.632320764268391,1.840891479075652,-1.839737791181829,0.663206636905670,-1.570832077656881,0.000035762786865,-1.570748154317037,-0.000011746083395,0.000059921127104
137,1776828906509,0.118457303365848,-0.151778016854267,1.001670924414149,-0.632246456329935,1.840891212094919,-1.839691869209021,0.663182675838470,-1.570796314870016,0.000060081481934,-1.570724312459127,0.000011984225239,0.000047936900955
138,1776828906519,0.118463921735138,-0.151772839777948,1.001670938162693,-0.632261469539273,1.840898740504019,-1.839714497033133,0.663147091865540,-1.570783917103903,0.000011920928955,-1.570736233388082,0.000035952674807,0.000071905349614
139,1776828906529,0.118450604860009,-0.151783248883759,1.001670924045071,-0.632214991802721,1.840906212269499,-1.839699274924123,0.663123130798340,-1.570796314870016,0.000060081481934,-1.570724312459127,0.000047936900955,0.000059921127104
140,1776828906540,0.118472511950755,-0.151766135301365,1.001670936318521,-0.632288178383234,1.840868261416922,-1.839676792480086,0.663170695304871,-1.570796314870016,0.000023841857910,-1.570724312459127,0.000059921127104,0.000071905349614
141,1776828906551,0.118487899516607,-0.151754122895110,1.001670939602310,-0.632352758474799,1.840876428091700,-1.839730522077325,0.663170695304871,-1.570820156727926,0.000035762786865,-1.570772473012106,0.000047936900955,0.000059921127104
142,1776828906562,0.118455355024408,-0.151779543367750,1.001670925810295,-0.632214769249767,1.840906230050103,-1.839699183971657,0.663147091865540,-1.570796314870016,0.000060081481934,-1.570760075245992,0.000023968450478,0.000095873801911
143,1776828906572,0.118493944518051,-0.151749392108926,1.001670948089960,-0.632349527346468,1.840868632541683,-1.839714905753367,0.663182675838470,-1.570808235798971,0.000000000000000,-1.570760075245992,0.000047936900955,0.000083889579400
144,1776828906582,0.118461983860485,-0.151774362821339,1.001670936750113,-0.632343219308511,1.840884101703095,-1.839738221148319,0.663170695304871,-1.570772473012106,0.000011920928955,-1.570772473012106,0.000035952674807,0.000035952674807
145,1776828906593,0.118465792506669,-0.151771384013486,1.001670932328281,-0.632242070305570,1.840914093626532,-1.839729791244384,0.663135111331940,-1.570808235798971,0.000048160552979,-1.570748154317037,0.000023968450478,0.000071905349614
146,1776828906603,0.118484166022522,-0.151757042080290,1.001670939093095,-0.632354133869909,1.840845532579474,-1.839676687775210,0.663158714771271,-1.570808235798971,0.000023841857910,-1.570748154317037,0.000107858024421,0.000071905349614
147,1776828906613,0.118475041714965,-0.151764163904322,1.001670937821576,-0.632326126067655,1.840906927458549,-1.839768247546081,0.663147091865540,-1.570808235798971,0.000035762786865,-1.570783917103903,0.000023968450478,0.000047936900955
148,1776828906624,0.118477585403255,-0.151762179760015,1.001670937603834,-0.632320513640436,1.840891677397730,-1.839737859065669,0.663158714771271,-1.570808235798971,0.000035762786865,-1.570783917103903,0.000035952674807,0.000071905349614
149,1776828906635,0.118474618122143,-0.151764488084059,1.001670941918385,-0.632298816795329,1.840898986327116,-1.839737676319341,0.663147091865540,-1.570796314870016,0.000011920928955,-1.570760075245992,0.000035952674807,0.000071905349614
150,1776828906645,0.118463364310238,-0.151773273398495,1.001670939638820,-0.632256943867915,1.840921887390760,-1.839752709412865,0.663147091865540,-1.570783917103903,0.000011920928955,-1.570760075245992,0.000000000000000,0.000071905349614
151,1776828906655,0.118471695830893,-0.151766774108397,1.001670937374632,-0.632243913454054,1.840883422855954,-1.839676725324017,0.663158714771271,-1.570796314870016,0.000023841857910,-1.570748154317037,0.000047936900955,0.000119842254207
152,1776828906666,0.118467941919148,-0.151769703143770,1.001670933336473,-0.632256918384336,1.840921997652125,-1.839752810190467,0.663158714771271,-1.570808235798971,0.000048160552979,-1.570760075245992,-0.000011746083395,0.000059921127104
153,1776828906676,0.118441384040345,-0.151790461886977,1.001670916864589,-0.632206599000913,1.840883030726417,-1.839653048653848,0.663135111331940,-1.570783917103903,0.000072002410889,-1.570736233388082,0.000071905349614,0.000083889579400
154,1776828906687,0.118464465826488,-0.151772421193537,1.001670932927228,-0.632284095223950,1.840891194722103,-1.839714818924086,0.663147091865540,-1.570796314870016,0.000035762786865,-1.570736233388082,0.000047936900955,0.000047936900955
155,1776828906698,0.118460943317848,-0.151775187526730,1.001670928279313,-0.632327216712090,1.840876333940076,-1.839714628608558,0.663194656372070,-1.570783917103903,0.000048160552979,-1.570796314870016,0.000023968450478,0.000059921127104
156,1776828906709,0.118439214466496,-0.151792155231769,1.001670913263756,-0.632171370936506,1.840921443648421,-1.839699549318404,0.663135111331940,-1.570796314870016,0.000095367431641,-1.570760075245992,0.000011984225239,0.000083889579400
157,1776828906719,0.118505341010020,-0.151740491345961,1.001670947213249,-0.632343265084421,1.840883796460693,-1.839737946492420,0.663147091865540,-1.570844475422994,0.000023841857910,-1.570748154317037,0.000059921127104,0.000071905349614
158,1776828906730,0.118488362651865,-0.151753752180526,1.001670940854253,-0.632286522463029,1.840898891256971,-1.839730063117435,0.663135111331940,-1.570832077656881,0.000035762786865,-1.570736233388082,0.000047936900955,0.000071905349614
159,1776828906741,0.118486340655399,-0.151755333073670,1.001670939158382,-0.632305631704808,1.840883825133006,-1.839714986353126,0.663182675838470,-1.570820156727926,0.000035762786865,-1.570748154317037,0.000023968450478,0.000071905349614
160,1776828906751,0.118453548863693,-0.151780960120953,1.001670922005222,-0.632274993761433,1.840868262403560,-1.839668551176031,0.663194656372070,-1.570783917103903,0.000060081481934,-1.570748154317037,0.000035952674807,0.000059921127104
161,1776828906762,0.118463390457162,-0.151773270282472,1.001670924676167,-0.632285178381839,1.840860588218801,-1.839661218186330,0.663206636905670,-1.570796314870016,0.000060081481934,-1.570736233388082,0.000035952674807,0.000059921127104
162,1776828906772,0.118492541149862,-0.151750488588472,1.001670946796030,-0.632370162384146,1.840891709920750,-1.839768247437016,0.663147091865540,-1.570820156727926,0.000011920928955,-1.570760075245992,0.000047936900955,0.000035952674807
163,1776828906783,0.118497771582898,-0.151746409685052,1.001670939590620,-0.632327614198754,1.840876242170454,-1.839714950412636,0.663158714771271,-1.570844475422994,0.000048160552979,-1.570748154317037,0.000059921127104,0.000071905349614
164,1776828906793,0.118496965859580,-0.151747041139665,1.001670943787791,-0.632383873724739,1.840861176053453,-1.839722513981689,0.663194656372070,-1.570820156727926,0.000023841857910,-1.570783917103903,0.000047936900955,0.000071905349614
165,1776828906804,0.118451653159700,-0.151782436735024,1.001670921091325,-0.632261409013557,1.840899064240671,-1.839714776377066,0.663158714771271,-1.570796314870016,0.000072002410889,-1.570748154317037,0.000023968450478,0.000035952674807
166,1776828906815,0.118456785577326,-0.151778426715785,1.001670923922050,-0.632241137179293,1.840875730672135,-1.839661237138228,0.663158714771271,-1.570796314870016,0.000060081481934,-1.570724312459127,0.000059921127104,0.000071905349614
167,1776828906825,0.118471171912645,-0.151767191130967,1.001670925543027,-0.632300195914183,1.840868393936580,-1.839684180929081,0.663170695304871,-1.570820156727926,0.000072002410889,-1.570724312459127,0.000059921127104,0.000035952674807
168,1776828906836,0.118493726398811,-0.151749567730704,1.001670941670760,-0.632342563974796,1.840884062246968,-1.839737882329220,0.663158714771271,-1.570832077656881,0.000035762786865,-1.570760075245992,0.000047936900955,0.000059921127104
169,1776828906847,0.118500743099777,-0.151744084549233,1.001670948080187,-0.632352476925835,1.840876130947170,-1.839729977692435,0.663135111331940,-1.570832077656881,0.000011920928955,-1.570748154317037,0.000083889579400,0.000071905349614
170,1776828906858,0.118476984790170,-0.151762658357555,1.001670932863969,-0.632334174981345,1.840860902954709,-1.839691641403640,0.663170695304871,-1.570808235798971,0.000048160552979,-1.570783917103903,0.000071905349614,0.000083889579400
171,1776828906868,0.118474393038385,-0.151764676955263,1.001670934269807,-0.632335230232444,1.840860896628443,-1.839692297643294,0.663194656372070,-1.570796314870016,0.000035762786865,-1.570772473012106,0.000047936900955,0.000071905349614
172,1776828906879,0.118479915492493,-0.151760359141130,1.001670939861073,-0.632327915382266,1.840876021233054,-1.839714697530196,0.663135111331940,-1.570808235798971,0.000023841857910,-1.570760075245992,0.000083889579400,0.000071905349614
173,1776828906890,0.118471081882685,-0.151767255162658,1.001670931690444,-0.632268289017071,1.840883606147366,-1.839691787252051,0.663170695304871,-1.570808235798971,0.000048160552979,-1.570736233388082,0.000035952674807,0.000071905349614
174,1776828906901,0.118466470079024,-0.151770860097012,1.001670935079854,-0.632313843888756,1.840906859974215,-1.839760613923086,0.663147091865540,-1.570796314870016,0.000035762786865,-1.570783917103903,0.000023968450478,0.000047936900955
175,1776828906911,0.118469629556585,-0.151768398584671,1.001670927728196,-0.632298968798650,1.840899067191616,-1.839737701165031,0.663147091865540,-1.570820156727926,0.000072002410889,-1.570772473012106,0.000035952674807,0.000047936900955
176,1776828906922,0.118473865839721,-0.151765086890252,1.001670933685916,-0.632283016115717,1.840891449317578,-1.839714617643945,0.663170695304871,-1.570808235798971,0.000048160552979,-1.570783917103903,0.000023968450478,0.000095873801911
177,1776828906932,0.118471362229021,-0.151767034206218,1.001670935567371,-0.632285592159405,1.840860515611036,-1.839661509976912,0.663158714771271,-1.570796314870016,0.000023841857910,-1.570712391530172,0.000083889579400,0.000071905349614
178,1776828906943,0.118466470079024,-0.151770860097012,1.001670935079854,-0.632289122921820,1.840906695732343,-1.839745306125279,0.663147091865540,-1.570796314870016,0.000035762786865,-1.570783917103903,0.000023968450478,0.000071905349614
179,1776828906953,0.118446116738757,-0.151786767613050,1.001670917596417,-0.632277733097086,1.840876021165212,-1.839683871980764,0.663170695304871,-1.570783917103903,0.000072002410889,-1.570748154317037,0.000047936900955,0.000035952674807
180,1776828906963,0.118483595336280,-0.151757478251971,1.001670939596927,-0.632286161604079,1.840899145024894,-1.839730255910424,0.663158714771271,-1.570820156727926,0.000035762786865,-1.570760075245992,0.000023968450478,0.000083889579400
181,1776828906974,0.118481341363628,-0.151759251255053,1.001670936339291,-0.632345450364465,1.840891625847143,-1.839752897640424,0.663147091865540,-1.570820156727926,0.000048160552979,-1.570796314870016,0.000047936900955,0.000059921127104
182,1776828906985,0.118456023600160,-0.151779022983687,1.001670925024193,-0.632258962587765,1.840891074574107,-1.839699211774676,0.663147091865540,-1.570796314870016,0.000060081481934,-1.570748154317037,0.000047936900955,0.000059921127104
183,1776828906996,0.118468939070949,-0.151768931134459,1.001670933382596,-0.632290768695537,1.840876032641219,-1.839692055986389,0.663170695304871,-1.570796314870016,0.000035762786865,-1.570748154317037,0.000047936900955,0.000071905349614
184,1776828907007,0.118493552461851,-0.151749687612821,1.001670948918537,-0.632320937566626,1.840891339482253,-1.839737747458388,0.663147091865540,-1.570820156727926,0.000000000000000,-1.570712391530172,0.000047936900955,0.000047936900955
185,1776828907017,0.118478616915111,-0.151761380595770,1.001670930898640,-0.632360902256593,1.840830167423000,-1.839653505980107,0.663194656372070,-1.570808235798971,0.000048160552979,-1.570736233388082,0.000095873801911,0.000047936900955
186,1776828907028,0.118461922407810,-0.151774408271600,1.001670926475466,-0.632234383984180,1.840890878805165,-1.839683984940749,0.663147091865540,-1.570808235798971,0.000060081481934,-1.570712391530172,0.000047936900955,0.000059921127104
187,1776828907038,0.118463926660289,-0.151772847175133,1.001670928720159,-0.632276492566750,1.840906627320663,-1.839737433727710,0.663147091865540,-1.570808235798971,0.000060081481934,-1.570760075245992,0.000023968450478,0.000047936900955
188,1776828907049,0.118483409247652,-0.151757619888479,1.001670937444301,-0.632278472073723,1.840875905134543,-1.839684462742608,0.663170695304871,-1.570820156727926,0.000035762786865,-1.570712391530172,0.000047936900955,0.000071905349614
189,1776828907059,0.118446570638742,-0.151786400275671,1.001670921196089,-0.632174544138411,1.840898468508949,-1.839660965134251,0.663170695304871,-1.570783917103903,0.000060081481934,-1.570724312459127,0.000011984225239,0.000095873801911
190,1776828907070,0.118462301888065,-0.151774116195122,1.001670924377057,-0.632211887281663,1.840898721352180,-1.839684150525864,0.663182675838470,-1.570808235798971,0.000072002410889,-1.570748154317037,0.000000000000000,0.000095873801911
191,1776828907081,0.118467157218212,-0.151770318830223,1.001670932458397,-0.632253834893987,1.840875775178767,-1.839669161518548,0.663170695304871,-1.570796314870016,0.000035762786865,-1.570724312459127,0.000047936900955,0.000083889579400
192,1776828907091,0.118489516383047,-0.151752854079775,1.001670944952356,-0.632327961811182,1.840876237410893,-1.839715200497397,0.663182675838470,-1.570808235798971,0.000011920928955,-1.570772473012106,0.000035952674807,0.000095873801911
193,1776828907102,0.118490572884909,-0.151752037231565,1.001670939974590,-0.632374252074106,1.840868854240052,-1.839730185702322,0.663182675838470,-1.570820156727926,0.000035762786865,-1.570783917103903,0.000047936900955,0.000059921127104
194,1776828907112,0.118497682410918,-0.151746477429902,1.001670946336996,-0.632359226544615,1.840860982217982,-1.839707241478741,0.663170695304871,-1.570820156727926,0.000011920928955,-1.570760075245992,0.000071905349614,0.000083889579400
195,1776828907123,0.118486001171310,-0.151755581934835,1.001670945718507,-0.632268768504757,1.840883504043211,-1.839692147927104,0.663170695304871,-1.570808235798971,0.000000000000000,-1.570688549672262,0.000035952674807,0.000071905349614
196,1776828907133,0.118454623869550,-0.151780110567293,1.001670930376160,-0.632249189818329,1.840898704600527,-1.839706843747294,0.663135111331940,-1.570783917103903,0.000035762786865,-1.570748154317037,0.000047936900955,0.000071905349614
197,1776828907144,0.118480544286954,-0.151759864919943,1.001670934870787,-0.632280497534434,1.840883679342727,-1.839699387138319,0.663170695304871,-1.570820156727926,0.000048160552979,-1.570748154317037,0.000035952674807,0.000083889579400
198,1776828907154,0.118487993286784,-0.151754056243738,1.001670934581057,-0.632364137082549,1.840876536173914,-1.839737551676363,0.663170695304871,-1.570832077656881,0.000060081481934,-1.570783917103903,0.000047936900955,0.000047936900955
199,1776828907164,0.118477390353945,-0.151762338757763,1.001670933910541,-0.632327552766846,1.840876307867924,-1.839714887465659,0.663182675838470,-1.570808235798971,0.000048160552979,-1.570796314870016,0.000035952674807,0.000083889579400
200,1776828907175,0.118483087016705,-0.151757881833145,1.001670941899596,-0.632357936735457,1.840891911350848,-1.839761071795254,0.663158714771271,-1.570808235798971,0.000023841857910,-1.570796314870016,0.000035952674807,0.000059921127104
201,1776828907186,0.118473484707218,-0.151765390883445,1.001670928209720,-0.632319374188299,1.840853090841198,-1.839668775629081,0.663194656372070,-1.570808235798971,0.000060081481934,-1.570760075245992,0.000059921127104,0.000071905349614
202,1776828907197,0.118476360888232,-0.151763133723306,1.001670935358008,-0.632288104428055,1.840868273202765,-1.839676752516455,0.663158714771271,-1.570808235798971,0.000035762786865,-1.570736233388082,0.000071905349614,0.000083889579400
203,1776828907208,0.118479902123804,-0.151760361555054,1.001670938964201,-0.632276827560730,1.840906568361084,-1.839737707032460,0.663135111331940,-1.570820156727926,0.000035762786865,-1.570748154317037,0.000035952674807,0.000071905349614
204,1776828907219,0.118468075668365,-0.151769610800880,1.001670930438015,-0.632290695742421,1.840876065685306,-1.839692018985220,0.663194656372070,-1.570796314870016,0.000048160552979,-1.570772473012106,0.000023968450478,0.000083889579400
205,1776828907230,0.118462278853255,-0.151774145428086,1.001670926391914,-0.632290209906822,1.840876088127938,-1.839691689034863,0.663170695304871,-1.570796314870016,0.000060081481934,-1.570783917103903,0.000047936900955,0.000083889579400
206,1776828907240,0.118491731583992,-0.151751117633158,1.001670941962576,-0.632325099927781,1.840868478913071,-1.839699724873677,0.663194656372070,-1.570820156727926,0.000023841857910,-1.570724312459127,0.000035952674807,0.000059921127104
207,1776828907250,0.118460274608376,-0.151775706534566,1.001670924271761,-0.632285181774465,1.840860586145266,-1.839661202614301,0.663170695304871,-1.570796314870016,0.000060081481934,-1.570736233388082,0.000071905349614,0.000059921127104
208,1776828907261,0.118472622895591,-0.151766061908095,1.001670933069452,-0.632330089250885,1.840883809914187,-1.839729681918712,0.663147091865540,-1.570808235798971,0.000048160552979,-1.570783917103903,0.000059921127104,0.000059921127104
209,1776828907271,0.118477372124652,-0.151762346434559,1.001670939482873,-0.632330630304233,1.840884022236629,-1.839730484952662,0.663182675838470,-1.570796314870016,0.000023841857910,-1.570796314870016,0.000023968450478,0.000083889579400
210,1776828907282,0.118470786433296,-0.151767488957099,1.001670938619584,-0.632335829239845,1.840899264330633,-1.839760584401230,0.663135111331940,-1.570796314870016,0.000023841857910,-1.570783917103903,0.000047936900955,0.000047936900955
211,1776828907293,0.118487381654308,-0.151754510006292,1.001670946418367,-0.632279408780104,1.840914260897916,-1.839753012247775,0.663135111331940,-1.570820156727926,0.000011920928955,-1.570736233388082,0.000023968450478,0.000071905349614
212,1776828907304,0.118469789341559,-0.151768250830857,1.001670934698577,-0.632215106066775,1.840906378821519,-1.839699831459038,0.663158714771271,-1.570808235798971,0.000035762786865,-1.570700470601217,0.000011984225239,0.000071905349614
213,1776828907315,0.118467434455081,-0.151770105435399,1.001670936794463,-0.632245495943698,1.840921829674424,-1.839745601992941,0.663087189197540,-1.570808235798971,0.000035762786865,-1.570772473012106,0.000059921127104,0.000095873801911
214,1776828907326,0.118428252582162,-0.151800680202086,1.001670933553214,-0.632068222501065,1.841051721712186,-1.839867626452851,0.662907779216766,-1.570796314870016,0.000035762786865,-1.570748154317037,0.000035952674807,0.000071905349614
215,1776828907337,0.118435744432233,-0.151794807747225,1.001670954836110,-0.632014145735805,1.841182313068872,-1.840066089491702,0.662728428840637,-1.570820156727926,-0.000011746083395,-1.570760075245992,0.000011984225239,0.000047936900955
216,1776828907348,0.118371010533754,-0.151845331327504,1.001670930661923,-0.631816348734871,1.841250155002623,-1.840065573425337,0.662573337554932,-1.570783917103903,0.000035762786865,-1.570760075245992,0.000059921127104,0.000071905349614
217,1776828907359,0.118355306228274,-0.151857532631346,1.001670952053484,-0.631490767898245,1.841556562304066,-1.840410221334395,0.662154257297516,-1.570844475422994,0.000011920928955,-1.570748154317037,0.000000000000000,0.000083889579400
218,1776828907370,0.118279287308983,-0.151916777021144,1.001670931682289,-0.631228100484240,1.841724039258706,-1.840546685420323,0.661879777908325,-1.570820156727926,0.000060081481934,-1.570760075245992,0.000011984225239,0.000071905349614
219,1776828907380,0.118170646507656,-0.152001295397769,1.001670938385620,-0.630678919844529,1.842167244439557,-1.840997440807517,0.661186158657074,-1.570796314870016,0.000023841857910,-1.570760075245992,0.000011984225239,0.000071905349614
220,1776828907391,0.118123660540697,-0.152037818445882,1.001670930864202,-0.630439040846398,1.842365935071812,-1.841203246536053,0.660851359367371,-1.570820156727926,0.000060081481934,-1.570748154317037,0.000035952674807,0.000035952674807
221,1776828907402,0.118068622855997,-0.152080555696828,1.001670940038735,-0.630081243219793,1.842648412376131,-1.841486043565411,0.660421073436737,-1.570820156727926,0.000035762786865,-1.570772473012106,0.000023968450478,0.000083889579400
222,1776828907412,0.118001279481815,-0.152132807467019,1.001670935463363,-0.629691754889724,1.842915384389124,-1.841722265617589,0.659978389739990,-1.570832077656881,0.000048160552979,-1.570700470601217,0.000047936900955,0.000059921127104
223,1776828907422,0.117830625217484,-0.152265028631876,1.001670938332841,-0.628917070483564,1.843564633494833,-1.842401110819745,0.658986330032349,-1.570783917103903,0.000011920928955,-1.570736233388082,0.000023968450478,0.000035952674807
224,1776828907432,0.117765502707232,-0.152315409577252,1.001670934195337,-0.628480692259709,1.843908278164195,-1.842744641823846,0.658424198627472,-1.570832077656881,0.000060081481934,-1.570772473012106,0.000047936900955,0.000071905349614
225,1776828907443,0.117646709705630,-0.152407205008629,1.001670922229820,-0.627967941607928,1.844281886867390,-1.843095087031592,0.657838463783264,-1.570796314870016,0.000072002410889,-1.570783917103903,0.000047936900955,0.000071905349614
226,1776828907454,0.117456032674345,-0.152554200218144,1.001670926028068,-0.626939129899473,1.845090439394897,-1.843903059288530,0.656547546386719,-1.570796314870016,0.000060081481934,-1.570783917103903,0.000071905349614,0.000083889579400
227,1776828907465,0.117367514330134,-0.152622295569930,1.001670935137796,-0.626393649039470,1.845548658199357,-1.844383784499881,0.655829966068268,-1.570820156727926,0.000048160552979,-1.570772473012106,0.000071905349614,0.000071905349614
228,1776828907476,0.117135718419342,-0.152800264903327,1.001670934924139,-0.625121686109302,1.846516905609284,-1.845328593182706,0.654323339462280,-1.570820156727926,0.000048160552979,-1.570760075245992,0.000059921127104,0.000095873801911
229,1776828907487,0.117007648297709,-0.152898354434296,1.001670940678031,-0.624481532173560,1.847058929479116,-1.845900712169950,0.653474330902100,-1.570808235798971,0.000023841857910,-1.570772473012106,0.000059921127104,0.000071905349614
230,1776828907498,0.116878953815389,-0.152996748856074,1.001670940684896,-0.623802672598755,1.847600397480947,-1.846448989056627,0.652649283409119,-1.570808235798971,0.000023841857910,-1.570760075245992,0.000035952674807,0.000047936900955
231,1776828907508,0.116634239979152,-0.153183376392902,1.001670944446119,-0.622429878050836,1.848675029481393,-1.847522835688004,0.650939285755157,-1.570832077656881,0.000023841857910,-1.570736233388082,0.000059921127104,0.000047936900955
232,1776828907518,0.116455203940608,-0.153319554879809,1.001670924045071,-0.621578460389265,1.849252116075238,-1.848032230212184,0.650043129920959,-1.570796314870016,0.000060081481934,-1.570724312459127,0.000047936900955,0.000071905349614
233,1776828907528,0.116338132574833,-0.153408405546514,1.001670937679921,-0.620961731782485,1.849833028048126,-1.848687428870553,0.649110198020935,-1.570808235798971,0.000035762786865,-1.570808235798971,0.000071905349614,0.000071905349614
234,1776828907539,0.116199391385471,-0.153513510779198,1.001670944510233,-0.620179666626496,1.850473298326685,-1.849349476250033,0.648129761219025,-1.570820156727926,0.000023841857910,-1.570808235798971,0.000047936900955,0.000059921127104
235,1776828907550,0.115877591327506,-0.153756560443092,1.001670940896240,-0.618481340987050,1.851758859105759,-1.850604448264121,0.646109282970428,-1.570808235798971,0.000023841857910,-1.570772473012106,0.000047936900955,0.000059921127104
236,1776828907560,0.115734294541672,-0.153864451773623,1.001670943305196,-0.617729824542526,1.852383482534261,-1.851257817569838,0.645105242729187,-1.570820156727926,0.000023841857910,-1.570783917103903,0.000071905349614,0.000035952674807
237,1776828907570,0.115539601210236,-0.154010707346519,1.001670930916128,-0.616674648548940,1.853096304325287,-1.851888704685377,0.643992960453033,-1.570808235798971,0.000048160552979,-1.570724312459127,0.000059921127104,0.000071905349614
238,1776828907580,0.115450295486698,-0.154077642135156,1.001670943803714,-0.616160061402893,1.853546245191616,-1.852375561851291,0.643347263336182,-1.570808235798971,0.000011920928955,-1.570724312459127,0.000000000000000,0.000047936900955
239,1776828907591,0.115489900604542,-0.154048056846109,1.001670891864338,-0.616651300653066,1.853025799238840,-1.851751440057588,0.644052863121033,-1.570760075245992,0.000119686126709,-1.570736233388082,0.000107858024421,0.000071905349614
240,1776828907601,0.115470066896071,-0.154062931301993,1.001670889024124,-0.616583716014757,1.853118267563111,-1.851873583188811,0.643956959247589,-1.570760075245992,0.000131607055664,-1.570772473012106,0.000059921127104,0.000047936900955
241,1776828907611,0.115557320429578,-0.153997432723353,1.001670907731051,-0.616753711645385,1.853035465295499,-1.851828124572237,0.644088804721832,-1.570868317280905,0.000155448913574,-1.570736233388082,0.000059921127104,0.000035952674807
242,1776828907622,0.115653188050372,-0.153925437752490,1.001670947943691,-0.616909614376077,1.853061591443807,-1.851965131661030,0.644052863121033,-1.570964161549703,0.000083923339844,-1.570783917103903,0.000059921127104,0.000071905349614
243,1776828907633,0.115715167726622,-0.153878899207969,1.001670948107606,-0.616993402866498,1.853055279695894,-1.852003101126569,0.644064843654633,-1.571059052144186,0.000107288360596,-1.570783917103903,0.000059921127104,0.000071905349614
244,1776828907643,0.115698590989495,-0.153891371798580,1.001670940266371,-0.616958456675948,1.853062485287601,-1.851995179098287,0.643992960453033,-1.571059052144186,0.000131607055664,-1.570783917103903,0.000119842254207,0.000071905349614
245,1776828907653,0.115630445313880,-0.153942549888305,1.001670941268852,-0.616618292501716,1.853297680578180,-1.852208067034567,0.643694102764130,-1.571035210286276,0.000131607055664,-1.570783917103903,0.000047936900955,0.000083889579400
246,1776828907664,0.115568697603310,-0.153988897126413,1.001670936947667,-0.616457314816867,1.853403801965077,-1.852299586473873,0.643502712249756,-1.570987526570455,0.000131607055664,-1.570796314870016,0.000071905349614,0.000071905349614
247,1776828907675,0.115524673452254,-0.154021920396628,1.001670933800191,-0.616192037873180,1.853570329181121,-1.852436211510690,0.643263399600983,-1.570987526570455,0.000143527984619,-1.570783917103903,0.000047936900955,0.000095873801911
248,1776828907686,0.115413748089386,-0.154105045923467,1.001670925012484,-0.615643600558825,1.853957178326918,-1.852793054197893,0.642689645290375,-1.570975128804342,0.000167369842529,-1.570760075245992,0.000011984225239,0.000083889579400
249,1776828907697,0.115424337449354,-0.154097152339991,1.001670945220771,-0.615521309259742,1.854180772920843,-1.853112682832506,0.642318904399872,-1.571035210286276,0.000119686126709,-1.570808235798971,0.000035952674807,0.000083889579400
250,1776828907708,0.115372882833294,-0.154135684924835,1.001670947981429,-0.615240899892025,1.854408944013303,-1.853348285612341,0.641948521137238,-1.571035210286276,0.000107288360596,-1.570808235798971,0.000047936900955,0.000083889579400
251,1776828907719,0.115239337515949,-0.154235546692805,1.001670947933522,-0.614535871575422,1.854956408068095,-1.853895005465804,0.641099512577057,-1.571035210286276,0.000107288360596,-1.570783917103903,0.000035952674807,0.000059921127104
252,1776828907729,0.115184734866332,-0.154276351527015,1.001670948695268,-0.614179214905875,1.855253366011674,-1.854206612262343,0.640621244907379,-1.571059052144186,0.000107288360596,-1.570796314870016,0.000047936900955,0.000071905349614
253,1776828907741,0.114977860987437,-0.154430556899579,1.001670944981179,-0.613179342113873,1.855989617405814,-1.854912497944017,0.639497339725494,-1.571023289357321,0.000119686126709,-1.570796314870016,0.000011984225239,0.000071905349614
254,1776828907751,0.114886369808050,-0.154498643060127,1.001670935096574,-0.612726374700037,1.856331179053157,-1.855246359005340,0.638923585414886,-1.571035210286276,0.000155448913574,-1.570796314870016,0.000047936900955,0.000059921127104
255,1776828907762,0.114785276832901,-0.154573765422678,1.001670938460648,-0.612280661137399,1.856696518513013,-1.855625994453368,0.638301551342010,-1.571011368428366,0.000131607055664,-1.570796314870016,0.000095873801911,0.000035952674807
256,1776828907772,0.114561930786330,-0.154739350956975,1.001670939781959,-0.611100810241527,1.857561077549711,-1.856453237884778,0.636962294578552,-1.570987526570455,0.000119686126709,-1.570772473012106,0.000071905349614,0.000059921127104
257,1776828907783,0.114452242790876,-0.154820495082352,1.001670936676355,-0.610487231956632,1.858015910746369,-1.856892864382115,0.636245131492615,-1.570999447499410,0.000131607055664,-1.570736233388082,0.000071905349614,0.000047936900955
258,1776828907793,0.114391222181984,-0.154865625136379,1.001670953163297,-0.609982880693894,1.858504817929252,-1.857454547807043,0.635491609573364,-1.571047131215231,0.000083923339844,-1.570772473012106,0.000059921127104,0.000059921127104
259,1776828907804,0.114267046390859,-0.154957267361743,1.001670955250082,-0.609396176685326,1.858968298013893,-1.857924738437410,0.634750127792358,-1.571023289357321,0.000072002410889,-1.570808235798971,0.000071905349614,0.000071905349614
260,1776828907814,0.113982230693505,-0.155166865478552,1.001670942786794,-0.607969070452271,1.860021214936995,-1.858939977520433,0.633112788200378,-1.571011368428366,0.000119686126709,-1.570783917103903,0.000047936900955,0.000047936900955
261,1776828907824,0.113859468736203,-0.155256981446012,1.001670947783032,-0.607266181908346,1.860544043464335,-1.859448023258031,0.632239758968353,-1.571011368428366,0.000095367431641,-1.570783917103903,0.000095873801911,0.000095873801911
262,1776828907834,0.113681898983286,-0.155387030806795,1.001670928683130,-0.606477034818420,1.861143182286140,-1.860039343655468,0.631354808807373,-1.570999447499410,0.000167369842529,-1.570796314870016,0.000035952674807,0.000035952674807
263,1776828907844,0.113361415272011,-0.155620981564076,1.001670935790397,-0.604833766704447,1.862409330238932,-1.861304621691295,0.629369914531708,-1.570964161549703,0.000131607055664,-1.570808235798971,0.000023968450478,0.000047936900955
264,1776828907855,0.113265210661066,-0.155691049350041,1.001670946576996,-0.604127336465469,1.863002050514274,-1.861932915665094,0.628389477729797,-1.571023289357321,0.000107288360596,-1.570808235798971,0.000071905349614,0.000071905349614
265,1776828907866,0.113076493068389,-0.155828144346058,1.001670938069060,-0.603125547339213,1.863672650011205,-1.862530246767830,0.627325534820557,-1.571011368428366,0.000131607055664,-1.570748154317037,0.000071905349614,0.000095873801911
266,1776828907876,0.112746408243956,-0.156067145111890,1.001670948468899,-0.601433156080110,1.865062071166003,-1.863983723704776,0.625149250030518,-1.570999447499410,0.000095367431641,-1.570808235798971,0.000059921127104,0.000071905349614
267,1776828907886,0.112554142209532,-0.156205864260995,1.001670933061810,-0.600432938712380,1.865779415323708,-1.864664118772193,0.624013364315033,-1.571011368428366,0.000155448913574,-1.570808235798971,0.000059921127104,0.000083889579400
268,1776828907897,0.112380558317531,-0.156330797425567,1.001670940929832,-0.599541534329792,1.866492179099728,-1.865397764492627,0.622853159904480,-1.570999447499410,0.000119686126709,-1.570808235798971,0.000095873801911,0.000071905349614
269,1776828907909,0.112171172584038,-0.156481092475709,1.001670937442486,-0.598524179896186,1.867231906383956,-1.866108429917447,0.621681690216064,-1.570964161549703,0.000119686126709,-1.570808235798971,0.000095873801911,0.000083889579400
270,1776828907919,0.111779613500995,-0.156761016382600,1.001670941058225,-0.596414733264954,1.868834762566836,-1.867702923349412,0.619194567203522,-1.570964161549703,0.000107288360596,-1.570760075245992,0.000047936900955,0.000059921127104
271,1776828907930,0.111595455895768,-0.156892178112274,1.001670944449691,-0.595359386899247,1.869659676258759,-1.868541023708818,0.617902934551239,-1.570987526570455,0.000107288360596,-1.570783917103903,0.000035952674807,0.000083889579400
272,1776828907941,0.111140534851556,-0.157214755197922,1.001670946152321,-0.593090319047795,1.871389730005657,-1.870269793875464,0.615164875984192,-1.570940319691793,0.000083923339844,-1.570796314870016,0.000035952674807,0.000071905349614
273,1776828907952,0.110896057876317,-0.157387306118590,1.001670936999016,-0.591967126491718,1.872234826578781,-1.871106990205680,0.613790094852448,-1.570904080067770,0.000095367431641,-1.570808235798971,0.000071905349614,0.000047936900955
274,1776828907963,0.110688279705183,-0.157533500055311,1.001670945736376,-0.590787179405123,1.873141214138212,-1.872019372832922,0.612354934215546,-1.570916000996725,0.000072002410889,-1.570808235798971,0.000071905349614,0.000071905349614
275,1776828907974,0.110161361358394,-0.157902415995818,1.001670927152855,-0.588178026786031,1.875022265732986,-1.873828472121978,0.609389603137970,-1.570856396351950,0.000095367431641,-1.570760075245992,0.000047936900955,0.000059921127104
276,1776828907985,0.109928551194356,-0.158064579983306,1.001670930177722,-0.586918258700640,1.875956198543006,-1.874747404976248,0.607882618904114,-1.570856396351950,0.000083923339844,-1.570748154317037,0.000071905349614,0.000083889579400
277,1776828907996,0.109654078114217,-0.158255135369469,1.001670917601038,-0.585639408148838,1.876944438167794,-1.875749171166765,0.606304407119751,-1.570832077656881,0.000107288360596,-1.570772473012106,0.000083889579400,0.000035952674807
278,1776828908006,0.109159888150040,-0.158596399806250,1.001670934755402,-0.582991478666719,1.879003603314850,-1.877848370377287,0.603064179420471,-1.570832077656881,0.000060081481934,-1.570796314870016,0.000059921127104,0.000035952674807
279,1776828908017,0.108910400619238,-0.158767820378850,1.001670938284957,-0.581578168925372,1.880049117746439,-1.878879184028450,0.601389408111572,-1.570856396351950,0.000060081481934,-1.570760075245992,0.000071905349614,0.000047936900955
280,1776828908028,0.108375289901446,-0.159133573932832,1.001670942048079,-0.578824818231170,1.882141206858076,-1.880983627694892,0.598053634166718,-1.570832077656881,0.000035762786865,-1.570796314870016,0.000083889579400,0.000059921127104
281,1776828908039,0.108135381766023,-0.159296680179888,1.001670955236906,-0.577398711211874,1.883232426513531,-1.882088120899873,0.596331655979156,-1.570868317280905,0.000011920928955,-1.570772473012106,0.000071905349614,0.000071905349614
282,1776828908049,0.107842725789942,-0.159494954110926,1.001670962183938,-0.576013454859098,1.884341234059364,-1.883243980895583,0.594574093818665,-1.570820156727926,-0.000035587941305,-1.570832554494039,0.000071905349614,0.000047936900955
283,1776828908060,0.107580493455162,-0.159671935041498,1.001670971037403,-0.574514765919685,1.885484590368139,-1.884400609729233,0.592815816402435,-1.570844475422994,-0.000047985707418,-1.570820633565084,0.000011984225239,0.000047936900955
284,1776828908070,0.106966105987034,-0.160084178745377,1.001670956654361,-0.571325506710303,1.887767139436141,-1.886611396725746,0.589120924472809,-1.570832077656881,-0.000011746083395,-1.570783917103903,0.000059921127104,0.000083889579400
285,1776828908080,0.106664190043020,-0.160285519462503,1.001670946283792,-0.569745610034485,1.888936557628101,-1.887773558740591,0.587219536304474,-1.570856396351950,0.000035762786865,-1.570796314870016,0.000095873801911,0.000083889579400
286,1776828908091,0.106390945659923,-0.160467004145832,1.001670962723152,-0.568220405305851,1.890132288079608,-1.889009049729279,0.585354506969452,-1.570868317280905,-0.000011746083395,-1.570796314870016,0.000059921127104,0.000071905349614
287,1776828908102,0.105707062615294,-0.160918341223802,1.001670948656340,-0.564828729034052,1.892592697164259,-1.891426402977147,0.581407964229584,-1.570808235798971,0.000000000000000,-1.570796314870016,0.000071905349614,0.000071905349614
288,1776828908113,0.105407211355697,-0.161114900147307,1.001670961609238,-0.563071779318726,1.893935423801981,-1.892795168902987,0.579303205013275,-1.570856396351950,-0.000011746083395,-1.570796314870016,0.000035952674807,0.000083889579400
289,1776828908123,0.105047922596373,-0.161349396357359,1.001670952162932,-0.561328668708365,1.895205593103261,-1.894050539524564,0.577270388603210,-1.570820156727926,0.000000000000000,-1.570808235798971,0.000035952674807,0.000071905349614
290,1776828908133,0.104341380910176,-0.161807206754035,1.001670947949635,-0.557664651310651,1.897911221658565,-1.896753790837046,0.572917520999908,-1.570820156727926,0.000011920928955,-1.570808235798971,0.000059921127104,0.000059921127104
291,1776828908145,0.104027970591977,-0.162008869528236,1.001670965631626,-0.555879979616843,1.899265918682190,-1.898134112320515,0.570741236209869,-1.570844475422994,-0.000035587941305,-1.570808235798971,0.000071905349614,0.000083889579400
292,1776828908156,0.103646168346558,-0.162253404455751,1.001670953776627,-0.553977621631185,1.900645062648239,-1.899498742042315,0.568529009819031,-1.570832077656881,0.000000000000000,-1.570820633565084,0.000071905349614,0.000071905349614
293,1776828908167,0.102922360298453,-0.162713502213423,1.001670953614982,-0.550195314304476,1.903459968739266,-1.902337653967427,0.564044296741486,-1.570844475422994,0.000011920928955,-1.570844475422994,0.000047936900955,0.000047936900955
294,1776828908177,0.102526969443471,-0.162962932143819,1.001670948689348,-0.548191866193848,1.904854302315027,-1.903684245252766,0.561760187149048,-1.570808235798971,0.000000000000000,-1.570808235798971,0.000083889579400,0.000071905349614
295,1776828908188,0.102170560945248,-0.163186609783664,1.001670960760885,-0.546312342846433,1.906297558138556,-1.905172189467320,0.559488058090210,-1.570808235798971,-0.000035587941305,-1.570832554494039,0.000047936900955,0.000047936900955
296,1776828908198,0.101405927785704,-0.163662862735711,1.001670953496387,-0.542268083391865,1.909202440995727,-1.908048143796620,0.554787993431091,-1.570832077656881,0.000000000000000,-1.570808235798971,0.000071905349614,0.000059921127104
297,1776828908209,0.101020179382541,-0.163901232811232,1.001670955007436,-0.540148333187123,1.910691374660668,-1.909503540432833,0.552407979965210,-1.570844475422994,0.000000000000000,-1.570760075245992,0.000047936900955,0.000083889579400
298,1776828908220,0.100614922303222,-0.164150332048556,1.001670952171175,-0.538086578275003,1.912216667794355,-1.911047043205027,0.549944460391998,-1.570844475422994,0.000011920928955,-1.570796314870016,0.000059921127104,0.000071905349614
299,1776828908231,0.099794877878355,-0.164650167589193,1.001670952635422,-0.533847486139066,1.915280406116562,-1.914107825640856,0.544969558715820,-1.570832077656881,0.000000000000000,-1.570796314870016,0.000095873801911,0.000071905349614
300,1776828908241,0.099388079718662,-0.164896037141456,1.001670951850683,-0.531687878852730,1.916836978704654,-1.915663086986420,0.542493641376495,-1.570844475422994,0.000011920928955,-1.570783917103903,0.000059921127104,0.000059921127104
301,1776828908251,0.098953980410847,-0.165156913753553,1.001670950236123,-0.529477270842709,1.918437621113999,-1.917268807650422,0.539898693561554,-1.570832077656881,0.000011920928955,-1.570820633565084,0.000071905349614,0.000071905349614
302,1776828908262,0.098067187579406,-0.165685013673833,1.001670943655996,-0.524950771623778,1.921693832613317,-1.920528199698333,0.534636497497559,-1.570820156727926,0.000023841857910,-1.570796314870016,0.000071905349614,0.000011984225239
303,1776828908273,0.097633793827624,-0.165940766632432,1.001670949853420,-0.522628557155498,1.923323687958121,-1.922138009696109,0.532017230987549,-1.570808235798971,0.000000000000000,-1.570820633565084,0.000047936900955,0.000083889579400
304,1776828908283,0.097191021067504,-0.166200483382212,1.001670952074495,-0.520267750620768,1.925007152577951,-1.923819591429243,0.529230475425720,-1.570832077656881,0.000000000000000,-1.570783917103903,0.000107858024421,0.000071905349614
305,1776828908294,0.096268342743280,-0.166736612169629,1.001670958008732,-0.515472314114737,1.928447763978204,-1.927275711250436,0.523705005645752,-1.570820156727926,-0.000023667012350,-1.570783917103903,0.000059921127104,0.000047936900955
306,1776828908305,0.095810612835349,-0.167000053327327,1.001670954742105,-0.512987961255790,1.930158242275088,-1.928954301793031,0.520918309688568,-1.570844475422994,0.000000000000000,-1.570760075245992,0.000059921127104,0.000083889579400
307,1776828908316,0.095346829756719,-0.167265291325761,1.001670956933193,-0.510623068368373,1.931912864637000,-1.930756466095081,0.518047749996185,-1.570856396351950,0.000000000000000,-1.570808235798971,0.000095873801911,0.000047936900955
308,1776828908327,0.094378115710410,-0.167813776989501,1.001670963348450,-0.505519565671370,1.935499562602932,-1.934333409883701,0.512223005294800,-1.570856396351950,-0.000023667012350,-1.570783917103903,0.000083889579400,0.000059921127104
309,1776828908337,0.093867435736333,-0.168099967892618,1.001670952351126,-0.502932130912326,1.937245429909976,-1.936035277130759,0.509352445602417,-1.570832077656881,0.000000000000000,-1.570783917103903,0.000095873801911,0.000095873801911
310,1776828908348,0.092882015637237,-0.168646449930448,1.001670955959900,-0.497777819994207,1.940895380955328,-1.939706477341226,0.503444552421570,-1.570844475422994,0.000000000000000,-1.570808235798971,0.000059921127104,0.000083889579400
311,1776828908359,0.092383038851456,-0.168920304210241,1.001670958925804,-0.495214522641823,1.942724914559903,-1.941558189000129,0.500442147254944,-1.570844475422994,-0.000011746083395,-1.570820633565084,0.000083889579400,0.000059921127104
312,1776828908370,0.091848217872392,-0.169211700897435,1.001670951585145,-0.492490042712836,1.944569282125288,-1.943370927027471,0.497440099716187,-1.570820156727926,0.000000000000000,-1.570808235798971,0.000059921127104,0.000071905349614
313,1776828908380,0.091351266806554,-0.169480505805614,1.001670950114784,-0.489813274617533,1.946417873281832,-1.945212259026389,0.494389742612839,-1.570856396351950,0.000023841857910,-1.570796314870016,0.000083889579400,0.000083889579400
314,1776828908390,0.090301557765531,-0.170042125249951,1.001670953856387,-0.484376001169014,1.950220498981976,-1.949034760205689,0.488170295953751,-1.570856396351950,0.000011920928955,-1.570808235798971,0.000083889579400,0.000059921127104
315,1776828908401,0.089746420109206,-0.170335770059997,1.001670956060131,-0.481537778736341,1.952165910723108,-1.950972301855732,0.484964519739151,-1.570832077656881,-0.000011746083395,-1.570796314870016,0.000095873801911,0.000059921127104
316,1776828908412,0.088625866383742,-0.170921486480876,1.001670950111646,-0.475786356299600,1.956146505655682,-1.954966482610569,0.478433489799500,-1.570832077656881,0.000011920928955,-1.570844475422994,0.000095873801911,0.000047936900955
317,1776828908423,0.088066040694724,-0.171210588621926,1.001670961378431,-0.472830381848503,1.958167648199149,-1.956985488321030,0.475120216608047,-1.570820156727926,-0.000035587941305,-1.570808235798971,0.000083889579400,0.000047936900955
318,1776828908433,0.087492298266338,-0.171504512492976,1.001670945023787,-0.469971224321552,1.960087912013791,-1.958887173122654,0.471926420927048,-1.570808235798971,0.000011920928955,-1.570832554494039,0.000107858024421,0.000047936900955
319,1776828908444,0.086952101078900,-0.171779005409017,1.001670949187001,-0.467123444737409,1.962025372971723,-1.960822760686243,0.468792557716370,-1.570808235798971,0.000000000000000,-1.570796314870016,0.000047936900955,0.000023968450478
320,1776828908455,0.085851510381561,-0.172331712818723,1.001670936303547,-0.461500553812395,1.965785004994245,-1.964550984707102,0.462560385465622,-1.570783917103903,0.000023841857910,-1.570808235798971,0.000059921127104,0.000047936900955
321,1776828908465,0.085371096362565,-0.172570198065918,1.001670949557349,-0.458908425970209,1.967588213713561,-1.966380569504860,0.459581941366196,-1.570808235798971,0.000000000000000,-1.570832554494039,0.000071905349614,0.000059921127104
322,1776828908476,0.084879176996990,-0.172812670732557,1.001670955377785,-0.456215420493597,1.969402828293224,-1.968193610078028,0.456579506397247,-1.570844475422994,0.000000000000000,-1.570796314870016,0.000071905349614,0.000059921127104
323,1776828908486,0.083855703866810,-0.173311615481860,1.001670960767430,-0.450830095861154,1.973029183172951,-1.971822086940074,0.450562298297882,-1.570856396351950,-0.000011746083395,-1.570820633565084,0.000083889579400,0.000095873801911
324,1776828908496,0.083307776789241,-0.173575658897102,1.001670951963749,-0.448135665179085,1.974779237015786,-1.973543253448311,0.447643399238586,-1.570808235798971,-0.000011746083395,-1.570796314870016,0.000083889579400,0.000083889579400
325,1776828908507,0.082805134861763,-0.173816010340179,1.001670956124574,-0.445573221972216,1.976520809736782,-1.975299305852063,0.444724500179291,-1.570796314870016,-0.000035587941305,-1.570808235798971,0.000119842254207,0.000071905349614
326,1776828908517,0.081787392672852,-0.174297225681481,1.001670939263650,-0.440342164166176,1.979959431134534,-1.978713918085441,0.439042091369629,-1.570796314870016,0.000023841857910,-1.570820633565084,0.000071905349614,0.000071905349614
327,1776828908528,0.081292948940361,-0.174528377112544,1.001670942323022,-0.437792691632757,1.981638246381426,-1.980385780230130,0.436219066381454,-1.570783917103903,0.000000000000000,-1.570772473012106,0.000095873801911,0.000047936900955
328,1776828908538,0.080819679944709,-0.174748044860826,1.001670935968774,-0.435267031739221,1.983267251031713,-1.981992767750338,0.433479160070419,-1.570808235798971,0.000035762786865,-1.570772473012106,0.000107858024421,0.000083889579400
329,1776828908549,0.079860259545055,-0.175188579702132,1.001670939771691,-0.430357318021730,1.986587960168179,-1.985352335659378,0.428024083375931,-1.570796314870016,0.000023841857910,-1.570820633565084,0.000047936900955,0.000035952674807
330,1776828908559,0.079414757622934,-0.175390975118773,1.001670949256209,-0.427962112990542,1.988172082131664,-1.986940149988328,0.425344496965408,-1.570808235798971,0.000000000000000,-1.570832554494039,0.000083889579400,0.000071905349614
331,1776828908570,0.078936486703109,-0.175606734136607,1.001670953114972,-0.425441229926780,1.989824433293847,-1.988590803652662,0.422616958618164,-1.570808235798971,-0.000011746083395,-1.570808235798971,0.000047936900955,0.000059921127104
332,1776828908580,0.078506075690442,-0.175799569141524,1.001670958474326,-0.423070801934431,1.991375210744909,-1.990140227369826,0.419997274875641,-1.570844475422994,-0.000011746083395,-1.570783917103903,0.000071905349614,0.000071905349614
333,1776828908590,0.077594008036075,-0.176204042663030,1.001670958794330,-0.418450580130693,1.994441753592881,-1.993229095486987,0.414876282215118,-1.570820156727926,-0.000023667012350,-1.570832554494039,0.000071905349614,0.000047936900955
334,1776828908600,0.077103874967306,-0.176419071120783,1.001670946436963,-0.415941965006084,1.995967613449493,-1.994703511086030,0.412292182445526,-1.570796314870016,0.000000000000000,-1.570796314870016,0.000059921127104,0.000083889579400
335,1776828908611,0.076664538510875,-0.176610428906432,1.001670945117077,-0.413654275022779,1.997430531463165,-1.996155187560480,0.409815937280655,-1.570796314870016,0.000000000000000,-1.570760075245992,0.000071905349614,0.000071905349614
336,1776828908621,0.075813235614422,-0.176977540540631,1.001670944510233,-0.409209360126092,2.000358948496508,-1.999105880978599,0.404934614896774,-1.570820156727926,0.000023841857910,-1.570808235798971,0.000047936900955,0.000059921127104
337,1776828908631,0.075405874053763,-0.177151490476565,1.001670950168286,-0.407084773573065,2.001739855090924,-2.000490465292552,0.402553856372833,-1.570820156727926,0.000000000000000,-1.570796314870016,0.000107858024421,0.000059921127104
338,1776828908642,0.075008835336564,-0.177319962157680,1.001670958686171,-0.404893479664788,2.003171776640080,-2.001930940792026,0.400173127651215,-1.570844475422994,-0.000011746083395,-1.570808235798971,0.000083889579400,0.000083889579400
339,1776828908652,0.074167892403102,-0.177673352712791,1.001670948270127,-0.400622711814236,2.005882162942070,-2.004624390486210,0.395614624023438,-1.570820156727926,0.000011920928955,-1.570820633565084,0.000059921127104,0.000083889579400
340,1776828908663,0.073771175683577,-0.177838445104894,1.001670942094550,-0.398611787336610,2.007190510439855,-2.005940911915933,0.393377333879471,-1.570832077656881,0.000035762786865,-1.570808235798971,0.000095873801911,0.000035952674807
341,1776828908674,0.073360861275209,-0.178008092149425,1.001670944949925,-0.396426924902922,2.008512434093238,-2.007228437632225,0.391140013933182,-1.570808235798971,0.000011920928955,-1.570796314870016,0.000071905349614,0.000107858024421
342,1776828908684,0.072571642725486,-0.178331302540721,1.001670954786460,-0.392412766717424,2.011155069678972,-2.009906452396889,0.386677384376526,-1.570783917103903,-0.000035587941305,-1.570832554494039,0.000095873801911,0.000071905349614
343,1776828908695,0.072239528781366,-0.178466079641482,1.001670967452379,-0.390460257647213,2.012417533801236,-2.011177406939886,0.384583532810211,-1.570832077656881,-0.000047985707418,-1.570808235798971,0.000059921127104,0.000083889579400
344,1776828908705,0.071793147272221,-0.178646138731157,1.001670937615103,-0.388361752998917,2.013643233791632,-2.012355184786409,0.382442086935043,-1.570796314870016,0.000023841857910,-1.570772473012106,0.000083889579400,0.000059921127104
345,1776828908716,0.071428883358909,-0.178792089731200,1.001670946772320,-0.386417495919163,2.014906219353716,-2.013631026723163,0.380336254835129,-1.570796314870016,0.000000000000000,-1.570808235798971,0.000059921127104,0.000083889579400
346,1776828908726,0.070695761359781,-0.179083238663497,1.001670942891313,-0.382598849586579,2.017297452697192,-2.016011075506363,0.376280337572098,-1.570796314870016,0.000011920928955,-1.570796314870016,0.000047936900955,0.000083889579400
347,1776828908737,0.070374387981747,-0.179209769122387,1.001670956871893,-0.380894314552400,2.018467404281087,-2.017221188549495,0.374305933713913,-1.570808235798971,-0.000023667012350,-1.570844475422994,0.000071905349614,0.000071905349614
348,1776828908748,0.070018269888776,-0.179349206060261,1.001670956871893,-0.379050831026207,2.019638107268262,-2.018395277753093,0.372319549322128,-1.570808235798971,-0.000023667012350,-1.570844475422994,0.000071905349614,0.000059921127104
349,1776828908758,0.069313269891350,-0.179622851809350,1.001670943633963,-0.375421264711517,2.021841603673443,-2.020564833797711,0.368490964174271,-1.570808235798971,0.000011920928955,-1.570783917103903,0.000119842254207,0.000047936900955
350,1776828908769,0.069011708575494,-0.179738919915580,1.001670957439960,-0.373716524655079,2.022973512287230,-2.021722889199361,0.366636395454407,-1.570832077656881,-0.000011746083395,-1.570832554494039,0.000071905349614,0.000071905349614
351,1776828908779,0.068670356844984,-0.179869609900536,1.001670955392319,-0.371974942117492,2.024052014977411,-2.022795894203397,0.364805430173874,-1.570820156727926,-0.000011746083395,-1.570820633565084,0.000059921127104,0.000059921127104
352,1776828908790,0.068033067391545,-0.180111606042107,1.001670960537533,-0.368573454938940,2.026130753746032,-2.024854797309185,0.361240118741989,-1.570820156727926,-0.000035587941305,-1.570748154317037,0.000059921127104,0.000059921127104
353,1776828908800,0.067725410609295,-0.180227529770483,1.001670953930266,-0.367059598513393,2.027105369341361,-2.025841602641556,0.359564960002899,-1.570820156727926,-0.000011746083395,-1.570783917103903,0.000083889579400,0.000035952674807
354,1776828908810,0.067419305021954,-0.180342254352669,1.001670953233792,-0.365380784902450,2.028074214750031,-2.026778977049738,0.357889801263809,-1.570820156727926,-0.000011746083395,-1.570748154317037,0.000071905349614,0.000083889579400
355,1776828908821,0.066805453843539,-0.180570570929655,1.001670943469084,-0.362312016605104,2.030032610696092,-2.028757652238773,0.354527086019516,-1.570820156727926,0.000023841857910,-1.570820633565084,0.000107858024421,0.000059921127104
356,1776828908832,0.066539466465099,-0.180668748504545,1.001670953938145,-0.360840222831271,2.030986483120648,-2.029727957668620,0.352936178445816,-1.570832077656881,0.000000000000000,-1.570844475422994,0.000083889579400,0.000071905349614
357,1776828908842,0.066238978716237,-0.180779126930554,1.001670951963749,-0.359305940055906,2.031881240552289,-2.030600168627904,0.351380467414856,-1.570808235798971,-0.000011746083395,-1.570796314870016,0.000083889579400,0.000071905349614
358,1776828908853,0.065692174767133,-0.180978544510207,1.001670954065469,-0.356482154099327,2.033645803107434,-2.032371830936449,0.348376929759979,-1.570796314870016,-0.000023667012350,-1.570820633565084,0.000071905349614,0.000071905349614
359,1776828908863,0.065443286949215,-0.181068683496169,1.001670950497704,-0.355093632768441,2.034457753428673,-2.033165851568333,0.346989005804062,-1.570820156727926,0.000000000000000,-1.570760075245992,0.000047936900955,0.000059921127104
360,1776828908874,0.065188454637712,-0.181160603633423,1.001670948653937,-0.353840289163889,2.035251071931726,-2.033967114566472,0.345577120780945,-1.570808235798971,0.000000000000000,-1.570832554494039,0.000107858024421,0.000095873801911
361,1776828908885,0.064945027533108,-0.181247996993819,1.001670953181034,-0.352443260400515,2.036098131422384,-2.034809011219346,0.344165235757828,-1.570832077656881,0.000000000000000,-1.570783917103903,0.000059921127104,0.000083889579400
362,1776828908896,0.064440283440969,-0.181428075518186,1.001670948689348,-0.349925829925652,2.037653941988944,-2.036367728723649,0.341472536325455,-1.570808235798971,0.000000000000000,-1.570808235798971,0.000083889579400,0.000071905349614
363,1776828908906,0.064186843122439,-0.181517899070565,1.001670942166010,-0.348688134762688,2.038412300097891,-2.037125394288582,0.340168476104736,-1.570796314870016,0.000011920928955,-1.570796314870016,0.000083889579400,0.000035952674807
364,1776828908916,0.063766639256340,-0.181665921715975,1.001670961758300,-0.346319500368800,2.039914173952165,-2.038646725396759,0.337631583213806,-1.570820156727926,-0.000035587941305,-1.570796314870016,0.000059921127104,0.000047936900955
365,1776828908927,0.063520966776736,-0.181751980072048,1.001670950423217,-0.345114858274221,2.040585303241258,-2.039292294382684,0.336447000503540,-1.570796314870016,-0.000011746083395,-1.570808235798971,0.000059921127104,0.000083889579400
366,1776828908937,0.063286200079386,-0.181833871611097,1.001670935702751,-0.343961730142395,2.041267596824350,-2.039965735526678,0.335286051034927,-1.570796314870016,0.000035762786865,-1.570808235798971,0.000035952674807,0.000059921127104
367,1776828908947,0.063105198965855,-0.181896762181694,1.001670944887288,-0.342958005043887,2.041944123149528,-2.040666490640662,0.334125429391861,-1.570820156727926,0.000023841857910,-1.570832554494039,0.000059921127104,0.000047936900955
368,1776828908958,0.062728631410457,-0.182026961623780,1.001670952895053,-0.340852983729497,2.043181458816012,-2.041886233947093,0.331935703754425,-1.570832077656881,0.000000000000000,-1.570808235798971,0.000095873801911,0.000107858024421
369,1776828908969,0.062503761865157,-0.182104295418560,1.001670952079974,-0.339777060380383,2.043813804274555,-2.042509886796323,0.330822676420212,-1.570796314870016,-0.000023667012350,-1.570772473012106,0.000107858024421,0.000083889579400
370,1776828908979,0.062325877968480,-0.182165246672271,1.001670956001130,-0.338794830349347,2.044485606801238,-2.043209514491095,0.329781532287598,-1.570820156727926,-0.000011746083395,-1.570808235798971,0.000023968450478,0.000047936900955
371,1776828908990,0.061947166487950,-0.182294389955239,1.001670947270437,-0.336890742134278,2.045586734124264,-2.044289428300248,0.327771186828613,-1.570808235798971,0.000000000000000,-1.570772473012106,0.000107858024421,0.000047936900955
372,1776828909000,0.061811638742737,-0.182340387931707,1.001670962229913,-0.336105059555308,2.046159549912927,-2.044897995050737,0.326850265264511,-1.570820156727926,-0.000035587941305,-1.570856396351950,0.000083889579400,0.000071905349614
373,1776828909011,0.061621480836703,-0.182404724993289,1.001670958406175,-0.335083217306957,2.046680288469498,-2.045381914191835,0.325916618108749,-1.570808235798971,-0.000035587941305,-1.570760075245992,0.000071905349614,0.000071905349614
374,1776828909022,0.061264987642776,-0.182524797666493,1.001670940957301,-0.333460518270042,2.047672928638760,-2.046377684763852,0.324193507432938,-1.570772473012106,0.000000000000000,-1.570808235798971,0.000083889579400,0.000035952674807
375,1776828909032,0.061157924679626,-0.182560691282124,1.001670948135141,-0.332776042521785,2.048107726392462,-2.046820091695626,0.323427259922028,-1.570808235798971,0.000000000000000,-1.570808235798971,0.000107858024421,0.000047936900955
376,1776828909042,0.061009901391273,-0.182610206618444,1.001670948656340,-0.331972843794994,2.048581701857042,-2.047289691679284,0.322637826204300,-1.570808235798971,0.000000000000000,-1.570796314870016,0.000071905349614,0.000047936900955
377,1776828909053,0.060749123093315,-0.182697123143269,1.001670953197239,-0.330621373888875,2.049407181048060,-2.048118335539431,0.321201592683792,-1.570796314870016,-0.000023667012350,-1.570796314870016,0.000083889579400,0.000047936900955
378,1776828909064,0.060693936625427,-0.182715464169481,1.001670966826227,-0.330130246445790,2.049790073191550,-2.048532845740769,0.320567548274994,-1.570856396351950,-0.000035587941305,-1.570820633565084,0.000095873801911,0.000047936900955
379,1776828909074,0.060563425254135,-0.182758760516086,1.001670961788780,-0.329428732153857,2.050125617706821,-2.048836319867667,0.319957107305527,-1.570844475422994,-0.000023667012350,-1.570796314870016,0.000083889579400,0.000095873801911
380,1776828909085,0.060312615601893,-0.182841689337178,1.001670954498628,-0.328259394793654,2.050839774265964,-2.049553501465554,0.318724602460861,-1.570820156727926,-0.000011746083395,-1.570808235798971,0.000083889579400,0.000059921127104
381,1776828909096,0.060201544271820,-0.182878293294339,1.001670951339517,-0.327741253950893,2.051140917089958,-2.049850537974657,0.318233609199524,-1.570796314870016,-0.000011746083395,-1.570832554494039,0.000047936900955,0.000071905349614
382,1776828909106,0.060094676886139,-0.182913439584936,1.001670943759021,-0.327197024905883,2.051435427594617,-2.050132925811522,0.317731410264969,-1.570796314870016,0.000011920928955,-1.570808235798971,0.000023968450478,0.000059921127104
383,1776828909117,0.059944737939702,-0.182962630235486,1.001670949243565,-0.326398876894263,2.051958035068250,-2.050670723277745,0.316809743642807,-1.570808235798971,0.000000000000000,-1.570808235798971,0.000059921127104,0.000035952674807
384,1776828909127,0.059914508420206,-0.182972526278112,1.001670962019466,-0.326057048012226,2.052184817064402,-2.050905273897015,0.316402643918991,-1.570844475422994,-0.000023667012350,-1.570808235798971,0.000083889579400,0.000071905349614
385,1776828909137,0.059783098772888,-0.183015515916100,1.001670942323022,-0.325566871179036,2.052348736963515,-2.051021908811728,0.316043853759766,-1.570783917103903,0.000000000000000,-1.570772473012106,0.000095873801911,0.000095873801911
386,1776828909147,0.059730038175056,-0.183032846463176,1.001670943037051,-0.325281339011361,2.052607321624046,-2.051311622038058,0.315673112869263,-1.570808235798971,0.000023841857910,-1.570856396351950,0.000059921127104,0.000083889579400
387,1776828909159,0.059626997017609,-0.183066432248871,1.001670945273502,-0.324714370406637,2.052925303123223,-2.051621478029253,0.315098613500595,-1.570808235798971,0.000011920928955,-1.570808235798971,0.000071905349614,0.000071905349614
388,1776828909170,0.059616470401733,-0.183069849065100,1.001670961378431,-0.324560743210416,2.053071120740849,-2.051786640518328,0.314859300851822,-1.570820156727926,-0.000035587941305,-1.570808235798971,0.000083889579400,0.000071905349614
389,1776828909180,0.059508853680052,-0.183104877067283,1.001670936362744,-0.324180334026156,2.053212665146111,-2.051896766989181,0.314619988203049,-1.570783917103903,0.000023841857910,-1.570796314870016,0.000035952674807,0.000059921127104
390,1776828909190,0.059489665607085,-0.183111109767175,1.001670945775620,-0.323984679060205,2.053406251799674,-2.052117599583574,0.314308762550354,-1.570820156727926,0.000023841857910,-1.570856396351950,0.000047936900955,0.000071905349614
391,1776828909200,0.059483928784107,-0.183112969302107,1.001670948034016,-0.323893038681595,2.053461232643144,-2.052172611738174,0.314165353775024,-1.570844475422994,0.000023841857910,-1.570808235798971,0.000095873801911,0.000047936900955
392,1776828909213,0.059484428884846,-0.183112803288086,1.001670953024513,-0.323848786028145,2.053498831793389,-2.052214213710519,0.314141362905502,-1.570844475422994,0.000011920928955,-1.570832554494039,0.000059921127104,0.000071905349614
393,1776828909223,0.059469971846458,-0.183117497215541,1.001670952635422,-0.323823383142725,2.053502498686434,-2.052213734309061,0.314093440771103,-1.570832077656881,0.000000000000000,-1.570796314870016,0.000095873801911,0.000047936900955
394,1776828909234,0.059470419125762,-0.183117349014885,1.001670953797058,-0.323787174749318,2.053513263585645,-2.052220615645130,0.314105421304703,-1.570832077656881,0.000000000000000,-1.570808235798971,0.000059921127104,0.000071905349614
395,1776828909244,0.059457251498829,-0.183121630175907,1.001670948966456,-0.323807237171798,2.053479683778279,-2.052179271508378,0.314141362905502,-1.570808235798971,0.000000000000000,-1.570808235798971,0.000071905349614,0.000071905349614
396,1776828909255,0.059436862460381,-0.183128255312801,1.001670942166010,-0.323743607152661,2.053474575967763,-2.052158633935014,0.314117401838303,-1.570796314870016,0.000011920928955,-1.570796314870016,0.000083889579400,0.000083889579400
397,1776828909266,0.059509834363012,-0.183104544900316,1.001670961159274,-0.323877779517486,2.053524603799582,-2.052255526311204,0.314141362905502,-1.570868317280905,0.000000000000000,-1.570844475422994,0.000035952674807,0.000071905349614
398,1776828909277,0.059478883158883,-0.183114599629509,1.001670952627760,-0.323816666080936,2.053462701220473,-2.052158339418614,0.314153343439102,-1.570832077656881,0.000000000000000,-1.570783917103903,0.000083889579400,0.000083889579400
399,1776828909287,0.059478551057112,-0.183114718207023,1.001670949332711,-0.323879849129775,2.053458214921803,-2.052165695444192,0.314153343439102,-1.570832077656881,0.000011920928955,-1.570820633565084,0.000107858024421,0.000071905349614
400,1776828909298,0.059437671142928,-0.183127986436098,1.001670949892644,-0.323810706454981,2.053499609279742,-2.052207030224727,0.314153343439102,-1.570772473012106,-0.000023667012350,-1.570820633565084,0.000035952674807,0.000047936900955
401,1776828909309,0.059487249920554,-0.183111891602774,1.001670952048996,-0.323883346845056,2.053478135361067,-2.052193511029542,0.314141362905502,-1.570844475422994,0.000011920928955,-1.570832554494039,0.000095873801911,0.000071905349614
402,1776828909320,0.059465826939695,-0.183118844037792,1.001670952248820,-0.323869269905482,2.053474867488449,-2.052186050500644,0.314153343439102,-1.570808235798971,-0.000011746083395,-1.570808235798971,0.000083889579400,0.000047936900955
403,1776828909331,0.059473977807952,-0.183116195144259,1.001670954498628,-0.323844584240303,2.053478715601348,-2.052186033781498,0.314141362905502,-1.570820156727926,-0.000011746083395,-1.570808235798971,0.000083889579400,0.000071905349614
404,1776828909341,0.059474856513933,-0.183115902816347,1.001670959309421,-0.323831500532083,2.053475659766977,-2.052179163600639,0.314153343439102,-1.570808235798971,-0.000035587941305,-1.570796314870016,0.000071905349614,0.000083889579400
405,1776828909352,0.059497541370908,-0.183108542748679,1.001670956731392,-0.323922104702003,2.053487351836479,-2.052214382050762,0.314176946878433,-1.570844475422994,0.000000000000000,-1.570844475422994,0.000059921127104,0.000059921127104
406,1776828909363,0.059462178878709,-0.183120023249749,1.001670950365909,-0.323782787268323,2.053483561552996,-2.052179347306753,0.314129382371902,-1.570820156727926,0.000000000000000,-1.570772473012106,0.000071905349614,0.000059921127104
407,1776828909375,0.059493109446442,-0.183109986008266,1.001670961059175,-0.323925168387650,2.053506886985318,-2.052241563765140,0.314129382371902,-1.570832077656881,-0.000023667012350,-1.570868794118063,0.000083889579400,0.000071905349614
408,1776828909386,0.059458637260045,-0.183121182054508,1.001670950452389,-0.323849917123874,2.053508678549279,-2.052227733951791,0.314141362905502,-1.570808235798971,0.000000000000000,-1.570844475422994,0.000047936900955,0.000047936900955
409,1776828909397,0.059436461520362,-0.183128382942695,1.001670944317756,-0.323756093873991,2.053477460004717,-2.052165244148227,0.314153343439102,-1.570783917103903,0.000000000000000,-1.570808235798971,0.000047936900955,0.000083889579400
410,1776828909407,0.059452524042877,-0.183123159902435,1.001670943025131,-0.323717061573097,2.053468416684265,-2.052144662493206,0.314153343439102,-1.570820156727926,0.000023841857910,-1.570760075245992,0.000047936900955,0.000083889579400
411,1776828909419,0.059469717542193,-0.183117588168240,1.001670945486840,-0.323841791349936,2.053458999026760,-2.052158567716064,0.314141362905502,-1.570832077656881,0.000023841857910,-1.570808235798971,0.000107858024421,0.000071905349614
412,1776828909430,0.059478210656964,-0.183114816867474,1.001670953378266,-0.323838203656715,2.053439267672764,-2.052131166750866,0.314176946878433,-1.570820156727926,-0.000011746083395,-1.570772473012106,0.000095873801911,0.000083889579400
413,1776828909441,0.059479677161045,-0.183114341649730,1.001670958551863,-0.323885778174098,2.053497772665594,-2.052220747887235,0.314141362905502,-1.570820156727926,-0.000023667012350,-1.570820633565084,0.000071905349614,0.000047936900955
414,1776828909451,0.059455855376139,-0.183122076708356,1.001670953751110,-0.323808618223612,2.053489527283737,-2.052192985457826,0.314141362905502,-1.570796314870016,-0.000023667012350,-1.570796314870016,0.000059921127104,0.000059921127104
415,1776828909462,0.059491204523922,-0.183110598269324,1.001670956828300,-0.323861794935826,2.053501813995664,-2.052221103652785,0.314153343439102,-1.570844475422994,0.000000000000000,-1.570832554494039,0.000047936900955,0.000071905349614
