YU-l2025/UR5-MoveDataCollecting/upload/数据集/robot_data4.22.csv
global_index,timestamp_ms,tcp_x,tcp_y,tcp_z,tcp_rx,tcp_ry,tcp_rz,joint_q1,joint_q2,joint_q3,joint_q4,joint_q5,joint_q6
0,1776828647468,-0.000023852666153,-0.192532328874303,1.001670948532611,-0.001410862209081,-2.221340813818015,2.219882572566446,0.000024342956749,-1.570820156727926,0.000011920928955,-1.570844475422994,0.000071905349614,0.000059921127104
1,1776828647479,-0.000070377629888,-0.192532326330297,1.001670937895439,-0.001531277830972,-2.221334757039321,2.219876439638734,0.000000000000000,-1.570783917103903,0.000023841857910,-1.570844475422994,0.000035952674807,0.000059921127104
2,1776828647489,-0.000034047673283,-0.192532322918663,1.001670948270127,-0.001490703497154,-2.221328661866361,2.219870466336910,-0.000011746083395,-1.570820156727926,0.000011920928955,-1.570820633565084,0.000059921127104,0.000059921127104
3,1776828647499,-0.000060849008502,-0.192532323694153,1.001670937966378,-0.001531523266088,-2.221382780389758,2.219924533448477,0.000000000000000,-1.570796314870016,0.000023841857910,-1.570783917103903,0.000083889579400,0.000059921127104
4,1776828647510,-0.000036186209439,-0.192532327412715,1.001670944742851,-0.001411088908073,-2.221364920444146,2.219906653297922,0.000024342956749,-1.570808235798971,0.000011920928955,-1.570808235798971,0.000095873801911,0.000035952674807
5,1776828647520,0.000004832169431,-0.192532319207243,1.001670962362159,-0.001371475936125,-2.221299053499796,2.219840949762406,0.000036327182897,-1.570832077656881,-0.000023667012350,-1.570856396351950,0.000035952674807,0.000059921127104
6,1776828647531,-0.000023521775632,-0.192532326095610,1.001670949158459,-0.001437478000665,-2.221340785967282,2.219882578629739,0.000036327182897,-1.570820156727926,0.000011920928955,-1.570844475422994,0.000047936900955,0.000071905349614
7,1776828647541,-0.000020494700235,-0.192532335368913,1.001670942322741,-0.001477442209991,-2.221358755755217,2.219900514273209,0.000012358732420,-1.570844475422994,0.000048160552979,-1.570856396351950,0.000071905349614,0.000107858024421
8,1776828647552,-0.000041860508833,-0.192532320408187,1.001670940204111,-0.001517857445561,-2.221365009058907,2.219906789569099,0.000036327182897,-1.570820156727926,0.000035762786865,-1.570783917103903,0.000035952674807,0.000047936900955
9,1776828647563,-0.000029403006236,-0.192532320634479,1.001670947627739,-0.001490942918287,-2.221364834842907,2.219906681578048,0.000024342956749,-1.570820156727926,0.000011920928955,-1.570796314870016,0.000059921127104,0.000071905349614
10,1776828647574,-0.000022618920304,-0.192532327320370,1.001670936918041,-0.001477967502804,-2.221406956843179,2.219948727388170,0.000072279857704,-1.570844475422994,0.000060081481934,-1.570783917103903,0.000059921127104,0.000071905349614
11,1776828647584,-0.000038299387248,-0.192532323844360,1.001670946085163,-0.001517660561468,-2.221316583774556,2.219858367942231,0.000000000000000,-1.570820156727926,0.000023841857910,-1.570844475422994,0.000023968450478,0.000071905349614
12,1776828647595,-0.000018608434180,-0.192532329625287,1.001670951589730,-0.001437321251587,-2.221304626701637,2.219846407289030,-0.000011746083395,-1.570832077656881,0.000011920928955,-1.570868794118063,0.000059921127104,0.000071905349614
13,1776828647605,-0.000056666868401,-0.192532331900049,1.001670935177903,-0.001557519727032,-2.221370854756201,2.219912574109865,0.000012358732420,-1.570808235798971,0.000048160552979,-1.570844475422994,0.000047936900955,0.000107858024421
14,1776828647616,-0.000050172745513,-0.192532326084148,1.001670943081053,-0.001463791235962,-2.221352684190823,2.219894411136445,0.000012358732420,-1.570796314870016,0.000011920928955,-1.570820633565084,0.000071905349614,0.000047936900955
15,1776828647626,-0.000031393796561,-0.192532328499565,1.001670943532918,-0.001464357894342,-2.221328583611731,2.219870314217230,0.000000000000000,-1.570832077656881,0.000035762786865,-1.570832554494039,0.000059921127104,0.000047936900955
16,1776828647638,-0.000043303284919,-0.192532333380280,1.001670944249078,-0.001423651491753,-2.221346592239597,2.219888285347452,0.000024342956749,-1.570796314870016,0.000011920928955,-1.570868794118063,0.000071905349614,0.000071905349614
17,1776828647648,-0.000027885689954,-0.192532325938345,1.001670948985336,-0.001410713053399,-2.221364710181247,2.219906497017974,0.000036327182897,-1.570808235798971,0.000000000000000,-1.570820633565084,0.000083889579400,0.000059921127104
18,1776828647659,-0.000000044472530,-0.192532315785876,1.001670960272939,-0.001450984485628,-2.221298499920925,2.219840437332937,0.000000000000000,-1.570844475422994,-0.000011746083395,-1.570820633565084,0.000035952674807,0.000059921127104
19,1776828647669,-0.000043974671440,-0.192532323382540,1.001670939470335,-0.001558087115903,-2.221335035207259,2.219876800366843,-0.000011746083395,-1.570832077656881,0.000048160552979,-1.570808235798971,0.000035952674807,0.000059921127104
20,1776828647680,-0.000057713195294,-0.192532324980067,1.001670937921689,-0.001570810867977,-2.221364720037605,2.219906484568485,-0.000011746083395,-1.570808235798971,0.000035762786865,-1.570808235798971,0.000059921127104,0.000083889579400
21,1776828647690,-0.000043813278872,-0.192532334569533,1.001670937215786,-0.001491046625442,-2.221364930673905,2.219906623553069,0.000012358732420,-1.570820156727926,0.000048160552979,-1.570844475422994,0.000071905349614,0.000083889579400
22,1776828647700,-0.000030151942729,-0.192532322814858,1.001670946595264,-0.001544414361579,-2.221352785355376,2.219894647060963,-0.000011746083395,-1.570832077656881,0.000023841857910,-1.570808235798971,0.000059921127104,0.000095873801911
23,1776828647712,-0.000039820998388,-0.192532316962284,1.001670950432155,-0.001544197463173,-2.221328489135673,2.219870361330282,0.000000000000000,-1.570808235798971,0.000000000000000,-1.570820633565084,0.000023968450478,0.000083889579400
24,1776828647722,-0.000037898547984,-0.192532329364529,1.001670943031981,-0.001463960859351,-2.221364702861911,2.219906451037471,0.000048311409046,-1.570808235798971,0.000023841857910,-1.570844475422994,0.000047936900955,0.000083889579400
25,1776828647733,-0.000048451204676,-0.192532330637484,1.001670936582095,-0.001491291811997,-2.221352716488144,2.219894395830826,0.000000000000000,-1.570820156727926,0.000048160552979,-1.570820633565084,0.000071905349614,0.000047936900955
26,1776828647743,-0.000015141723912,-0.192532320833163,1.001670953070936,-0.001516872262175,-2.221316473083682,2.219858371357015,-0.000023667012350,-1.570844475422994,0.000011920928955,-1.570820633565084,0.000047936900955,0.000083889579400
27,1776828647754,-0.000067998174379,-0.192532327185034,1.001670937895439,-0.001530870255445,-2.221346917589405,2.219888614336039,0.000012358732420,-1.570783917103903,0.000023841857910,-1.570844475422994,0.000035952674807,0.000071905349614
28,1776828647764,-0.000026946340486,-0.192532330419026,1.001670949200702,-0.001384249490124,-2.221352812617105,2.219894559775018,0.000024342956749,-1.570808235798971,0.000000000000000,-1.570844475422994,0.000095873801911,0.000059921127104
29,1776828647775,-0.000043434711548,-0.192532319249119,1.001670946069496,-0.001490915685120,-2.221328924727101,2.219870703305723,0.000012358732420,-1.570808235798971,0.000011920928955,-1.570808235798971,0.000035952674807,0.000035952674807
30,1776828647786,-0.000064379843305,-0.192532320250250,1.001670933685916,-0.001571464649627,-2.221353221474581,2.219894939192127,0.000012358732420,-1.570808235798971,0.000048160552979,-1.570783917103903,0.000023968450478,0.000035952674807
31,1776828647796,-0.000047772066506,-0.192532339613863,1.001670935265597,-0.001397414738509,-2.221346839002725,2.219888409603699,0.000036327182897,-1.570808235798971,0.000048160552979,-1.570868794118063,0.000071905349614,0.000035952674807
32,1776828647807,-0.000025762357771,-0.192532318415246,1.001670951874037,-0.001517709551915,-2.221352870225282,2.219894777775711,0.000012358732420,-1.570820156727926,0.000000000000000,-1.570808235798971,0.000047936900955,0.000095873801911
33,1776828647818,-0.000060547234713,-0.192532320199915,1.001670942879621,-0.001518808243094,-2.221377045160611,2.219918837333447,0.000000000000000,-1.570783917103903,0.000000000000000,-1.570783917103903,0.000083889579400,0.000059921127104
34,1776828647829,-0.000023398857367,-0.192532319367342,1.001670949322430,-0.001465251457131,-2.221340942121255,2.219882777202431,0.000000000000000,-1.570832077656881,0.000011920928955,-1.570783917103903,0.000071905349614,0.000035952674807
35,1776828647840,-0.000054893939464,-0.192532320736678,1.001670936152696,-0.001598592090381,-2.221364999508775,2.219906785674906,0.000000000000000,-1.570820156727926,0.000048160552979,-1.570783917103903,0.000035952674807,0.000071905349614
36,1776828647851,-0.000040879700568,-0.192532327746402,1.001670941418374,-0.001450545902736,-2.221322780928723,2.219864462379980,0.000012358732420,-1.570820156727926,0.000035762786865,-1.570832554494039,0.000047936900955,0.000023968450478
37,1776828647861,-0.000014909498800,-0.192532321139645,1.001670953938307,-0.001398116130354,-2.221359022229473,2.219900874727401,0.000024342956749,-1.570820156727926,-0.000011746083395,-1.570796314870016,0.000095873801911,0.000047936900955
38,1776828647871,-0.000041126156965,-0.192532329726481,1.001670937089194,-0.001490886796642,-2.221376841672856,2.219918561747790,0.000048311409046,-1.570820156727926,0.000048160552979,-1.570820633565084,0.000047936900955,0.000071905349614
39,1776828647882,-0.000042522297027,-0.192532323720496,1.001670946470582,-0.001464338615837,-2.221316601601099,2.219858341199457,0.000000000000000,-1.570808235798971,0.000011920928955,-1.570832554494039,0.000047936900955,0.000035952674807
40,1776828647892,-0.000028795973280,-0.192532329061958,1.001670946475652,-0.001410795610002,-2.221364747749639,2.219906502173132,0.000060295631556,-1.570808235798971,0.000011920928955,-1.570844475422994,0.000059921127104,0.000071905349614
41,1776828647902,-0.000068263145474,-0.192532325447761,1.001670936475588,-0.001530398826425,-2.221322640122633,2.219864300298917,-0.000011746083395,-1.570796314870016,0.000035762786865,-1.570832554494039,0.000035952674807,0.000035952674807
42,1776828647913,-0.000022723430995,-0.192532330534831,1.001670948788341,-0.001384314998290,-2.221328884163182,2.219870611723428,0.000024342956749,-1.570820156727926,0.000011920928955,-1.570856396351950,0.000071905349614,0.000047936900955
43,1776828647924,-0.000047185726350,-0.192532316706807,1.001670947568321,-0.001517537768311,-2.221340873058264,2.219882699126088,0.000024342956749,-1.570796314870016,0.000000000000000,-1.570808235798971,0.000023968450478,0.000059921127104
44,1776828647934,-0.000022809688140,-0.192532316717714,1.001670950476566,-0.001504307248361,-2.221334890148648,2.219876766388574,0.000012358732420,-1.570832077656881,0.000011920928955,-1.570796314870016,0.000035952674807,0.000059921127104
45,1776828647945,-0.000071899913518,-0.192532328309566,1.001670932963241,-0.001557825936030,-2.221334730971008,2.219876381508036,0.000000000000000,-1.570796314870016,0.000048160552979,-1.570844475422994,0.000023968450478,0.000059921127104
46,1776828647956,-0.000038572406578,-0.192532332854708,1.001670945817864,-0.001424327680069,-2.221334780501217,2.219876483478035,-0.000011746083395,-1.570808235798971,0.000011920928955,-1.570856396351950,0.000095873801911,0.000059921127104
47,1776828647967,-0.000063847945611,-0.192532325766104,1.001670935316171,-0.001478319913075,-2.221395204840760,2.219936899329850,0.000048311409046,-1.570783917103903,0.000023841857910,-1.570783917103903,0.000071905349614,0.000035952674807
48,1776828647977,-0.000015561186080,-0.192532324633917,1.001670949091018,-0.001451109704326,-2.221382843812941,2.219924702265219,0.000024342956749,-1.570832077656881,0.000011920928955,-1.570796314870016,0.000095873801911,0.000083889579400
49,1776828647988,-0.000036463931627,-0.192532326893593,1.001670944887288,-0.001490982450766,-2.221340537005672,2.219882307649747,0.000000000000000,-1.570820156727926,0.000023841857910,-1.570832554494039,0.000059921127104,0.000071905349614
50,1776828647999,-0.000030880861528,-0.192532312566581,1.001670956387102,-0.001478084593721,-2.221310987620977,2.219852873408692,-0.000011746083395,-1.570808235798971,-0.000023667012350,-1.570796314870016,0.000047936900955,0.000035952674807
51,1776828648009,-0.000007450337451,-0.192532307661239,1.001670961653067,-0.001478075696787,-2.221299081383969,2.219841058928815,0.000012358732420,-1.570832077656881,-0.000023667012350,-1.570796314870016,0.000011984225239,0.000047936900955
52,1776828648019,-0.000004534012356,-0.192532326654846,1.001670955448149,-0.001330752376354,-2.221292787967554,2.219834545063568,0.000036327182897,-1.570832077656881,0.000000000000000,-1.570868794118063,0.000047936900955,0.000023968450478
53,1776828648029,-0.000029998860472,-0.192532324275949,1.001670943155862,-0.001477628564816,-2.221346902084139,2.219888670159802,0.000024342956749,-1.570832077656881,0.000035762786865,-1.570808235798971,0.000047936900955,0.000047936900955
54,1776828648040,-0.000022885503880,-0.192532319864700,1.001670951139557,-0.001504348235470,-2.221322544154912,2.219864407077038,0.000000000000000,-1.570832077656881,0.000011920928955,-1.570820633565084,0.000035952674807,0.000071905349614
55,1776828648051,-0.000038364576446,-0.192532320792484,1.001670944775566,-0.001530863800666,-2.221346859280963,2.219888678503497,0.000012358732420,-1.570820156727926,0.000023841857910,-1.570808235798971,0.000035952674807,0.000071905349614
56,1776828648061,-0.000026306674483,-0.192532320645126,1.001670953726872,-0.001424339265842,-2.221322899373458,2.219864717490524,0.000024342956749,-1.570808235798971,-0.000011746083395,-1.570832554494039,0.000047936900955,0.000047936900955
57,1776828648071,-0.000006859766279,-0.192532319458401,1.001670958112584,-0.001451118454854,-2.221322896549099,2.219864813610468,0.000012358732420,-1.570832077656881,-0.000011746083395,-1.570832554494039,0.000047936900955,0.000083889579400
58,1776828648081,-0.000057937108299,-0.192532330106955,1.001670934228396,-0.001530738337732,-2.221370824936121,2.219912518139067,0.000012358732420,-1.570808235798971,0.000048160552979,-1.570820633565084,0.000059921127104,0.000071905349614
59,1776828648092,-0.000076390708835,-0.192532322590862,1.001670936303547,-0.001557863189611,-2.221347030447519,2.219888731313752,-0.000023667012350,-1.570783917103903,0.000023841857910,-1.570808235798971,0.000059921127104,0.000047936900955
60,1776828648103,-0.000034643527644,-0.192532326538541,1.001670943822282,-0.001490703720914,-2.221316707022723,2.219858448397793,-0.000011746083395,-1.570832077656881,0.000035762786865,-1.570832554494039,0.000047936900955,0.000047936900955
61,1776828648113,-0.000044679595712,-0.192532327984283,1.001670943639342,-0.001464007969915,-2.221316831276634,2.219858531270519,0.000012358732420,-1.570808235798971,0.000023841857910,-1.570856396351950,0.000035952674807,0.000047936900955
62,1776828648124,-0.000033686817423,-0.192532317146341,1.001670948158404,-0.001530857296757,-2.221346838104159,2.219888705565429,0.000012358732420,-1.570820156727926,0.000011920928955,-1.570796314870016,0.000035952674807,0.000071905349614
63,1776828648134,-0.000059404615526,-0.192532319304718,1.001670938888783,-0.001571039375027,-2.221328663365291,2.219870411806218,0.000000000000000,-1.570808235798971,0.000035762786865,-1.570808235798971,0.000011984225239,0.000047936900955
64,1776828648145,-0.000065033483650,-0.192532331850112,1.001670937099445,-0.001490958505732,-2.221364919079742,2.219906587957064,0.000012358732420,-1.570783917103903,0.000023841857910,-1.570844475422994,0.000071905349614,0.000071905349614
65,1776828648156,-0.000031645159584,-0.192532325117048,1.001670941709531,-0.001478019095534,-2.221371047513670,2.219912823035544,0.000012358732420,-1.570832077656881,0.000035762786865,-1.570783917103903,0.000083889579400,0.000047936900955
66,1776828648167,-0.000020833227478,-0.192532319839587,1.001670949922340,-0.001477699482656,-2.221346891022265,2.219888748685425,0.000012358732420,-1.570832077656881,0.000011920928955,-1.570796314870016,0.000059921127104,0.000059921127104
67,1776828648177,-0.000011807513724,-0.192532329039574,1.001670954037398,-0.001331272030615,-2.221340957255321,2.219882727694808,0.000012358732420,-1.570820156727926,-0.000011746083395,-1.570832554494039,0.000119842254207,0.000035952674807
68,1776828648188,-0.000066303723200,-0.192532330033334,1.001670936197065,-0.001490806559823,-2.221376843702007,2.219918519619764,0.000012358732420,-1.570783917103903,0.000023841857910,-1.570820633565084,0.000083889579400,0.000059921127104
69,1776828648199,-0.000045740858913,-0.192532328685132,1.001670937089194,-0.001504185380583,-2.221358872385156,2.219900581193996,0.000024342956749,-1.570820156727926,0.000048160552979,-1.570820633565084,0.000047936900955,0.000059921127104
70,1776828648209,-0.000041662313389,-0.192532326940200,1.001670941511324,-0.001450944777789,-2.221370866465902,2.219912597903533,0.000036327182897,-1.570808235798971,0.000023841857910,-1.570808235798971,0.000071905349614,0.000047936900955
71,1776828648219,-0.000045814166960,-0.192532318697893,1.001670946069496,-0.001531266995856,-2.221334696733987,2.219876509759461,0.000000000000000,-1.570808235798971,0.000011920928955,-1.570808235798971,0.000035952674807,0.000059921127104
72,1776828648230,-0.000027426545457,-0.192532323685292,1.001670947097084,-0.001437705494508,-2.221364879444067,2.219906676798286,0.000024342956749,-1.570820156727926,0.000011920928955,-1.570796314870016,0.000083889579400,0.000047936900955
73,1776828648241,-0.000042807337439,-0.192532326353681,1.001670945891857,-0.001504030863365,-2.221346636861186,2.219888423671802,-0.000011746083395,-1.570808235798971,0.000011920928955,-1.570832554494039,0.000071905349614,0.000083889579400
74,1776828648252,-0.000030656937446,-0.192532324993370,1.001670948564561,-0.001464428312909,-2.221328586977732,2.219870374025246,0.000000000000000,-1.570820156727926,0.000011920928955,-1.570832554494039,0.000059921127104,0.000059921127104
75,1776828648263,-0.000053323610449,-0.192532321244947,1.001670943251912,-0.001504161747064,-2.221346873022628,2.219888634010478,0.000012358732420,-1.570796314870016,0.000011920928955,-1.570808235798971,0.000047936900955,0.000047936900955
76,1776828648274,-0.000029527702329,-0.192532326681375,1.001670948845534,-0.001424566740167,-2.221310680130717,2.219852419299486,0.000000000000000,-1.570820156727926,0.000011920928955,-1.570844475422994,0.000059921127104,0.000035952674807
77,1776828648284,-0.000016200637781,-0.192532316126473,1.001670953181034,-0.001491536886385,-2.221353085649934,2.219895008056476,0.000012358732420,-1.570832077656881,0.000000000000000,-1.570783917103903,0.000059921127104,0.000071905349614
78,1776828648295,-0.000025762357771,-0.192532318415246,1.001670951874037,-0.001491080319522,-2.221340914987973,2.219882790459915,0.000012358732420,-1.570820156727926,0.000000000000000,-1.570808235798971,0.000047936900955,0.000071905349614
79,1776828648306,-0.000050632930787,-0.192532322177169,1.001670942018423,-0.001531203075411,-2.221346669465381,2.219888440755062,0.000000000000000,-1.570808235798971,0.000023841857910,-1.570808235798971,0.000047936900955,0.000059921127104
80,1776828648317,-0.000027438622883,-0.192532322439417,1.001670951007366,-0.001464618556275,-2.221340879684584,2.219882714137526,-0.000011746083395,-1.570820156727926,0.000000000000000,-1.570808235798971,0.000083889579400,0.000059921127104
81,1776828648328,-0.000083396275728,-0.192532328614811,1.001670929495935,-0.001530502286372,-2.221382754497056,2.219924389507231,0.000024342956749,-1.570772473012106,0.000035762786865,-1.570808235798971,0.000059921127104,0.000047936900955
82,1776828648339,0.000007304115460,-0.192532317111697,1.001670958232001,-0.001437530847161,-2.221316786818128,2.219858721698029,0.000012358732420,-1.570856396351950,0.000000000000000,-1.570808235798971,0.000047936900955,0.000059921127104
83,1776828648350,-0.000046933150909,-0.192532331907156,1.001670933176236,-0.001464182625484,-2.221364880592681,2.219906520740627,0.000048311409046,-1.570820156727926,0.000060081481934,-1.570820633565084,0.000047936900955,0.000035952674807
84,1776828648361,-0.000034570390417,-0.192532317678842,1.001670952826252,-0.001518045218168,-2.221340919403241,2.219882812627835,-0.000011746083395,-1.570808235798971,-0.000011746083395,-1.570808235798971,0.000059921127104,0.000083889579400
85,1776828648372,-0.000032113351477,-0.192532322960758,1.001670947097084,-0.001464734770618,-2.221352701273089,2.219894502342100,0.000000000000000,-1.570820156727926,0.000011920928955,-1.570796314870016,0.000083889579400,0.000047936900955
86,1776828648382,-0.000046546274074,-0.192532325712041,1.001670943346853,-0.001450481921122,-2.221358674856676,2.219900407134149,0.000036327182897,-1.570796314870016,0.000011920928955,-1.570820633565084,0.000059921127104,0.000047936900955
87,1776828648393,-0.000022869034722,-0.192532317895388,1.001670946430478,-0.001478075430650,-2.221359061342827,2.219900898399077,0.000048311409046,-1.570832077656881,0.000023841857910,-1.570783917103903,0.000035952674807,0.000047936900955
88,1776828648403,-0.000030445452801,-0.192532314638881,1.001670951206519,-0.001505169345263,-2.221334917365365,2.219876794209476,0.000000000000000,-1.570820156727926,0.000000000000000,-1.570783917103903,0.000047936900955,0.000047936900955
89,1776828648413,-0.000057561790289,-0.192532316618293,1.001670948675649,-0.001517946635241,-2.221316976122873,2.219858772761127,-0.000011746083395,-1.570783917103903,-0.000011746083395,-1.570820633565084,0.000035952674807,0.000047936900955
90,1776828648425,-0.000016408411741,-0.192532323267308,1.001670949941884,-0.001437855604891,-2.221352935487377,2.219894766404592,0.000024342956749,-1.570832077656881,0.000011920928955,-1.570808235798971,0.000071905349614,0.000059921127104
91,1776828648435,-0.000043993762683,-0.192532318209337,1.001670945040902,-0.001544302336975,-2.221316844431734,2.219858643906809,-0.000011746083395,-1.570820156727926,0.000023841857910,-1.570808235798971,0.000023968450478,0.000047936900955
92,1776828648446,-0.000064857605316,-0.192532334013637,1.001670929886885,-0.001504447426632,-2.221418932150172,2.219960595665087,0.000024342956749,-1.570796314870016,0.000048160552979,-1.570796314870016,0.000107858024421,0.000071905349614
93,1776828648457,-0.000046071749116,-0.192532331221401,1.001670936582095,-0.001504198737607,-2.221370855072002,2.219912563804438,0.000012358732420,-1.570820156727926,0.000048160552979,-1.570820633565084,0.000071905349614,0.000071905349614
94,1776828648467,-0.000061228978284,-0.192532325136844,1.001670933692802,-0.001597668893008,-2.221388919477102,2.219930685288705,0.000012358732420,-1.570808235798971,0.000048160552979,-1.570796314870016,0.000047936900955,0.000095873801911
95,1776828648478,-0.000009145003052,-0.192532323199107,1.001670954947597,-0.001410995719730,-2.221316869394836,2.219858705590152,0.000024342956749,-1.570832077656881,0.000000000000000,-1.570844475422994,0.000047936900955,0.000059921127104
96,1776828648489,-0.000031040266498,-0.192532324200040,1.001670949858491,-0.001464023889079,-2.221352718700137,2.219894542079534,0.000024342956749,-1.570808235798971,0.000000000000000,-1.570832554494039,0.000059921127104,0.000083889579400
97,1776828648500,0.000001702738811,-0.192532318769638,1.001670954794657,-0.001397921485241,-2.221358911614295,2.219900806310151,0.000036327182897,-1.570844475422994,0.000000000000000,-1.570783917103903,0.000083889579400,0.000047936900955
98,1776828648511,-0.000028468992434,-0.192532317761482,1.001670950676801,-0.001518505550494,-2.221364851058572,2.219906757628515,0.000000000000000,-1.570820156727926,0.000000000000000,-1.570783917103903,0.000071905349614,0.000083889579400
99,1776828648521,-0.000051169342115,-0.192532319650550,1.001670946772320,-0.001477753529637,-2.221322886414596,2.219864642480739,-0.000011746083395,-1.570796314870016,0.000000000000000,-1.570808235798971,0.000059921127104,0.000023968450478
100,1776828648532,-0.000047482065911,-0.192532327055324,1.001670941847564,-0.001490832638264,-2.221352481123866,2.219894217882329,0.000000000000000,-1.570808235798971,0.000023841857910,-1.570820633565084,0.000071905349614,0.000059921127104
101,1776828648543,-0.000040404831596,-0.192532326975734,1.001670946475652,-0.001477744866929,-2.221334583872357,2.219876346675998,0.000000000000000,-1.570808235798971,0.000011920928955,-1.570844475422994,0.000059921127104,0.000071905349614
102,1776828648553,-0.000047436793264,-0.192532325510305,1.001670944413728,-0.001477652117357,-2.221394815125914,2.219936611664302,0.000060295631556,-1.570783917103903,0.000000000000000,-1.570820633565084,0.000059921127104,0.000095873801911
103,1776828648564,-0.000075071697335,-0.192532324874443,1.001670932135360,-0.001570963530599,-2.221388929186870,2.219930643422905,0.000024342956749,-1.570783917103903,0.000035762786865,-1.570796314870016,0.000047936900955,0.000071905349614
104,1776828648575,-0.000030052036428,-0.192532325731370,1.001670949557349,-0.001437405320792,-2.221352741315246,2.219894539202875,0.000024342956749,-1.570808235798971,0.000000000000000,-1.570832554494039,0.000071905349614,0.000071905349614
105,1776828648586,-0.000037976495782,-0.192532324581190,1.001670945873323,-0.001477182360820,-2.221358664673142,2.219900455031637,0.000024342956749,-1.570808235798971,0.000011920928955,-1.570820633565084,0.000059921127104,0.000071905349614
106,1776828648597,-0.000052476385154,-0.192532322669093,1.001670942407775,-0.001504101912930,-2.221370802355703,2.219912577226110,0.000012358732420,-1.570796314870016,0.000011920928955,-1.570796314870016,0.000071905349614,0.000059921127104
107,1776828648608,-0.000023803785526,-0.192532325852465,1.001670947980765,-0.001437336145966,-2.221364690034607,2.219906493774957,0.000036327182897,-1.570820156727926,0.000011920928955,-1.570820633565084,0.000071905349614,0.000071905349614
108,1776828648619,-0.000057811484305,-0.192532322356931,1.001670939638721,-0.001557343358820,-2.221370773543251,2.219912556384988,0.000024342956749,-1.570796314870016,0.000023841857910,-1.570808235798971,0.000035952674807,0.000083889579400
109,1776828648630,-0.000061907718938,-0.192532332626043,1.001670936036560,-0.001557415225334,-2.221382409663783,2.219924137317175,0.000000000000000,-1.570796314870016,0.000035762786865,-1.570844475422994,0.000071905349614,0.000119842254207
110,1776828648640,-0.000023176708229,-0.192532322032819,1.001670953703635,-0.001464226220258,-2.221304869913381,2.219846703384943,0.000012358732420,-1.570820156727926,0.000000000000000,-1.570856396351950,0.000023968450478,0.000071905349614
111,1776828648650,-0.000078807331323,-0.192532330385122,1.001670928725282,-0.001557736586845,-2.221383000074028,2.219924648829239,0.000024342956749,-1.570783917103903,0.000048160552979,-1.570820633565084,0.000047936900955,0.000071905349614
112,1776828648660,-0.000002602671878,-0.192532322926406,1.001670952757540,-0.001383697420579,-2.221328574877140,2.219870392502198,0.000036327182897,-1.570844475422994,0.000011920928955,-1.570820633565084,0.000059921127104,0.000035952674807
113,1776828648672,-0.000045870771297,-0.192532316866281,1.001670949520677,-0.001570866679131,-2.221328874753151,2.219870750041606,-0.000035587941305,-1.570808235798971,0.000000000000000,-1.570808235798971,0.000047936900955,0.000083889579400
114,1776828648682,-0.000035066021383,-0.192532324574590,1.001670948412243,-0.001464822213645,-2.221364704463459,2.219906519376452,0.000000000000000,-1.570808235798971,0.000000000000000,-1.570808235798971,0.000095873801911,0.000071905349614
115,1776828648693,-0.000022007632010,-0.192532318098581,1.001670949587288,-0.001464832998787,-2.221341124733764,2.219882966891422,0.000012358732420,-1.570832077656881,0.000011920928955,-1.570783917103903,0.000059921127104,0.000035952674807
116,1776828648704,-0.000076793812299,-0.192532327656192,1.001670931517496,-0.001558080622047,-2.221394749965880,2.219936444718134,0.000000000000000,-1.570783917103903,0.000035762786865,-1.570796314870016,0.000083889579400,0.000071905349614
117,1776828648714,-0.000022612165421,-0.192532332151648,1.001670942354691,-0.001450721380528,-2.221334794846346,2.219876515881769,0.000012358732420,-1.570844475422994,0.000048160552979,-1.570844475422994,0.000059921127104,0.000059921127104
118,1776828648725,-0.000044639762443,-0.192532320453413,1.001670946428491,-0.001517504388604,-2.221328507511342,2.219870304443586,0.000000000000000,-1.570808235798971,0.000011920928955,-1.570820633565084,0.000035952674807,0.000059921127104
119,1776828648736,-0.000065086969919,-0.192532319844066,1.001670938401846,-0.001584488158636,-2.221370880312422,2.219912669126628,-0.000011746083395,-1.570796314870016,0.000023841857910,-1.570783917103903,0.000059921127104,0.000071905349614
120,1776828648747,-0.000026706990406,-0.192532329206605,1.001670943532918,-0.001437328909517,-2.221340761451859,2.219882488999369,0.000024342956749,-1.570832077656881,0.000035762786865,-1.570832554494039,0.000059921127104,0.000047936900955
121,1776828648757,-0.000025762357771,-0.192532318415246,1.001670951874037,-0.001477765814955,-2.221334937311056,2.219876796743961,0.000012358732420,-1.570820156727926,0.000000000000000,-1.570808235798971,0.000047936900955,0.000059921127104
122,1776828648767,-0.000000684130811,-0.192532326793192,1.001670948987489,-0.001384552041253,-2.221364917723471,2.219906732728973,0.000012358732420,-1.570856396351950,0.000023841857910,-1.570783917103903,0.000119842254207,0.000035952674807
123,1776828648777,-0.000028291658780,-0.192532326797165,1.001670944579393,-0.001437258721308,-2.221364679598454,2.219906442639536,0.000048311409046,-1.570820156727926,0.000023841857910,-1.570820633565084,0.000059921127104,0.000059921127104
124,1776828648788,-0.000029063805739,-0.192532327250858,1.001670949256209,-0.001424101183219,-2.221358741815000,2.219900529931064,0.000024342956749,-1.570808235798971,0.000000000000000,-1.570832554494039,0.000083889579400,0.000071905349614
125,1776828648798,-0.000005806346890,-0.192532324490656,1.001670958838643,-0.001384670663296,-2.221280688447734,2.219822510769537,0.000000000000000,-1.570832077656881,-0.000011746083395,-1.570868794118063,0.000047936900955,0.000047936900955
126,1776828648809,-0.000039358673659,-0.192532330300062,1.001670942157140,-0.001423948967847,-2.221358725534474,2.219900425414418,0.000036327182897,-1.570808235798971,0.000023841857910,-1.570832554494039,0.000071905349614,0.000047936900955
127,1776828648820,-0.000043046630917,-0.192532323098783,1.001670947106812,-0.001490492634387,-2.221364640517575,2.219906454547379,0.000024342956749,-1.570796314870016,0.000000000000000,-1.570820633565084,0.000059921127104,0.000083889579400
128,1776828648831,-0.000036847260631,-0.192532326241710,1.001670946181218,-0.001424005786884,-2.221334779458515,2.219876507188182,0.000024342956749,-1.570808235798971,0.000011920928955,-1.570832554494039,0.000059921127104,0.000035952674807
129,1776828648841,-0.000044034861276,-0.192532321555611,1.001670947384395,-0.001477167397774,-2.221346684419291,2.219888476303918,0.000024342956749,-1.570796314870016,0.000000000000000,-1.570820633565084,0.000047936900955,0.000059921127104
130,1776828648852,-0.000043716612006,-0.192532317275116,1.001670948921669,-0.001544245693165,-2.221340813226984,2.219882676516729,-0.000023667012350,-1.570808235798971,0.000000000000000,-1.570796314870016,0.000059921127104,0.000071905349614
131,1776828648863,-0.000045520656854,-0.192532326705181,1.001670941418374,-0.001490624542777,-2.221316699822471,2.219858400338842,-0.000011746083395,-1.570820156727926,0.000035762786865,-1.570832554494039,0.000047936900955,0.000035952674807
132,1776828648874,-0.000023782186542,-0.192532318397232,1.001670950676801,-0.001464847040515,-2.221365074175750,2.219906944925367,0.000024342956749,-1.570820156727926,0.000000000000000,-1.570783917103903,0.000071905349614,0.000059921127104
133,1776828648885,-0.000032359387008,-0.192532325357227,1.001670949557349,-0.001464026516243,-2.221352723932170,2.219894539205675,0.000012358732420,-1.570808235798971,0.000000000000000,-1.570832554494039,0.000071905349614,0.000083889579400
134,1776828648896,-0.000017078509609,-0.192532317964486,1.001670954715402,-0.001504423037164,-2.221322549201380,2.219864461250701,0.000000000000000,-1.570832077656881,0.000000000000000,-1.570820633565084,0.000035952674807,0.000083889579400
135,1776828648906,-0.000040958547053,-0.192532333578373,1.001670942627202,-0.001477106060374,-2.221310589777197,2.219852275588347,-0.000011746083395,-1.570820156727926,0.000035762786865,-1.570880715047018,0.000047936900955,0.000071905349614
136,1776828648917,-0.000035748663852,-0.192532332663583,1.001670940022040,-0.001450514194781,-2.221382640282295,2.219924362032449,0.000024342956749,-1.570820156727926,0.000035762786865,-1.570820633565084,0.000095873801911,0.000071905349614
137,1776828648927,-0.000049820474460,-0.192532315083747,1.001670951172397,-0.001505367722313,-2.221346998845219,2.219888856296079,0.000000000000000,-1.570783917103903,-0.000023667012350,-1.570796314870016,0.000059921127104,0.000059921127104
138,1776828648938,-0.000052936570389,-0.192532318733641,1.001670941268520,-0.001584829134856,-2.221370764248698,2.219912599836739,0.000000000000000,-1.570808235798971,0.000023841857910,-1.570783917103903,0.000047936900955,0.000083889579400
139,1776828648948,-0.000046228190607,-0.192532327367071,1.001670945445699,-0.001477806484463,-2.221382776889235,2.219924566711083,-0.000011746083395,-1.570796314870016,0.000000000000000,-1.570808235798971,0.000119842254207,0.000083889579400
140,1776828648958,-0.000051095778291,-0.192532329389488,1.001670937438156,-0.001504123522104,-2.221382803627647,2.219924529054949,0.000012358732420,-1.570808235798971,0.000035762786865,-1.570808235798971,0.000083889579400,0.000071905349614
141,1776828648968,-0.000020896285074,-0.192532324041971,1.001670946595264,-0.001451092686434,-2.221358903093982,2.219900708859157,0.000036327182897,-1.570832077656881,0.000023841857910,-1.570808235798971,0.000059921127104,0.000059921127104
142,1776828648979,-0.000044273115240,-0.192532319614670,1.001670950743914,-0.001504203428096,-2.221334723024249,2.219876559123136,-0.000011746083395,-1.570796314870016,-0.000011746083395,-1.570820633565084,0.000059921127104,0.000071905349614
143,1776828648989,-0.000005063105165,-0.192532322313838,1.001670955912657,-0.001450474600200,-2.221322488633259,2.219864381155667,-0.000011746083395,-1.570844475422994,0.000000000000000,-1.570820633565084,0.000071905349614,0.000071905349614
144,1776828649000,-0.000047521899085,-0.192532334621363,1.001670938958890,-0.001463964721449,-2.221352760763870,2.219894431385755,0.000012358732420,-1.570808235798971,0.000035762786865,-1.570856396351950,0.000071905349614,0.000071905349614
145,1776828649011,-0.000052476385154,-0.192532322669093,1.001670942407775,-0.001517416703461,-2.221376780113003,2.219918570703327,0.000012358732420,-1.570796314870016,0.000011920928955,-1.570796314870016,0.000071905349614,0.000071905349614
146,1776828649022,-0.000023469337233,-0.192532329842653,1.001670947178241,-0.001451210078275,-2.221334616169608,2.219876385588924,0.000000000000000,-1.570832077656881,0.000023841857910,-1.570844475422994,0.000071905349614,0.000071905349614
147,1776828649032,-0.000027484789858,-0.192532321989927,1.001670954006361,-0.001437727108869,-2.221316930728467,2.219858750605655,0.000012358732420,-1.570808235798971,-0.000011746083395,-1.570844475422994,0.000047936900955,0.000059921127104
148,1776828649043,-0.000046551026013,-0.192532322204048,1.001670940978046,-0.001544511228143,-2.221340671043212,2.219882443353680,0.000000000000000,-1.570820156727926,0.000035762786865,-1.570808235798971,0.000035952674807,0.000059921127104
149,1776828649054,-0.000026186045277,-0.192532326931615,1.001670940828964,-0.001504194404564,-2.221370815943228,2.219912606864547,0.000012358732420,-1.570844475422994,0.000048160552979,-1.570796314870016,0.000071905349614,0.000071905349614
150,1776828649065,-0.000059457783719,-0.192532322900074,1.001670938184111,-0.001517789944340,-2.221376985935678,2.219918729052191,0.000012358732420,-1.570796314870016,0.000023841857910,-1.570783917103903,0.000071905349614,0.000047936900955
151,1776828649075,-0.000044152478968,-0.192532327925375,1.001670935359520,-0.001544573853592,-2.221365045378715,2.219906780511137,0.000012358732420,-1.570832077656881,0.000060081481934,-1.570808235798971,0.000047936900955,0.000071905349614
152,1776828649085,-0.000038899529213,-0.192532327909486,1.001670940217394,-0.001477570568816,-2.221370850914894,2.219912591949620,0.000024342956749,-1.570820156727926,0.000035762786865,-1.570808235798971,0.000071905349614,0.000059921127104
153,1776828649096,-0.000022611492842,-0.192532323254436,1.001670951590494,-0.001424081088322,-2.221334770874815,2.219876579275699,0.000012358732420,-1.570820156727926,0.000000000000000,-1.570820633565084,0.000071905349614,0.000047936900955
154,1776828649107,-0.000057056432161,-0.192532327743346,1.001670939736133,-0.001464715805870,-2.221389052023711,2.219930772195055,0.000036327182897,-1.570783917103903,0.000011920928955,-1.570808235798971,0.000083889579400,0.000059921127104
155,1776828649118,-0.000018443330502,-0.192532336949466,1.001670948570826,-0.001357339943276,-2.221340700780344,2.219882406756990,0.000024342956749,-1.570820156727926,0.000011920928955,-1.570880715047018,0.000095873801911,0.000071905349614
156,1776828649129,-0.000025507275680,-0.192532320390051,1.001670945924317,-0.001438137150904,-2.221341136764882,2.219882913038289,0.000024342956749,-1.570832077656881,0.000023841857910,-1.570783917103903,0.000059921127104,0.000011984225239
157,1776828649139,-0.000016854901037,-0.192532329827197,1.001670945009622,-0.001450124869669,-2.221358464908061,2.219900247755750,0.000012358732420,-1.570844475422994,0.000035762786865,-1.570820633565084,0.000083889579400,0.000071905349614
158,1776828649150,-0.000029864245305,-0.192532321635840,1.001670954006361,-0.001451449405700,-2.221310748313770,2.219852569419100,0.000000000000000,-1.570808235798971,-0.000011746083395,-1.570844475422994,0.000047936900955,0.000059921127104
159,1776828649160,-0.000060952835322,-0.192532336943505,1.001670931949034,-0.001450960167410,-2.221370928850163,2.219912521589763,0.000036327182897,-1.570796314870016,0.000048160552979,-1.570844475422994,0.000071905349614,0.000047936900955
160,1776828649170,-0.000025042802514,-0.192532323874144,1.001670948429945,-0.001504017595141,-2.221322773522780,2.219864597466743,0.000012358732420,-1.570832077656881,0.000023841857910,-1.570844475422994,0.000023968450478,0.000083889579400
161,1776828649180,-0.000023017461782,-0.192532323961260,1.001670947205120,-0.001437312033525,-2.221328762095905,2.219870531297130,0.000024342956749,-1.570832077656881,0.000023841857910,-1.570820633565084,0.000047936900955,0.000035952674807
162,1776828649191,-0.000053053147646,-0.192532331452337,1.001670932327898,-0.001531201637948,-2.221383016369426,2.219924709067634,0.000012358732420,-1.570820156727926,0.000060081481934,-1.570808235798971,0.000071905349614,0.000071905349614
163,1776828649201,-0.000054660619043,-0.192532327182068,1.001670939517670,-0.001490343035147,-2.221364629791141,2.219906346840925,0.000024342956749,-1.570796314870016,0.000023841857910,-1.570820633565084,0.000059921127104,0.000059921127104
164,1776828649211,-0.000042494158258,-0.192532333549389,1.001670937492896,-0.001504358717935,-2.221370903561081,2.219912619619624,0.000024342956749,-1.570820156727926,0.000048160552979,-1.570844475422994,0.000059921127104,0.000095873801911
165,1776828649221,-0.000026633853780,-0.192532320332187,1.001670952537535,-0.001438041032361,-2.221353019093011,2.219894865433776,0.000024342956749,-1.570808235798971,-0.000011746083395,-1.570808235798971,0.000071905349614,0.000059921127104
166,1776828649232,0.000002052923551,-0.192532322258592,1.001670961045111,-0.001344781962150,-2.221299061619500,2.219840911657268,0.000012358732420,-1.570832077656881,-0.000023667012350,-1.570844475422994,0.000071905349614,0.000035952674807
167,1776828649242,-0.000031967010928,-0.192532330546677,1.001670944880581,-0.001424094096086,-2.221334813229920,2.219876525153080,0.000012358732420,-1.570820156727926,0.000023841857910,-1.570844475422994,0.000071905349614,0.000047936900955
168,1776828649253,-0.000047482065911,-0.192532327055324,1.001670941847564,-0.001477518060983,-2.221346503367258,2.219888224241487,0.000000000000000,-1.570808235798971,0.000023841857910,-1.570820633565084,0.000071905349614,0.000047936900955
169,1776828649264,-0.000047341060847,-0.192532327187945,1.001670942434721,-0.001477588770090,-2.221334551971577,2.219876266031355,0.000000000000000,-1.570808235798971,0.000023841857910,-1.570832554494039,0.000059921127104,0.000047936900955
170,1776828649274,-0.000053388909119,-0.192532315429343,1.001670950907713,-0.001518342123030,-2.221341158721519,2.219883010994655,-0.000023667012350,-1.570783917103903,-0.000023667012350,-1.570796314870016,0.000071905349614,0.000059921127104
171,1776828649285,-0.000046012892983,-0.192532331007505,1.001670939217939,-0.001463878168225,-2.221352724234420,2.219894409866114,0.000036327182897,-1.570808235798971,0.000035762786865,-1.570844475422994,0.000047936900955,0.000059921127104
172,1776828649296,-0.000031458876867,-0.192532324020417,1.001670946318155,-0.001477773813717,-2.221322934340638,2.219864707578539,-0.000023667012350,-1.570832077656881,0.000023841857910,-1.570808235798971,0.000071905349614,0.000035952674807
173,1776828649306,-0.000055573496125,-0.192532318570723,1.001670947384395,-0.001517081303917,-2.221304747176113,2.219846514826382,-0.000035587941305,-1.570796314870016,0.000000000000000,-1.570820633565084,0.000047936900955,0.000035952674807
174,1776828649316,-0.000029271365190,-0.192532315944557,1.001670954665142,-0.001504193894824,-2.221322830563146,2.219864726580456,0.000024342956749,-1.570808235798971,-0.000011746083395,-1.570832554494039,0.000011984225239,0.000083889579400
175,1776828649327,-0.000033686708176,-0.192532315759888,1.001670952162932,-0.001517755335813,-2.221304936496300,2.219846793721773,-0.000023667012350,-1.570820156727926,0.000000000000000,-1.570808235798971,0.000035952674807,0.000047936900955
176,1776828649338,-0.000040929165693,-0.192532326290622,1.001670947125346,-0.001450640648665,-2.221358711833827,2.219900485061242,0.000024342956749,-1.570796314870016,0.000000000000000,-1.570832554494039,0.000071905349614,0.000071905349614
177,1776828649348,-0.000034861221957,-0.192532315405340,1.001670947784849,-0.001544620054657,-2.221353027370304,2.219894910755036,0.000012358732420,-1.570820156727926,0.000011920928955,-1.570783917103903,0.000035952674807,0.000071905349614
178,1776828649358,-0.000073046356172,-0.192532325517185,1.001670930927141,-0.001557516350325,-2.221418828123132,2.219960553370939,0.000036327182897,-1.570783917103903,0.000035762786865,-1.570772473012106,0.000071905349614,0.000071905349614
179,1776828649368,-0.000039750465433,-0.192532329420465,1.001670941738051,-0.001490570501253,-2.221340740468337,2.219882470605097,0.000012358732420,-1.570820156727926,0.000035762786865,-1.570844475422994,0.000047936900955,0.000071905349614
180,1776828649379,-0.000015570549957,-0.192532319968646,1.001670955392319,-0.001397718931470,-2.221322902492585,2.219864735568550,0.000024342956749,-1.570820156727926,-0.000011746083395,-1.570820633565084,0.000059921127104,0.000035952674807
181,1776828649389,-0.000055488752887,-0.192532330904916,1.001670934830765,-0.001490872851798,-2.221352913847038,2.219894566487791,0.000024342956749,-1.570808235798971,0.000048160552979,-1.570832554494039,0.000047936900955,0.000047936900955
182,1776828649399,-0.000038101191954,-0.192532330419282,1.001670947034557,-0.001450749351287,-2.221322443431722,2.219864174021495,0.000000000000000,-1.570808235798971,0.000011920928955,-1.570868794118063,0.000059921127104,0.000071905349614
183,1776828649410,-0.000050226225002,-0.192532316843273,1.001670941727564,-0.001571093115328,-2.221364965773533,2.219906797430689,0.000024342956749,-1.570808235798971,0.000023841857910,-1.570783917103903,0.000023968450478,0.000071905349614
184,1776828649420,-0.000006868082997,-0.192532308899081,1.001670959070103,-0.001530802320875,-2.221322644184195,2.219864662264619,-0.000011746083395,-1.570844475422994,-0.000011746083395,-1.570772473012106,0.000035952674807,0.000071905349614
185,1776828649430,-0.000022280602710,-0.192532320437107,1.001670952192780,-0.001450696814791,-2.221334743183792,2.219876585022960,0.000024342956749,-1.570820156727926,0.000000000000000,-1.570820633565084,0.000047936900955,0.000059921127104
186,1776828649440,-0.000039713662692,-0.192532324873147,1.001670945176652,-0.001504013774926,-2.221322682505293,2.219864448190641,-0.000011746083395,-1.570820156727926,0.000023841857910,-1.570832554494039,0.000047936900955,0.000059921127104
187,1776828649451,-0.000028340539378,-0.192532329738239,1.001670945181723,-0.001437413575419,-2.221352759258621,2.219894509062138,0.000036327182897,-1.570820156727926,0.000023841857910,-1.570844475422994,0.000059921127104,0.000071905349614
188,1776828649461,-0.000037437832236,-0.192532314487056,1.001670949717670,-0.001517535644304,-2.221340853878417,2.219882720233944,0.000024342956749,-1.570808235798971,0.000000000000000,-1.570796314870016,0.000023968450478,0.000059921127104
189,1776828649471,-0.000054850395788,-0.192532327581358,1.001670943686745,-0.001464011297125,-2.221316781726522,2.219858465426319,-0.000023667012350,-1.570796314870016,0.000011920928955,-1.570844475422994,0.000071905349614,0.000035952674807
190,1776828649482,-0.000049644700460,-0.192532323744403,1.001670941764873,-0.001504584579730,-2.221346692248496,2.219888438523042,0.000000000000000,-1.570808235798971,0.000023841857910,-1.570808235798971,0.000059921127104,0.000047936900955
191,1776828649492,-0.000018351779998,-0.192532319341238,1.001670954402475,-0.001450903938874,-2.221298763575179,2.219840601729095,-0.000011746083395,-1.570832077656881,0.000000000000000,-1.570820633565084,0.000047936900955,0.000035952674807
192,1776828649503,-0.000033906668485,-0.192532323041095,1.001670948865705,-0.001530717653194,-2.221334642544852,2.219876489760055,-0.000011746083395,-1.570820156727926,0.000011920928955,-1.570832554494039,0.000047936900955,0.000095873801911
193,1776828649513,-0.000036099941980,-0.192532324512510,1.001670942301625,-0.001530954417288,-2.221358753951371,2.219900557780807,-0.000011746083395,-1.570832077656881,0.000035762786865,-1.570796314870016,0.000071905349614,0.000071905349614
194,1776828649523,-0.000014885228444,-0.192532317986505,1.001670954097732,-0.001491159501312,-2.221340922190890,2.219882838520590,0.000012358732420,-1.570832077656881,0.000000000000000,-1.570808235798971,0.000047936900955,0.000083889579400
195,1776828649534,-0.000011734363519,-0.192532322825696,1.001670953776627,-0.001397531754529,-2.221322822277616,2.219864639459896,0.000012358732420,-1.570832077656881,0.000000000000000,-1.570820633565084,0.000071905349614,0.000035952674807
196,1776828649545,-0.000041678045626,-0.192532323440014,1.001670941616848,-0.001517023698753,-2.221340660171729,2.219882421499118,0.000024342956749,-1.570820156727926,0.000035762786865,-1.570820633565084,0.000023968450478,0.000059921127104
197,1776828649555,-0.000036988265705,-0.192532326112521,1.001670945595742,-0.001450563729427,-2.221358687132490,2.219900452476005,0.000024342956749,-1.570808235798971,0.000011920928955,-1.570820633565084,0.000071905349614,0.000059921127104
198,1776828649566,-0.000039891470228,-0.192532329301431,1.001670941140791,-0.001477185284692,-2.221346714507712,2.219888434779726,0.000012358732420,-1.570820156727926,0.000035762786865,-1.570832554494039,0.000059921127104,0.000059921127104
199,1776828649577,-0.000039751049918,-0.192532325120352,1.001670946829231,-0.001450567164348,-2.221370658635440,2.219912445508104,0.000036327182897,-1.570796314870016,0.000000000000000,-1.570820633565084,0.000071905349614,0.000071905349614
200,1776828649587,-0.000062523695435,-0.192532317101001,1.001670943337708,-0.001545416147718,-2.221365044687412,2.219906854143137,0.000000000000000,-1.570783917103903,0.000000000000000,-1.570783917103903,0.000059921127104,0.000059921127104
201,1776828649597,-0.000044386138637,-0.192532313010749,1.001670949717670,-0.001517662511632,-2.221304866819982,2.219846689127733,-0.000011746083395,-1.570808235798971,0.000000000000000,-1.570796314870016,0.000023968450478,0.000023968450478
202,1776828649608,-0.000016081232444,-0.192532323580256,1.001670951131163,-0.001424153841214,-2.221322815764856,2.219864618462958,0.000024342956749,-1.570832077656881,0.000011920928955,-1.570832554494039,0.000047936900955,0.000047936900955
203,1776828649618,-0.000070064457842,-0.192532331358813,1.001670931853763,-0.001517833318248,-2.221352705688136,2.219894329057832,0.000000000000000,-1.570796314870016,0.000048160552979,-1.570832554494039,0.000059921127104,0.000047936900955
204,1776828649629,-0.000031918130585,-0.192532327594906,1.001670944301812,-0.001490512053609,-2.221376623005362,2.219918427080336,0.000024342956749,-1.570820156727926,0.000023841857910,-1.570820633565084,0.000071905349614,0.000095873801911
205,1776828649640,-0.000040205898957,-0.192532328896214,1.001670943031981,-0.001450638461713,-2.221346751520107,2.219888470239139,0.000036327182897,-1.570808235798971,0.000023841857910,-1.570844475422994,0.000047936900955,0.000059921127104
206,1776828649650,-0.000037376346121,-0.192532322359348,1.001670944510233,-0.001530874681258,-2.221358837378970,2.219900663351142,0.000012358732420,-1.570820156727926,0.000023841857910,-1.570808235798971,0.000047936900955,0.000083889579400
207,1776828649661,-0.000022542584775,-0.192532324948511,1.001670945165093,-0.001451482936352,-2.221383048999666,2.219924861257554,0.000024342956749,-1.570832077656881,0.000023841857910,-1.570783917103903,0.000095873801911,0.000059921127104
208,1776828649672,-0.000023915723095,-0.192532333205197,1.001670945149773,-0.001357626610406,-2.221340868173995,2.219882545505062,0.000048311409046,-1.570820156727926,0.000023841857910,-1.570856396351950,0.000071905349614,0.000035952674807
209,1776828649684,-0.000024522756483,-0.192532325028805,1.001670946318155,-0.001451087491966,-2.221346934656624,2.219888719072495,0.000012358732420,-1.570832077656881,0.000023841857910,-1.570808235798971,0.000071905349614,0.000047936900955
210,1776828649695,-0.000041776390963,-0.192532324876634,1.001670948010286,-0.001464015492622,-2.221340759381717,2.219882536524692,0.000024342956749,-1.570796314870016,0.000000000000000,-1.570844475422994,0.000047936900955,0.000071905349614
211,1776828649705,-0.000047096427717,-0.192532310431467,1.001670944348415,-0.001624197378665,-2.221340527640039,2.219882421941882,0.000000000000000,-1.570820156727926,0.000023841857910,-1.570772473012106,0.000000000000000,0.000071905349614
212,1776828649715,-0.000022481106586,-0.192532331386207,1.001670946865320,-0.001451220526121,-2.221346594746852,2.219888369961175,0.000000000000000,-1.570832077656881,0.000023841857910,-1.570844475422994,0.000083889579400,0.000083889579400
213,1776828649726,-0.000071289994595,-0.192532315430650,1.001670934853764,-0.001583623728109,-2.221346716573287,2.219888449454942,0.000012358732420,-1.570796314870016,0.000035762786865,-1.570772473012106,0.000011984225239,0.000023968450478
214,1776828649737,-0.000006084427341,-0.192532321154472,1.001670952465609,-0.001410766341399,-2.221328769653392,2.219870604388697,0.000024342956749,-1.570844475422994,0.000011920928955,-1.570808235798971,0.000059921127104,0.000035952674807
215,1776828649748,-0.000061786733589,-0.192532330028139,1.001670935377022,-0.001476956213655,-2.221358651026959,2.219900297347388,0.000012358732420,-1.570796314870016,0.000035762786865,-1.570820633565084,0.000071905349614,0.000035952674807
216,1776828649759,-0.000043771468839,-0.192532332855232,1.001670942557901,-0.001423967815530,-2.221382685445484,2.219924397697959,0.000024342956749,-1.570796314870016,0.000011920928955,-1.570832554494039,0.000107858024421,0.000071905349614
217,1776828649770,-0.000023717527453,-0.192532339628475,1.001670945940261,-0.001330656690162,-2.221364661444573,2.219906330456646,0.000048311409046,-1.570808235798971,0.000011920928955,-1.570880715047018,0.000107858024421,0.000071905349614
218,1776828649781,-0.000008578170366,-0.192532320581760,1.001670956618771,-0.001411981425062,-2.221328922875111,2.219870795802775,0.000000000000000,-1.570832077656881,-0.000011746083395,-1.570808235798971,0.000083889579400,0.000047936900955
219,1776828649792,-0.000024723630361,-0.192532312766465,1.001670954759663,-0.001518752911869,-2.221340987677851,2.219882929055901,0.000000000000000,-1.570820156727926,-0.000011746083395,-1.570783917103903,0.000047936900955,0.000071905349614
220,1776828649803,-0.000016726551111,-0.192532325515750,1.001670952440120,-0.001410934373718,-2.221340813791488,2.219882629452359,0.000036327182897,-1.570820156727926,0.000000000000000,-1.570844475422994,0.000059921127104,0.000071905349614
221,1776828649814,-0.000052543153820,-0.192532330373930,1.001670939586688,-0.001450491054113,-2.221358700790269,2.219900377673798,0.000024342956749,-1.570796314870016,0.000023841857910,-1.570832554494039,0.000071905349614,0.000047936900955
222,1776828649825,-0.000007168542653,-0.192532326273616,1.001670954274627,-0.001411016184446,-2.221340826862207,2.219882674003692,0.000024342956749,-1.570832077656881,0.000000000000000,-1.570844475422994,0.000071905349614,0.000083889579400
223,1776828649836,-0.000008458546675,-0.192532328243987,1.001670949755432,-0.001437034779690,-2.221340561893930,2.219882379714325,0.000024342956749,-1.570844475422994,0.000023841857910,-1.570844475422994,0.000059921127104,0.000083889579400
224,1776828649847,-0.000074629598204,-0.192532327051988,1.001670931100431,-0.001584501427302,-2.221370923514850,2.219912613920462,-0.000011746083395,-1.570796314870016,0.000048160552979,-1.570808235798971,0.000059921127104,0.000071905349614
225,1776828649858,-0.000040040841949,-0.192532324548389,1.001670943979572,-0.001504401970089,-2.221346823498539,2.219888603132150,-0.000011746083395,-1.570820156727926,0.000023841857910,-1.570808235798971,0.000071905349614,0.000059921127104
226,1776828649869,-0.000034628475964,-0.192532329836227,1.001670943746657,-0.001450989192900,-2.221358511606286,2.219900254112942,0.000000000000000,-1.570820156727926,0.000023841857910,-1.570820633565084,0.000095873801911,0.000059921127104
227,1776828649880,-0.000032761644677,-0.192532323200059,1.001670944510233,-0.001490946796904,-2.221364851269311,2.219906656906848,0.000036327182897,-1.570820156727926,0.000023841857910,-1.570808235798971,0.000047936900955,0.000071905349614
228,1776828649891,-0.000052386768339,-0.192532338413382,1.001670935265597,-0.001450656981897,-2.221346804871706,2.219888409604671,0.000012358732420,-1.570808235798971,0.000048160552979,-1.570868794118063,0.000071905349614,0.000059921127104
229,1776828649901,-0.000005894542011,-0.192532318035232,1.001670952460538,-0.001463940004416,-2.221352649952738,2.219894555106577,0.000036327182897,-1.570844475422994,0.000011920928955,-1.570796314870016,0.000047936900955,0.000071905349614
230,1776828649911,0.000006151290107,-0.192532317592238,1.001670962733819,-0.001384787312203,-2.221305025394061,2.219846947541287,0.000048311409046,-1.570832077656881,-0.000023667012350,-1.570856396351950,0.000023968450478,0.000071905349614
231,1776828649922,-0.000052411187799,-0.192532327493899,1.001670936515158,-0.001544446029773,-2.221412899516392,2.219954679626368,0.000012358732420,-1.570808235798971,0.000035762786865,-1.570783917103903,0.000095873801911,0.000095873801911
232,1776828649932,-0.000021558065597,-0.192532329587278,1.001670945486840,-0.001424489603654,-2.221370913465304,2.219912685735597,0.000012358732420,-1.570832077656881,0.000023841857910,-1.570808235798971,0.000107858024421,0.000059921127104
233,1776828649943,-0.000036099941980,-0.192532324512510,1.001670942301625,-0.001530954417288,-2.221358753951371,2.219900557780807,-0.000011746083395,-1.570832077656881,0.000035762786865,-1.570796314870016,0.000071905349614,0.000071905349614
234,1776828649953,-0.000051959370221,-0.192532327118651,1.001670945639704,-0.001451232593643,-2.221335039550552,2.219876759527370,0.000024342956749,-1.570783917103903,0.000000000000000,-1.570856396351950,0.000047936900955,0.000059921127104
235,1776828649964,-0.000032500391465,-0.192532325214505,1.001670948985336,-0.001450641143602,-2.221358697730626,2.219900503457323,0.000012358732420,-1.570808235798971,0.000000000000000,-1.570820633565084,0.000083889579400,0.000071905349614
236,1776828649974,-0.000054672696694,-0.192532324953208,1.001670943668211,-0.001517255522113,-2.221340628764718,2.219882384806711,-0.000011746083395,-1.570796314870016,0.000011920928955,-1.570832554494039,0.000059921127104,0.000071905349614
237,1776828649984,-0.000013893287313,-0.192532316306885,1.001670953181034,-0.001451601183339,-2.221347125449604,2.219889014420704,0.000024342956749,-1.570832077656881,0.000000000000000,-1.570783917103903,0.000059921127104,0.000047936900955
238,1776828649995,-0.000023599722894,-0.192532321711264,1.001670951891636,-0.001477328378330,-2.221346704056717,2.219888569548899,0.000012358732420,-1.570820156727926,0.000000000000000,-1.570820633565084,0.000059921127104,0.000083889579400
239,1776828650005,-0.000029466063374,-0.192532325098373,1.001670944244901,-0.001451021328557,-2.221370869237238,2.219912648036633,0.000048311409046,-1.570820156727926,0.000023841857910,-1.570808235798971,0.000059921127104,0.000059921127104
240,1776828650016,-0.000055629757661,-0.192532330787571,1.001670934228396,-0.001517431724249,-2.221376820879403,2.219918511616915,0.000024342956749,-1.570808235798971,0.000048160552979,-1.570820633565084,0.000059921127104,0.000071905349614
241,1776828650027,-0.000028604660892,-0.192532325016759,1.001670947395418,-0.001464408131205,-2.221364888912872,2.219906703271584,0.000012358732420,-1.570820156727926,0.000011920928955,-1.570808235798971,0.000083889579400,0.000071905349614
242,1776828650038,-0.000051708005975,-0.192532329618674,1.001670942835475,-0.001450714694529,-2.221346674584713,2.219888370820001,-0.000011746083395,-1.570796314870016,0.000011920928955,-1.570832554494039,0.000095873801911,0.000047936900955
243,1776828650049,-0.000005408687733,-0.192532314288785,1.001670962221949,-0.001424952271671,-2.221274829407351,2.219816735502946,0.000000000000000,-1.570832077656881,-0.000023667012350,-1.570832554494039,0.000023968450478,0.000035952674807
244,1776828650060,-0.000056633368569,-0.192532321388859,1.001670939252879,-0.001557270448299,-2.221382720984214,2.219924516195470,0.000036327182897,-1.570796314870016,0.000023841857910,-1.570796314870016,0.000035952674807,0.000083889579400
245,1776828650071,-0.000061415152439,-0.192532324950851,1.001670933069452,-0.001584813025882,-2.221395131553082,2.219936888770780,0.000012358732420,-1.570808235798971,0.000048160552979,-1.570783917103903,0.000059921127104,0.000083889579400
246,1776828650082,-0.000042446481223,-0.192532320815979,1.001670945804162,-0.001490926346372,-2.221340902584333,2.219882688390526,0.000012358732420,-1.570808235798971,0.000011920928955,-1.570808235798971,0.000047936900955,0.000047936900955
247,1776828650093,-0.000038832768258,-0.192532318553198,1.001670950142786,-0.001504264681504,-2.221322535118336,2.219864364814841,0.000000000000000,-1.570808235798971,0.000000000000000,-1.570820633565084,0.000035952674807,0.000059921127104
248,1776828650104,-0.000036859338156,-0.192532324655886,1.001670950139463,-0.001464232923563,-2.221316757710848,2.219858538238789,-0.000011746083395,-1.570808235798971,0.000000000000000,-1.570844475422994,0.000059921127104,0.000059921127104
249,1776828650115,-0.000037357254560,-0.192532327508450,1.001670938964174,-0.001531344739815,-2.221371051159164,2.219912825816211,0.000012358732420,-1.570832077656881,0.000048160552979,-1.570808235798971,0.000059921127104,0.000083889579400
250,1776828650126,-0.000051526253689,-0.192532322967086,1.001670935935428,-0.001571566020490,-2.221377183580157,2.219918958221299,0.000012358732420,-1.570820156727926,0.000048160552979,-1.570783917103903,0.000047936900955,0.000071905349614
251,1776828650136,-0.000040230561641,-0.192532321011369,1.001670943421195,-0.001544239064396,-2.221316882845935,2.219858667219140,-0.000023667012350,-1.570832077656881,0.000035762786865,-1.570808235798971,0.000035952674807,0.000047936900955
252,1776828650147,-0.000038903240169,-0.192532330844616,1.001670940863210,-0.001437252358475,-2.221340759005831,2.219882438543175,0.000012358732420,-1.570820156727926,0.000035762786865,-1.570832554494039,0.000071905349614,0.000035952674807
253,1776828650158,-0.000029680728238,-0.192532320173989,1.001670947783855,-0.001504262706339,-2.221310561176228,2.219852367902661,0.000000000000000,-1.570832077656881,0.000023841857910,-1.570820633565084,0.000023968450478,0.000047936900955
254,1776828650168,-0.000033065607412,-0.192532324040267,1.001670951056388,-0.001464157561797,-2.221316841365313,2.219858639612513,0.000012358732420,-1.570808235798971,0.000000000000000,-1.570856396351950,0.000035952674807,0.000071905349614
255,1776828650178,-0.000022123231773,-0.192532321782581,1.001670945213798,-0.001517032789609,-2.221352603819205,2.219894447082521,0.000012358732420,-1.570844475422994,0.000035762786865,-1.570796314870016,0.000047936900955,0.000071905349614
256,1776828650188,-0.000025780245992,-0.192532322801643,1.001670948559490,-0.001424001038138,-2.221334755203720,2.219876531009999,0.000036327182897,-1.570820156727926,0.000011920928955,-1.570820633565084,0.000047936900955,0.000035952674807
257,1776828650199,-0.000023332619322,-0.192532329833215,1.001670946564111,-0.001411188546489,-2.221388885429634,2.219930669455398,0.000024342956749,-1.570820156727926,0.000011920928955,-1.570808235798971,0.000119842254207,0.000071905349614
258,1776828650209,-0.000036388115778,-0.192532323914369,1.001670944244901,-0.001490941388138,-2.221352882597862,2.219894667362033,0.000012358732420,-1.570820156727926,0.000023841857910,-1.570808235798971,0.000059921127104,0.000059921127104
259,1776828650220,-0.000035078042505,-0.192532318294604,1.001670947893071,-0.001504646519967,-2.221334700496237,2.219876528476435,0.000000000000000,-1.570820156727926,0.000011920928955,-1.570796314870016,0.000047936900955,0.000047936900955
260,1776828650231,-0.000058346436512,-0.192532329741122,1.001670935012783,-0.001477420171597,-2.221382809539064,2.219924483387377,0.000036327182897,-1.570796314870016,0.000035762786865,-1.570808235798971,0.000071905349614,0.000047936900955
261,1776828650241,-0.000069000411827,-0.192532330337964,1.001670930882696,-0.001557748033168,-2.221394962172696,2.219936654039407,0.000012358732420,-1.570796314870016,0.000048160552979,-1.570808235798971,0.000071905349614,0.000083889579400
262,1776828650251,-0.000039940935001,-0.192532327810109,1.001670946835987,-0.001410707573898,-2.221352755938813,2.219894488751153,0.000024342956749,-1.570796314870016,0.000000000000000,-1.570832554494039,0.000083889579400,0.000047936900955
263,1776828650262,-0.000016595639375,-0.192532327840929,1.001670956404722,-0.001331410649793,-2.221317052148594,2.219858817548118,0.000012358732420,-1.570808235798971,-0.000023667012350,-1.570856396351950,0.000095873801911,0.000035952674807
264,1776828650272,-0.000043837706331,-0.192532321844196,1.001670945538831,-0.001504659378975,-2.221346697610867,2.219888492376436,0.000000000000000,-1.570808235798971,0.000011920928955,-1.570808235798971,0.000059921127104,0.000059921127104
265,1776828650283,-0.000049148377810,-0.192532334153316,1.001670934494764,-0.001504343751388,-2.221346968068403,2.219888623344259,0.000024342956749,-1.570820156727926,0.000060081481934,-1.570856396351950,0.000035952674807,0.000071905349614
266,1776828650294,-0.000055819643115,-0.192532333324203,1.001670934323666,-0.001517515660177,-2.221376852013357,2.219918536176981,0.000012358732420,-1.570808235798971,0.000048160552979,-1.570832554494039,0.000071905349614,0.000083889579400
267,1776828650304,-0.000013611228232,-0.192532309780985,1.001670951954089,-0.001517454389095,-2.221340790685225,2.219882730072388,0.000024342956749,-1.570844475422994,0.000011920928955,-1.570760075245992,0.000023968450478,0.000047936900955
268,1776828650314,-0.000035475701591,-0.192532328448987,1.001670944597927,-0.001490993120728,-2.221352515340844,2.219894292256465,0.000000000000000,-1.570820156727926,0.000023841857910,-1.570832554494039,0.000071905349614,0.000083889579400
269,1776828650325,-0.000030329750629,-0.192532327000790,1.001670942625202,-0.001490956429572,-2.221364862767094,2.219906646170605,0.000012358732420,-1.570832077656881,0.000035762786865,-1.570808235798971,0.000071905349614,0.000071905349614
270,1776828650336,-0.000021680453002,-0.192532318391752,1.001670950808561,-0.001477759605143,-2.221322961212635,2.219864805943402,0.000012358732420,-1.570832077656881,0.000011920928955,-1.570808235798971,0.000035952674807,0.000047936900955
271,1776828650347,-0.000054136285263,-0.192532327521029,1.001670938884802,-0.001557391055342,-2.221358433812946,2.219900189215294,0.000000000000000,-1.570808235798971,0.000035762786865,-1.570832554494039,0.000047936900955,0.000095873801911
272,1776828650358,-0.000016251048533,-0.192532323146730,1.001670950115254,-0.001477275718091,-2.221310378561934,2.219852202688850,0.000000000000000,-1.570844475422994,0.000023841857910,-1.570832554494039,0.000035952674807,0.000059921127104
273,1776828650368,-0.000012888698737,-0.192532317694059,1.001670952460538,-0.001504275457346,-2.221334476082212,2.219876386764885,0.000000000000000,-1.570844475422994,0.000011920928955,-1.570796314870016,0.000047936900955,0.000071905349614
274,1776828650378,-0.000061452132162,-0.192532325043301,1.001670935085237,-0.001557206665851,-2.221394693878068,2.219936447028636,0.000036327182897,-1.570796314870016,0.000035762786865,-1.570796314870016,0.000047936900955,0.000083889579400
275,1776828650388,-0.000024646722529,-0.192532324473565,1.001670945269353,-0.001517259949005,-2.221340593630469,2.219882415958351,-0.000011746083395,-1.570844475422994,0.000035762786865,-1.570808235798971,0.000059921127104,0.000071905349614
276,1776828650399,-0.000061228978284,-0.192532325136844,1.001670933692802,-0.001571038797367,-2.221376964719274,2.219918698452974,0.000012358732420,-1.570808235798971,0.000048160552979,-1.570796314870016,0.000047936900955,0.000071905349614
277,1776828650409,-0.000015381876914,-0.192532306768240,1.001670953131489,-0.001569967751207,-2.221328673559864,2.219870657452123,0.000024342956749,-1.570844475422994,0.000011920928955,-1.570772473012106,-0.000011746083395,0.000071905349614
278,1776828650419,-0.000038976803548,-0.192532321375777,1.001670950159635,-0.001477455396057,-2.221310730712519,2.219852520439577,-0.000011746083395,-1.570808235798971,0.000000000000000,-1.570832554494039,0.000047936900955,0.000047936900955
279,1776828650430,-0.000032899992459,-0.192532324686983,1.001670950737576,-0.001410973938022,-2.221352843988478,2.219894632280209,0.000036327182897,-1.570796314870016,-0.000011746083395,-1.570832554494039,0.000071905349614,0.000059921127104
280,1776828650441,-0.000040346903754,-0.192532328780567,1.001670942434721,-0.001437253097472,-2.221352725356598,2.219894434372195,0.000036327182897,-1.570808235798971,0.000023841857910,-1.570832554494039,0.000059921127104,0.000047936900955
281,1776828650452,-0.000030193040887,-0.192532325590345,1.001670948985336,-0.001437334386698,-2.221364693113665,2.219906497016153,0.000024342956749,-1.570808235798971,0.000000000000000,-1.570820633565084,0.000083889579400,0.000071905349614
282,1776828650463,-0.000023803785526,-0.192532325852465,1.001670947980765,-0.001424021643608,-2.221358711877884,2.219900500217019,0.000036327182897,-1.570820156727926,0.000011920928955,-1.570820633565084,0.000071905349614,0.000059921127104
283,1776828650473,-0.000043434711548,-0.192532319249119,1.001670946069496,-0.001477601250889,-2.221322947128394,2.219864709509064,0.000012358732420,-1.570808235798971,0.000011920928955,-1.570808235798971,0.000035952674807,0.000023968450478
284,1776828650483,-0.000017414529562,-0.192532325977231,1.001670946915756,-0.001424023394389,-2.221358708802072,2.219900496979313,0.000048311409046,-1.570832077656881,0.000023841857910,-1.570820633565084,0.000059921127104,0.000059921127104
285,1776828650493,-0.000041585920956,-0.192532326358367,1.001670942947713,-0.001490619823787,-2.221304832318631,2.219846543267352,0.000012358732420,-1.570820156727926,0.000035762786865,-1.570856396351950,0.000011984225239,0.000047936900955
286,1776828650504,-0.000024792015618,-0.192532324332976,1.001670948270127,-0.001450640275501,-2.221358689578115,2.219900502931423,0.000036327182897,-1.570820156727926,0.000011920928955,-1.570820633565084,0.000059921127104,0.000071905349614
287,1776828650515,-0.000048823197523,-0.192532321472937,1.001670947521826,-0.001451726599762,-2.221359220909015,2.219901001383155,0.000024342956749,-1.570783917103903,-0.000011746083395,-1.570808235798971,0.000071905349614,0.000047936900955
288,1776828650526,-0.000028083885743,-0.192532319441803,1.001670947893071,-0.001477625645726,-2.221358852255496,2.219900690412149,0.000036327182897,-1.570820156727926,0.000011920928955,-1.570796314870016,0.000047936900955,0.000059921127104
289,1776828650537,-0.000015949274480,-0.192532319652480,1.001670955006475,-0.001437932882065,-2.221292687640978,2.219834518764688,0.000000000000000,-1.570832077656881,0.000000000000000,-1.570832554494039,0.000035952674807,0.000035952674807
290,1776828650547,-0.000036210308079,-0.192532319570506,1.001670948226747,-0.001504455296156,-2.221322872990953,2.219864686975126,-0.000011746083395,-1.570820156727926,0.000011920928955,-1.570808235798971,0.000047936900955,0.000047936900955
291,1776828650557,-0.000031371156337,-0.192532326888558,1.001670949256209,-0.001424093509312,-2.221346768474013,2.219888542695179,0.000012358732420,-1.570808235798971,0.000000000000000,-1.570832554494039,0.000083889579400,0.000059921127104
292,1776828650568,-0.000019269125861,-0.192532321088086,1.001670955079569,-0.001438072516241,-2.221328681541936,2.219870539031143,0.000000000000000,-1.570820156727926,-0.000011746083395,-1.570820633565084,0.000071905349614,0.000059921127104
293,1776828650578,-0.000071572053938,-0.192532321988735,1.001670936145004,-0.001544400057406,-2.221365005729737,2.219906723605920,0.000012358732420,-1.570783917103903,0.000023841857910,-1.570796314870016,0.000047936900955,0.000047936900955
294,1776828650589,-0.000024034503074,-0.192532321853240,1.001670947089657,-0.001517122606477,-2.221304349756211,2.219846160355866,0.000000000000000,-1.570844475422994,0.000035762786865,-1.570832554494039,0.000011984225239,0.000059921127104
295,1776828650599,-0.000021796052569,-0.192532322052064,1.001670946458797,-0.001516644458574,-2.221328462011560,2.219870292955792,0.000012358732420,-1.570844475422994,0.000035762786865,-1.570820633565084,0.000023968450478,0.000071905349614
296,1776828650610,-0.000041548644573,-0.192532338051720,1.001670934755328,-0.001477822304318,-2.221370847666052,2.219912509112464,-0.000011746083395,-1.570832077656881,0.000060081481934,-1.570832554494039,0.000107858024421,0.000071905349614
297,1776828650621,-0.000044687431179,-0.192532335076299,1.001670930744014,-0.001517910140368,-2.221400992571254,2.219942681281903,0.000024342956749,-1.570832077656881,0.000072002410889,-1.570808235798971,0.000083889579400,0.000083889579400
298,1776828650631,-0.000030730493093,-0.192532317413698,1.001670950676801,-0.001478289199777,-2.221335063868009,2.219876908542187,-0.000011746083395,-1.570820156727926,0.000000000000000,-1.570783917103903,0.000071905349614,0.000035952674807
299,1776828650642,-0.000033059443266,-0.192532324485659,1.001670947980765,-0.001504028738941,-2.221346617680700,2.219888444779465,-0.000011746083395,-1.570820156727926,0.000011920928955,-1.570820633565084,0.000071905349614,0.000083889579400
300,1776828650653,-0.000017396641815,-0.192532321735977,1.001670950230774,-0.001464474167650,-2.221352913028364,2.219894769112799,0.000024342956749,-1.570832077656881,0.000011920928955,-1.570808235798971,0.000059921127104,0.000071905349614
301,1776828650664,-0.000046748237427,-0.192532326389401,1.001670947408000,-0.001477478698255,-2.221334706243234,2.219876468858921,-0.000011746083395,-1.570796314870016,0.000000000000000,-1.570844475422994,0.000071905349614,0.000071905349614
302,1776828650675,-0.000037831779815,-0.192532321778207,1.001670945804162,-0.001450998680707,-2.221346915638912,2.219888682067586,0.000036327182897,-1.570808235798971,0.000011920928955,-1.570808235798971,0.000047936900955,0.000035952674807
303,1776828650686,-0.000040343192559,-0.192532325918315,1.001670941764873,-0.001490886318512,-2.221388795988950,2.219930580454398,0.000048311409046,-1.570808235798971,0.000023841857910,-1.570808235798971,0.000059921127104,0.000083889579400
304,1776828650696,-0.000026421854269,-0.192532321887043,1.001670949243565,-0.001424470340713,-2.221370889833997,2.219912707841978,0.000060295631556,-1.570808235798971,0.000000000000000,-1.570808235798971,0.000059921127104,0.000059921127104
305,1776828650706,-0.000007989001427,-0.192532317784358,1.001670957846556,-0.001437722861037,-2.221316892368734,2.219858792820571,0.000012358732420,-1.570832077656881,-0.000011746083395,-1.570820633565084,0.000047936900955,0.000059921127104
306,1776828650717,-0.000048945056108,-0.192532324434053,1.001670941085236,-0.001517093722436,-2.221316687086001,2.219858405045068,-0.000023667012350,-1.570820156727926,0.000035762786865,-1.570820633565084,0.000047936900955,0.000035952674807
307,1776828650728,-0.000018721415207,-0.192532315143544,1.001670955700625,-0.001464717740014,-2.221329047172016,2.219870946982349,0.000024342956749,-1.570820156727926,-0.000011746083395,-1.570808235798971,0.000035952674807,0.000059921127104
308,1776828650739,-0.000035372446491,-0.192532316278644,1.001670953734895,-0.001504261144139,-2.221310774033930,2.219852637492437,-0.000011746083395,-1.570808235798971,-0.000011746083395,-1.570820633565084,0.000035952674807,0.000059921127104
309,1776828650749,0.000000658717384,-0.192532320508641,1.001670959262585,-0.001464057944175,-2.221328559509765,2.219870515776117,-0.000011746083395,-1.570844475422994,-0.000011746083395,-1.570820633565084,0.000071905349614,0.000095873801911
310,1776828650759,-0.000026041329307,-0.192532323973379,1.001670940719461,-0.001531269482288,-2.221382978337108,2.219924807891849,0.000024342956749,-1.570844475422994,0.000048160552979,-1.570783917103903,0.000059921127104,0.000083889579400
311,1776828650769,-0.000061129119173,-0.192532325346754,1.001670938284180,-0.001570205335760,-2.221340625198831,2.219882361521141,-0.000035587941305,-1.570808235798971,0.000035762786865,-1.570820633565084,0.000059921127104,0.000071905349614
312,1776828650780,-0.000051894123587,-0.192532325276883,1.001670937559408,-0.001504028865398,-2.221370794556480,2.219912519493507,0.000024342956749,-1.570808235798971,0.000035762786865,-1.570796314870016,0.000059921127104,0.000047936900955
313,1776828650792,-0.000032523031671,-0.192532326811546,1.001670943225022,-0.001464276592365,-2.221328557071183,2.219870287424520,0.000000000000000,-1.570832077656881,0.000035762786865,-1.570820633565084,0.000059921127104,0.000035952674807
314,1776828650803,-0.000039736710075,-0.192532327032200,1.001670938964174,-0.001491808350200,-2.221340957498352,2.219882670529666,0.000000000000000,-1.570832077656881,0.000048160552979,-1.570808235798971,0.000059921127104,0.000035952674807
315,1776828650814,-0.000020569106043,-0.192532324327309,1.001670947812481,-0.001464019503813,-2.221340738962554,2.219882548597720,0.000036327182897,-1.570832077656881,0.000023841857910,-1.570832554494039,0.000035952674807,0.000071905349614
316,1776828650824,-0.000003719301529,-0.192532332746480,1.001670947627415,-0.001397109071356,-2.221334613907933,2.219876373647795,0.000012358732420,-1.570856396351950,0.000035762786865,-1.570844475422994,0.000083889579400,0.000059921127104
317,1776828650835,-0.000033680449345,-0.192532315775277,1.001670954348461,-0.001451330263411,-2.221335038467856,2.219876895769490,0.000024342956749,-1.570796314870016,-0.000023667012350,-1.570808235798971,0.000047936900955,0.000047936900955
318,1776828650846,-0.000062125824806,-0.192532320972986,1.001670937789398,-0.001583954519125,-2.221346751367924,2.219888510551624,-0.000023667012350,-1.570808235798971,0.000035762786865,-1.570796314870016,0.000047936900955,0.000059921127104
319,1776828650857,-0.000042997166023,-0.192532324505473,1.001670941351041,-0.001530340968891,-2.221346642408554,2.219888412779726,0.000012358732420,-1.570820156727926,0.000035762786865,-1.570820633565084,0.000035952674807,0.000071905349614
320,1776828650868,-0.000045153115887,-0.192532319956055,1.001670944599126,-0.001544981238129,-2.221376793247505,2.219918643190860,0.000000000000000,-1.570808235798971,0.000011920928955,-1.570783917103903,0.000071905349614,0.000083889579400
321,1776828650878,-0.000050884302058,-0.192532317092022,1.001670947302985,-0.001531262616313,-2.221334694736994,2.219876515713533,0.000000000000000,-1.570796314870016,0.000000000000000,-1.570808235798971,0.000035952674807,0.000059921127104
322,1776828650888,-0.000066075200236,-0.192532318265229,1.001670938619584,-0.001611106948570,-2.221370857055597,2.219912670878137,-0.000011746083395,-1.570796314870016,0.000023841857910,-1.570783917103903,0.000047936900955,0.000083889579400
323,1776828650898,-0.000024651010814,-0.192532324448622,1.001670948865705,-0.001410768048706,-2.221328803548187,2.219870564202508,0.000036327182897,-1.570820156727926,0.000011920928955,-1.570832554494039,0.000047936900955,0.000035952674807
324,1776828650909,-0.000043373809828,-0.192532322762146,1.001670945929869,-0.001490880685004,-2.221388781999250,2.219930609006292,0.000024342956749,-1.570796314870016,0.000000000000000,-1.570796314870016,0.000083889579400,0.000083889579400
325,1776828650919,-0.000049586772657,-0.192532325885000,1.001670937559408,-0.001504036972412,-2.221382768219414,2.219924506411907,0.000036327182897,-1.570808235798971,0.000035762786865,-1.570796314870016,0.000059921127104,0.000059921127104
326,1776828650930,0.000022455692294,-0.192532314789524,1.001670965695765,-0.001384248839351,-2.221292781750914,2.219834760148429,0.000024342956749,-1.570856396351950,-0.000023667012350,-1.570832554494039,0.000035952674807,0.000059921127104
327,1776828650940,-0.000012133963912,-0.192532321788535,1.001670955660028,-0.001424436424098,-2.221346858336924,2.219888737314351,0.000036327182897,-1.570820156727926,-0.000011746083395,-1.570832554494039,0.000059921127104,0.000083889579400
328,1776828650951,-0.000043146537364,-0.192532319701286,1.001670944163095,-0.001530928282835,-2.221334796245142,2.219876593567744,-0.000011746083395,-1.570820156727926,0.000023841857910,-1.570796314870016,0.000047936900955,0.000047936900955
329,1776828650962,-0.000030259278589,-0.192532314815326,1.001670951830936,-0.001504710582850,-2.221322727766117,2.219864597480830,0.000000000000000,-1.570820156727926,0.000000000000000,-1.570796314870016,0.000035952674807,0.000047936900955
330,1776828650972,-0.000068288550633,-0.192532321655733,1.001670940218724,-0.001531387144554,-2.221347022650959,2.219888753510130,-0.000011746083395,-1.570783917103903,0.000011920928955,-1.570808235798971,0.000059921127104,0.000047936900955
331,1776828650983,-0.000056716489929,-0.192532329355207,1.001670938353199,-0.001530432101063,-2.221346639304016,2.219888347937197,-0.000023667012350,-1.570808235798971,0.000035762786865,-1.570832554494039,0.000071905349614,0.000071905349614
332,1776828650995,-0.000031040266498,-0.192532324200040,1.001670949858491,-0.001437394948116,-2.221340762822005,2.219882554761116,0.000024342956749,-1.570808235798971,0.000000000000000,-1.570832554494039,0.000059921127104,0.000059921127104
333,1776828651005,-0.000037198538363,-0.192532317979825,1.001670948503862,-0.001504444562212,-2.221310895214810,2.219852701809157,-0.000011746083395,-1.570820156727926,0.000011920928955,-1.570808235798971,0.000035952674807,0.000035952674807
334,1776828651016,-0.000037302693913,-0.192532325708618,1.001670947414708,-0.001437331259945,-2.221364702145049,2.219906481337104,0.000048311409046,-1.570796314870016,0.000000000000000,-1.570832554494039,0.000059921127104,0.000071905349614
335,1776828651027,-0.000056870399815,-0.192532317542988,1.001670936587241,-0.001611884478212,-2.221347021604623,2.219888808374074,0.000000000000000,-1.570820156727926,0.000048160552979,-1.570783917103903,0.000011984225239,0.000059921127104
336,1776828651038,-0.000044845956237,-0.192532317348864,1.001670944492375,-0.001517322471199,-2.221364756378540,2.219906580099159,0.000012358732420,-1.570808235798971,0.000011920928955,-1.570772473012106,0.000059921127104,0.000047936900955
337,1776828651048,-0.000020159426051,-0.192532320508931,1.001670951585145,-0.001451163100787,-2.221358906459833,2.219900768664725,0.000036327182897,-1.570820156727926,0.000000000000000,-1.570808235798971,0.000059921127104,0.000071905349614
338,1776828651058,-0.000036334947657,-0.192532320544924,1.001670944979760,-0.001544190827465,-2.221304558433924,2.219846352351230,0.000000000000000,-1.570832077656881,0.000035762786865,-1.570832554494039,0.000000000000000,0.000059921127104
339,1776828651068,-0.000044551925255,-0.192532323902463,1.001670946241665,-0.001477639223577,-2.221370857195381,2.219912655162082,0.000012358732420,-1.570796314870016,0.000000000000000,-1.570808235798971,0.000083889579400,0.000071905349614
340,1776828651079,-0.000028229274363,-0.192532331246647,1.001670938591343,-0.001477191596377,-2.221346713664384,2.219888425188373,0.000024342956749,-1.570844475422994,0.000060081481934,-1.570832554494039,0.000047936900955,0.000059921127104
341,1776828651089,-0.000025780245992,-0.192532322801643,1.001670948559490,-0.001503888281668,-2.221370622596442,2.219912492723876,0.000036327182897,-1.570820156727926,0.000011920928955,-1.570820633565084,0.000047936900955,0.000107858024421
342,1776828651099,-0.000001565610061,-0.192532327885933,1.001670953938145,-0.001371098314559,-2.221358817536256,2.219900651573190,0.000048311409046,-1.570832077656881,0.000000000000000,-1.570844475422994,0.000083889579400,0.000083889579400
343,1776828651110,-0.000063486520425,-0.192532319301526,1.001670939880495,-0.001557731367574,-2.221334661707129,2.219876409445789,0.000000000000000,-1.570796314870016,0.000023841857910,-1.570808235798971,0.000023968450478,0.000047936900955
344,1776828651121,-0.000008665789008,-0.192532317817929,1.001670951891379,-0.001517654105294,-2.221316525467534,2.219858432109196,0.000000000000000,-1.570856396351950,0.000023841857910,-1.570808235798971,0.000023968450478,0.000071905349614
345,1776828651131,-0.000044489710429,-0.192532325278689,1.001670943610715,-0.001463924042926,-2.221316799979102,2.219858506874250,0.000024342956749,-1.570808235798971,0.000023841857910,-1.570844475422994,0.000023968450478,0.000035952674807
346,1776828651141,-0.000028161832815,-0.192532314948139,1.001670950619457,-0.001504161727254,-2.221358791422286,2.219900688292604,0.000012358732420,-1.570820156727926,0.000000000000000,-1.570772473012106,0.000059921127104,0.000059921127104
347,1776828651152,-0.000019526184503,-0.192532317571918,1.001670954097732,-0.001504609267306,-2.221322885392544,2.219864789045139,-0.000011746083395,-1.570832077656881,0.000000000000000,-1.570808235798971,0.000047936900955,0.000071905349614
348,1776828651163,-0.000034708365027,-0.192532314562954,1.001670951606597,-0.001504769996319,-2.221358694244086,2.219900591834285,0.000000000000000,-1.570808235798971,-0.000011746083395,-1.570772473012106,0.000071905349614,0.000059921127104
349,1776828651173,-0.000041071210853,-0.192532320006517,1.001670943546492,-0.001531659864701,-2.221358839720141,2.219900658750160,0.000000000000000,-1.570820156727926,0.000023841857910,-1.570783917103903,0.000059921127104,0.000059921127104
350,1776828651183,-0.000027636818376,-0.192532315933401,1.001670949852148,-0.001544844939817,-2.221340997663193,2.219882901074299,-0.000011746083395,-1.570832077656881,0.000011920928955,-1.570783917103903,0.000047936900955,0.000071905349614
351,1776828651194,-0.000024005748210,-0.192532327611285,1.001670951790715,-0.001424390046555,-2.221322788587236,2.219864573597571,-0.000011746083395,-1.570820156727926,0.000000000000000,-1.570844475422994,0.000083889579400,0.000059921127104
352,1776828651204,-0.000058138663258,-0.192532322067673,1.001670938401846,-0.001544417121458,-2.221388937220545,2.219930717636712,0.000024342956749,-1.570796314870016,0.000023841857910,-1.570783917103903,0.000059921127104,0.000071905349614
353,1776828651215,-0.000074273352365,-0.192532328733081,1.001670932101409,-0.001531113525011,-2.221383004779868,2.219924673475738,0.000012358732420,-1.570783917103903,0.000035762786865,-1.570808235798971,0.000071905349614,0.000059921127104
354,1776828651226,-0.000066142649512,-0.192532326127373,1.001670935861503,-0.001557230571433,-2.221358400234232,2.219900114207318,0.000000000000000,-1.570796314870016,0.000035762786865,-1.570820633565084,0.000047936900955,0.000071905349614
355,1776828651236,-0.000034741816370,-0.192532323059022,1.001670945755387,-0.001503865218675,-2.221334713598543,2.219876509376307,0.000024342956749,-1.570820156727926,0.000023841857910,-1.570832554494039,0.000023968450478,0.000071905349614
356,1776828651247,-0.000023674801654,-0.192532319558433,1.001670948073225,-0.001517175050456,-2.221340666867037,2.219882526920184,0.000036327182897,-1.570832077656881,0.000023841857910,-1.570820633565084,0.000011984225239,0.000083889579400
357,1776828651258,-0.000030990801682,-0.192532325750790,1.001670944111648,-0.001517186805831,-2.221340698192217,2.219882494428885,0.000012358732420,-1.570832077656881,0.000035762786865,-1.570832554494039,0.000035952674807,0.000083889579400
358,1776828651268,-0.000009278585671,-0.192532316584580,1.001670953181034,-0.001385044637118,-2.221341181329960,2.219883020745537,0.000048311409046,-1.570832077656881,0.000000000000000,-1.570783917103903,0.000059921127104,0.000011984225239
359,1776828651279,-0.000023521244272,-0.192532307957208,1.001670954564261,-0.001571777758580,-2.221316899378695,2.219858871049519,0.000000000000000,-1.570832077656881,0.000000000000000,-1.570783917103903,0.000000000000000,0.000071905349614
360,1776828651290,-0.000052874043675,-0.192532332781049,1.001670939055095,-0.001490448281226,-2.221388617923549,2.219930340279793,0.000012358732420,-1.570796314870016,0.000023841857910,-1.570832554494039,0.000095873801911,0.000095873801911
361,1776828651301,-0.000062492954082,-0.192532328711179,1.001670936833968,-0.001503715993176,-2.221334725769184,2.219876383167668,0.000012358732420,-1.570796314870016,0.000035762786865,-1.570844475422994,0.000035952674807,0.000047936900955
362,1776828651311,-0.000005708416958,-0.192532324941981,1.001670955199966,-0.001384456255868,-2.221316912528841,2.219858732542346,0.000036327182897,-1.570832077656881,0.000000000000000,-1.570856396351950,0.000047936900955,0.000059921127104
363,1776828651321,-0.000019298865845,-0.192532326066256,1.001670948732798,-0.001424228716442,-2.221310879359172,2.219852637018841,0.000036327182897,-1.570832077656881,0.000023841857910,-1.570856396351950,0.000023968450478,0.000047936900955
364,1776828651331,-0.000056823253956,-0.192532323911951,1.001670939396948,-0.001544039440595,-2.221376774080767,2.219918547790651,0.000024342956749,-1.570796314870016,0.000023841857910,-1.570808235798971,0.000047936900955,0.000083889579400
365,1776828651342,-0.000037119692202,-0.192532312057262,1.001670947025550,-0.001544457451771,-2.221352974929173,2.219894856539447,0.000012358732420,-1.570820156727926,0.000011920928955,-1.570760075245992,0.000035952674807,0.000047936900955
366,1776828651353,-0.000013510489097,-0.192532335055746,1.001670946239486,-0.001357647002931,-2.221364811855098,2.219906531992671,0.000036327182897,-1.570832077656881,0.000023841857910,-1.570844475422994,0.000107858024421,0.000059921127104
367,1776828651364,-0.000036304886015,-0.192532313209034,1.001670949331863,-0.001531306577611,-2.221359016697186,2.219900912532057,0.000036327182897,-1.570808235798971,0.000000000000000,-1.570783917103903,0.000023968450478,0.000071905349614
368,1776828651374,-0.000052335380103,-0.192532322799964,1.001670942998362,-0.001490857828544,-2.221352873240824,2.219894625416684,0.000012358732420,-1.570796314870016,0.000011920928955,-1.570808235798971,0.000059921127104,0.000047936900955
369,1776828651384,-0.000011734363519,-0.192532322825696,1.001670953776627,-0.001397531754529,-2.221322822277616,2.219864639459896,0.000012358732420,-1.570832077656881,0.000000000000000,-1.570820633565084,0.000071905349614,0.000035952674807
370,1776828651395,-0.000043369522331,-0.192532322238497,1.001670947379093,-0.001491027388682,-2.221304627024758,2.219846386099040,0.000000000000000,-1.570808235798971,0.000011920928955,-1.570844475422994,0.000023968450478,0.000047936900955
371,1776828651405,-0.000042256596190,-0.192532318095552,1.001670945710577,-0.001517471651550,-2.221352826848721,2.219894650987678,0.000024342956749,-1.570808235798971,0.000011920928955,-1.570796314870016,0.000035952674807,0.000059921127104
372,1776828651415,-0.000034080765215,-0.192532324336631,1.001670944244901,-0.001490949422320,-2.221364856020150,2.219906654516148,0.000024342956749,-1.570820156727926,0.000023841857910,-1.570808235798971,0.000059921127104,0.000071905349614
373,1776828651425,-0.000047180964513,-0.192532332458132,1.001670937492896,-0.001531387702473,-2.221358724498089,2.219900445245236,0.000000000000000,-1.570820156727926,0.000048160552979,-1.570844475422994,0.000059921127104,0.000095873801911
374,1776828651436,0.000016985240738,-0.192532321880476,1.001670957221905,-0.001437176254969,-2.221328576461833,2.219870518609633,0.000024342956749,-1.570868317280905,0.000011920928955,-1.570832554494039,0.000047936900955,0.000095873801911
375,1776828651446,-0.000023507086862,-0.192532317702574,1.001670955705071,-0.001464407962925,-2.221304826774482,2.219846688763028,-0.000011746083395,-1.570820156727926,-0.000011746083395,-1.570820633565084,0.000047936900955,0.000047936900955
376,1776828651457,-0.000033296596547,-0.192532330282645,1.001670939963848,-0.001437652697753,-2.221388842267408,2.219930570036513,0.000048311409046,-1.570820156727926,0.000035762786865,-1.570808235798971,0.000083889579400,0.000059921127104
377,1776828651468,0.000010902605588,-0.192532321762107,1.001670958925804,-0.001357432857735,-2.221340674169738,2.219882568105839,0.000036327182897,-1.570844475422994,-0.000011746083395,-1.570820633565084,0.000083889579400,0.000059921127104
378,1776828651479,-0.000012323849573,-0.192532324820994,1.001670955577964,-0.001371263325651,-2.221322977874709,2.219864785806663,0.000024342956749,-1.570820156727926,-0.000011746083395,-1.570844475422994,0.000071905349614,0.000047936900955
379,1776828651489,-0.000030722126693,-0.192532321811385,1.001670947362411,-0.001451001809540,-2.221346905959524,2.219888698393003,0.000012358732420,-1.570820156727926,0.000011920928955,-1.570796314870016,0.000071905349614,0.000035952674807
380,1776828651500,-0.000035855319336,-0.192532324829024,1.001670945273502,-0.001451019577218,-2.221370871989464,2.219912651597830,0.000036327182897,-1.570808235798971,0.000011920928955,-1.570808235798971,0.000071905349614,0.000059921127104
381,1776828651511,-0.000006940699603,-0.192532315902665,1.001670956585752,-0.001477792030815,-2.221310574261212,2.219852495483104,0.000000000000000,-1.570844475422994,0.000000000000000,-1.570808235798971,0.000035952674807,0.000059921127104
382,1776828651522,-0.000040548810470,-0.192532325100537,1.001670941973548,-0.001503790423688,-2.221334708714051,2.219876455047949,0.000024342956749,-1.570820156727926,0.000035762786865,-1.570832554494039,0.000023968450478,0.000059921127104
383,1776828651532,-0.000071244874796,-0.192532322258224,1.001670937405915,-0.001597270743171,-2.221364773931066,2.219906542987228,0.000012358732420,-1.570783917103903,0.000023841857910,-1.570820633565084,0.000023968450478,0.000095873801911
384,1776828651544,-0.000039013606415,-0.192532325905092,1.001670946776797,-0.001477326413822,-2.221334765995276,2.219876536852744,0.000012358732420,-1.570808235798971,0.000011920928955,-1.570844475422994,0.000047936900955,0.000071905349614
385,1776828651554,-0.000041384014766,-0.192532330061105,1.001670943338196,-0.001450711944759,-2.221334804718814,2.219876509792227,0.000024342956749,-1.570808235798971,0.000023841857910,-1.570856396351950,0.000047936900955,0.000059921127104
386,1776828651565,-0.000038364576446,-0.192532320792484,1.001670944775566,-0.001517549153280,-2.221340881803180,2.219882684827329,0.000012358732420,-1.570820156727926,0.000023841857910,-1.570808235798971,0.000035952674807,0.000059921127104
387,1776828651576,-0.000060920890686,-0.192532320221830,1.001670940533771,-0.001583494399069,-2.221346586860046,2.219888374996700,0.000012358732420,-1.570796314870016,0.000023841857910,-1.570820633565084,0.000011984225239,0.000083889579400
388,1776828651586,-0.000043146537364,-0.192532319701286,1.001670944163095,-0.001517613703488,-2.221328818846203,2.219870599809459,-0.000011746083395,-1.570820156727926,0.000023841857910,-1.570796314870016,0.000047936900955,0.000035952674807
389,1776828651597,-0.000023785897379,-0.192532321513428,1.001670951296254,-0.001464472414778,-2.221352916098460,2.219894772357502,0.000012358732420,-1.570820156727926,0.000000000000000,-1.570808235798971,0.000071905349614,0.000071905349614
390,1776828651608,-0.000062223074904,-0.192532335157163,1.001670931031511,-0.001450808002435,-2.221382853388143,2.219924453330458,0.000036327182897,-1.570796314870016,0.000048160552979,-1.570820633565084,0.000083889579400,0.000035952674807
391,1776828651619,-0.000013846500996,-0.192532312472119,1.001670956942609,-0.001478888557228,-2.221323062220629,2.219864995846005,0.000000000000000,-1.570832077656881,-0.000011746083395,-1.570783917103903,0.000047936900955,0.000047936900955
392,1776828651630,-0.000115421925640,-0.192532327959390,1.001670917769626,-0.001610917691213,-2.221454894807106,2.219996532801707,0.000048311409046,-1.570736233388082,0.000035762786865,-1.570760075245992,0.000071905349614,0.000071905349614
393,1776828651641,-0.000190330807334,-0.192532327078580,1.001670908289925,-0.001597815794212,-2.221424755547792,2.219966230900073,0.000000000000000,-1.570616547261373,-0.000035587941305,-1.570832554494039,0.000095873801911,0.000059921127104
394,1776828651652,-0.000361039153127,-0.192532344313486,1.001670820707786,-0.001809315998067,-2.221484600175790,2.220025599089260,0.000036327182897,-1.570437256489889,-0.000011746083395,-1.570868794118063,0.000023968450478,0.000047936900955
395,1776828651663,-0.000861263826066,-0.192532372609252,1.001670390118938,-0.002487174476987,-2.221778127237594,2.220318003728878,0.000036327182897,-1.569898907338278,0.000000000000000,-1.570844475422994,0.000011984225239,0.000071905349614
396,1776828651674,-0.001176637726794,-0.192532356423350,1.001669986368025,-0.002859475018009,-2.221921577031194,2.220460713816818,0.000000000000000,-1.569563690816061,0.000011920928955,-1.570868794118063,0.000023968450478,0.000059921127104
397,1776828651685,-0.001545201911243,-0.192532381712629,1.001669368996782,-0.003298239525395,-2.222167480888615,2.220705880985159,0.000012358732420,-1.569145027791158,-0.000011746083395,-1.570832554494039,0.000059921127104,0.000071905349614
398,1776828651696,-0.002383020344543,-0.192532380528411,1.001667416783889,0.004373716703361,2.221749631446576,-2.220286585008322,0.000000000000000,-1.568247620259420,0.000011920928955,-1.570820633565084,0.000011984225239,0.000047936900955
399,1776828651707,-0.002806303863288,-0.192532400337768,1.001666130693981,0.004864170395449,2.221492231573619,-2.220028593339013,0.000000000000000,-1.567793194447653,0.000035762786865,-1.570820633565084,0.000047936900955,0.000047936900955
400,1776828651718,-0.003144936245034,-0.192532450032001,1.001664958942660,0.005261298609230,2.221288519998347,-2.219824395227259,0.000012358732420,-1.567410771046774,0.000023841857910,-1.570832554494039,0.000059921127104,0.000071905349614
401,1776828651728,-0.003790285866194,-0.192532420019686,1.001662401811314,0.006098149046244,2.220934682045575,-2.219469655356566,0.000000000000000,-1.566704575215475,0.000011920928955,-1.570796314870016,0.000047936900955,0.000071905349614
402,1776828651739,-0.004049966041713,-0.192532330992078,1.001661262465428,0.006402773411773,2.220808586357066,-2.219343316930592,-0.000023667012350,-1.566417519246237,0.000000000000000,-1.570796314870016,0.000059921127104,0.000059921127104
403,1776828651750,-0.004254232657329,-0.192532434344102,1.001660270847186,0.006641235210629,2.220689171835187,-2.219223365103614,0.000000000000000,-1.566202465687887,0.000023841857910,-1.570796314870016,0.000047936900955,0.000047936900955
404,1776828651761,-0.004613991244161,-0.192532508052860,1.001658434686188,0.007105616271859,2.220454743797000,-2.218988365952582,0.000012358732420,-1.565831486378805,0.000072002410889,-1.570783917103903,0.000059921127104,0.000059921127104
405,1776828651772,-0.004728080004786,-0.192532340502105,1.001657872827671,0.007211578415653,2.220454869996049,-2.218988356124898,-0.000023667012350,-1.565699879323141,0.000048160552979,-1.570808235798971,0.000047936900955,0.000023968450478
406,1776828651782,-0.004740367328590,-0.192532449273344,1.001657784952339,0.007250999438484,2.220413333640209,-2.218946785054254,0.000000000000000,-1.565676037465231,0.000035762786865,-1.570796314870016,0.000047936900955,0.000059921127104
407,1776828651792,-0.004756199940585,-0.192532399223931,1.001657702017063,0.007304260520544,2.220413037569887,-2.218946375493573,-0.000011746083395,-1.565687958394186,0.000083923339844,-1.570796314870016,0.000035952674807,0.000047936900955
408,1776828651802,-0.004696854056697,-0.192532343805910,1.001658042390098,0.007157854424188,2.220479212171981,-2.219012732986747,-0.000023667012350,-1.565723721181051,0.000035762786865,-1.570844475422994,0.000047936900955,0.000047936900955
409,1776828651812,-0.004635823181716,-0.192532552637145,1.001658326472778,0.007078424679276,2.220479128297345,-2.219012583624954,0.000024342956749,-1.565759960805075,-0.000011746083395,-1.570808235798971,0.000035952674807,0.000059921127104
410,1776828651824,-0.004594912614520,-0.192532457470694,1.001658558058809,0.006985893125496,2.220533433688384,-2.219066945383197,0.000000000000000,-1.565819088612692,0.000023841857910,-1.570892635975973,0.000047936900955,0.000071905349614
411,1776828651834,-0.004574628652770,-0.192532560903871,1.001658644165495,0.006906082010981,2.220497003702322,-2.219030796977086,0.000024342956749,-1.565819088612692,-0.000011746083395,-1.570832554494039,0.000095873801911,0.000047936900955
412,1776828651844,-0.004635219848495,-0.192532515742002,1.001658325706152,0.007064828033194,2.220461249261491,-2.218994815687055,0.000012358732420,-1.565795723591940,0.000060081481934,-1.570832554494039,0.000071905349614,0.000059921127104
413,1776828651855,-0.004662641564624,-0.192532504533781,1.001658193247353,0.007091215870248,2.220449225799770,-2.218982881329540,0.000012358732420,-1.565736118947164,0.000000000000000,-1.570808235798971,0.000071905349614,0.000059921127104
